(G-CODE GENERATED BY FLATCAM v8.99 - www.flatcam.org - Version Date: 2019/12/15)

(Name: copper_2mm)
(Type: G-code from Geometry)
(Units: MM)

(Created on Sunday, 06 September 2020 at 20:20)

(TOOL DIAMETER: 2.0 mm)
(Feedrate: 150.0 mm/min)
(Feedrate_Z: 76.2 mm/min)
(Feedrate rapids 76.2 mm/min)

(Z_Cut: -0.15 mm)
(Z_Move: 1.0 mm)
(Z Toolchange: 20.0 mm)
(X,Y Toolchange: 0.0000, 0.0000 mm)
(Z Start: None mm)
(Z End: 20.0 mm)
(Steps per circle: 128)
(Preprocessor Geometry: default)

(X range:  -26.7500 ...   -1.8195  mm)
(Y range:   41.8100 ...   56.4705  mm)

(Spindle Speed: 12000 RPM)
G21
G90
G94




G01 F150.00
G00 Z1.0000

M03 S12000
G00 X-26.7482 Y44.3613
G01 F76.20
G01 Z-0.1500
G01 F150.00
G01 X-26.7462 Y44.3123
G01 X-26.7430 Y44.2682
G01 X-26.7381 Y44.2194
G01 X-26.7327 Y44.1755
G01 X-26.7255 Y44.1270
G01 X-26.7133 Y44.0583
G01 X-26.7084 Y44.0353
G01 X-26.6987 Y43.9922
G01 X-26.6868 Y43.9446
G01 X-26.6750 Y43.9020
G01 X-26.6608 Y43.8551
G01 X-26.6469 Y43.8131
G01 X-26.6304 Y43.7669
G01 X-26.6100 Y43.7142
G01 X-26.5778 Y43.6400
G01 X-26.5580 Y43.5980
G01 X-26.5370 Y43.5561
G01 X-26.5138 Y43.5128
G01 X-26.4920 Y43.4744
G01 X-26.4668 Y43.4323
G01 X-26.4432 Y43.3950
G01 X-26.4159 Y43.3542
G01 X-26.3905 Y43.3181
G01 X-26.3612 Y43.2786
G01 X-26.3341 Y43.2438
G01 X-26.3029 Y43.2059
G01 X-26.2741 Y43.1724
G01 X-26.2411 Y43.1361
G01 X-26.1935 Y43.0865
G01 X-26.1759 Y43.0694
G01 X-26.1439 Y43.0389
G01 X-26.1076 Y43.0059
G01 X-26.0695 Y42.9731
G01 X-26.0362 Y42.9459
G01 X-25.9861 Y42.9071
G01 X-25.9258 Y42.8641
G01 X-25.8850 Y42.8368
G01 X-25.8436 Y42.8106
G01 X-25.7672 Y42.7662
G01 X-25.7239 Y42.7430
G01 X-25.6820 Y42.7220
G01 X-25.6400 Y42.7022
G01 X-25.5997 Y42.6843
G01 X-25.5658 Y42.6700
G01 X-25.5131 Y42.6496
G01 X-25.4669 Y42.6331
G01 X-25.4249 Y42.6192
G01 X-25.3780 Y42.6050
G01 X-25.3354 Y42.5932
G01 X-25.2878 Y42.5813
G01 X-25.2217 Y42.5667
G01 X-25.1530 Y42.5545
G01 X-25.1045 Y42.5473
G01 X-25.0548 Y42.5412
G01 X-24.9677 Y42.5338
G01 X-24.9187 Y42.5314
G01 X-24.8745 Y42.5303
G01 X-24.5751 Y42.5300
G01 X-24.5071 Y42.5088
G01 X-24.4598 Y42.4957
G01 X-24.4122 Y42.4838
G01 X-24.3413 Y42.4681
G01 X-24.2678 Y42.4551
G01 X-24.2192 Y42.4478
G01 X-24.1705 Y42.4418
G01 X-24.1216 Y42.4370
G01 X-24.0727 Y42.4334
G01 X-24.0236 Y42.4310
G01 X-23.9500 Y42.4295
G01 X-6.7368 Y42.4295
G01 X-6.6901 Y42.3893
G01 X-6.6568 Y42.3621
G01 X-6.5836 Y42.3052
G01 X-6.5594 Y42.2876
G01 X-6.4992 Y42.2452
G01 X-6.4584 Y42.2179
G01 X-6.3921 Y42.1760
G01 X-6.3541 Y42.1533
G01 X-6.2900 Y42.1170
G01 X-6.2467 Y42.0939
G01 X-6.1785 Y42.0596
G01 X-6.1366 Y42.0398
G01 X-6.0693 Y42.0100
G01 X-6.0354 Y41.9957
G01 X-5.9552 Y41.9647
G01 X-5.9090 Y41.9482
G01 X-5.8391 Y41.9251
G01 X-5.7921 Y41.9108
G01 X-5.7212 Y41.8912
G01 X-5.6736 Y41.8793
G01 X-5.6017 Y41.8631
G01 X-5.5536 Y41.8535
G01 X-5.4811 Y41.8410
G01 X-5.4325 Y41.8338
G01 X-5.3536 Y41.8240
G01 X-5.3106 Y41.8199
G01 X-5.2372 Y41.8145
G01 X-5.1881 Y41.8121
G01 X-5.0900 Y41.8100
G01 X-4.9919 Y41.8121
G01 X-4.9428 Y41.8145
G01 X-4.8694 Y41.8199
G01 X-4.8206 Y41.8247
G01 X-4.7475 Y41.8338
G01 X-4.6989 Y41.8410
G01 X-4.6013 Y41.8582
G01 X-4.5064 Y41.8793
G01 X-4.4588 Y41.8912
G01 X-4.3879 Y41.9108
G01 X-4.3409 Y41.9251
G01 X-4.2710 Y41.9482
G01 X-4.2248 Y41.9647
G01 X-4.1446 Y41.9957
G01 X-4.0434 Y42.0398
G01 X-4.0015 Y42.0596
G01 X-3.9333 Y42.0939
G01 X-3.8900 Y42.1170
G01 X-3.8259 Y42.1533
G01 X-3.7838 Y42.1786
G01 X-3.7216 Y42.2179
G01 X-3.6808 Y42.2452
G01 X-3.6206 Y42.2876
G01 X-3.5964 Y42.3052
G01 X-3.5232 Y42.3621
G01 X-3.4852 Y42.3933
G01 X-3.4295 Y42.4414
G01 X-3.3931 Y42.4743
G01 X-3.3222 Y42.5422
G01 X-3.2543 Y42.6131
G01 X-3.2214 Y42.6495
G01 X-3.1693 Y42.7099
G01 X-3.1421 Y42.7432
G01 X-3.0852 Y42.8165
G01 X-3.0676 Y42.8406
G01 X-3.0252 Y42.9008
G01 X-2.9979 Y42.9416
G01 X-2.9560 Y43.0079
G01 X-2.9333 Y43.0459
G01 X-2.8970 Y43.1100
G01 X-2.8739 Y43.1533
G01 X-2.8396 Y43.2214
G01 X-2.8198 Y43.2634
G01 X-2.7757 Y43.3646
G01 X-2.7447 Y43.4448
G01 X-2.7282 Y43.4910
G01 X-2.7051 Y43.5609
G01 X-2.6908 Y43.6079
G01 X-2.6712 Y43.6788
G01 X-2.6593 Y43.7264
G01 X-2.6382 Y43.8213
G01 X-2.6210 Y43.9189
G01 X-2.6138 Y43.9675
G01 X-2.6040 Y44.0464
G01 X-2.5999 Y44.0894
G01 X-2.5945 Y44.1628
G01 X-2.5921 Y44.2119
G01 X-2.5900 Y44.3100
G01 X-2.5921 Y44.4081
G01 X-2.5945 Y44.4572
G01 X-2.5999 Y44.5306
G01 X-2.6047 Y44.5794
G01 X-2.6138 Y44.6525
G01 X-2.6210 Y44.7011
G01 X-2.6382 Y44.7988
G01 X-2.6593 Y44.8936
G01 X-2.6712 Y44.9412
G01 X-2.6908 Y45.0121
G01 X-2.7051 Y45.0591
G01 X-2.7282 Y45.1290
G01 X-2.7447 Y45.1752
G01 X-2.7757 Y45.2554
G01 X-2.8198 Y45.3566
G01 X-2.8396 Y45.3986
G01 X-2.8739 Y45.4667
G01 X-2.8970 Y45.5100
G01 X-2.9333 Y45.5741
G01 X-2.9586 Y45.6162
G01 X-2.9979 Y45.6784
G01 X-3.0252 Y45.7192
G01 X-3.0676 Y45.7794
G01 X-3.0852 Y45.8035
G01 X-3.1421 Y45.8768
G01 X-3.1733 Y45.9148
G01 X-3.2214 Y45.9705
G01 X-3.2543 Y46.0069
G01 X-3.3222 Y46.0778
G01 X-3.3931 Y46.1457
G01 X-3.4295 Y46.1786
G01 X-3.4899 Y46.2307
G01 X-3.5232 Y46.2579
G01 X-3.5965 Y46.3148
G01 X-3.6206 Y46.3324
G01 X-3.6808 Y46.3748
G01 X-3.7216 Y46.4021
G01 X-3.7879 Y46.4440
G01 X-3.8259 Y46.4667
G01 X-3.8900 Y46.5030
G01 X-3.9333 Y46.5261
G01 X-4.0015 Y46.5604
G01 X-4.0434 Y46.5802
G01 X-4.1446 Y46.6243
G01 X-4.2248 Y46.6553
G01 X-4.2710 Y46.6718
G01 X-4.3409 Y46.6949
G01 X-4.3879 Y46.7092
G01 X-4.4588 Y46.7288
G01 X-4.5064 Y46.7407
G01 X-4.6013 Y46.7618
G01 X-4.6989 Y46.7790
G01 X-4.7475 Y46.7862
G01 X-4.8264 Y46.7960
G01 X-4.8694 Y46.8001
G01 X-4.9428 Y46.8055
G01 X-4.9919 Y46.8079
G01 X-5.0900 Y46.8100
G01 X-5.1881 Y46.8079
G01 X-5.2372 Y46.8055
G01 X-5.3106 Y46.8001
G01 X-5.3594 Y46.7953
G01 X-5.4325 Y46.7862
G01 X-5.4811 Y46.7790
G01 X-5.5536 Y46.7665
G01 X-5.6017 Y46.7569
G01 X-5.6736 Y46.7407
G01 X-5.7212 Y46.7288
G01 X-5.7921 Y46.7092
G01 X-5.8391 Y46.6949
G01 X-5.9090 Y46.6718
G01 X-5.9552 Y46.6553
G01 X-6.0354 Y46.6243
G01 X-6.1366 Y46.5802
G01 X-6.1809 Y46.5592
G01 X-6.2467 Y46.5261
G01 X-6.2900 Y46.5030
G01 X-6.3541 Y46.4667
G01 X-6.4134 Y46.4305
G01 X-23.9500 Y46.4305
G01 X-24.0236 Y46.4290
G01 X-24.0727 Y46.4266
G01 X-24.1216 Y46.4230
G01 X-24.1705 Y46.4182
G01 X-24.2192 Y46.4122
G01 X-24.2678 Y46.4049
G01 X-24.3413 Y46.3919
G01 X-24.4122 Y46.3762
G01 X-24.4598 Y46.3643
G01 X-24.5071 Y46.3512
G01 X-24.5669 Y46.3327
G01 X-24.8594 Y46.3300
G01 X-24.9187 Y46.3286
G01 X-24.9677 Y46.3262
G01 X-25.0118 Y46.3230
G01 X-25.0606 Y46.3181
G01 X-25.1045 Y46.3127
G01 X-25.1530 Y46.3055
G01 X-25.2217 Y46.2933
G01 X-25.2447 Y46.2884
G01 X-25.2878 Y46.2787
G01 X-25.3354 Y46.2668
G01 X-25.3780 Y46.2550
G01 X-25.4249 Y46.2408
G01 X-25.4669 Y46.2269
G01 X-25.5131 Y46.2104
G01 X-25.5658 Y46.1900
G01 X-25.5997 Y46.1757
G01 X-25.6400 Y46.1578
G01 X-25.6820 Y46.1380
G01 X-25.7239 Y46.1170
G01 X-25.7672 Y46.0938
G01 X-25.8056 Y46.0720
G01 X-25.8477 Y46.0468
G01 X-25.8850 Y46.0232
G01 X-25.9258 Y45.9959
G01 X-25.9861 Y45.9529
G01 X-26.0362 Y45.9141
G01 X-26.0741 Y45.8829
G01 X-26.1076 Y45.8541
G01 X-26.1439 Y45.8211
G01 X-26.1935 Y45.7735
G01 X-26.2411 Y45.7239
G01 X-26.2741 Y45.6876
G01 X-26.3029 Y45.6541
G01 X-26.3341 Y45.6162
G01 X-26.3729 Y45.5661
G01 X-26.4159 Y45.5058
G01 X-26.4432 Y45.4650
G01 X-26.4694 Y45.4236
G01 X-26.4920 Y45.3856
G01 X-26.5138 Y45.3472
G01 X-26.5370 Y45.3039
G01 X-26.5580 Y45.2620
G01 X-26.5778 Y45.2200
G01 X-26.6100 Y45.1458
G01 X-26.6304 Y45.0931
G01 X-26.6469 Y45.0469
G01 X-26.6608 Y45.0049
G01 X-26.6750 Y44.9580
G01 X-26.6868 Y44.9154
G01 X-26.6987 Y44.8678
G01 X-26.7133 Y44.8017
G01 X-26.7180 Y44.7765
G01 X-26.7255 Y44.7330
G01 X-26.7327 Y44.6845
G01 X-26.7388 Y44.6348
G01 X-26.7430 Y44.5918
G01 X-26.7462 Y44.5477
G01 X-26.7486 Y44.4987
G01 X-26.7500 Y44.4300
G01 X-26.7482 Y44.3613
G00 Z1.0000
G00 X-26.7482 Y49.3613
G01 F76.20
G01 Z-0.1500
G01 F150.00
G01 X-26.7462 Y49.3123
G01 X-26.7430 Y49.2682
G01 X-26.7381 Y49.2194
G01 X-26.7327 Y49.1755
G01 X-26.7255 Y49.1270
G01 X-26.7133 Y49.0583
G01 X-26.6987 Y48.9922
G01 X-26.6868 Y48.9446
G01 X-26.6750 Y48.9020
G01 X-26.6608 Y48.8551
G01 X-26.6469 Y48.8131
G01 X-26.6304 Y48.7669
G01 X-26.6100 Y48.7142
G01 X-26.5957 Y48.6803
G01 X-26.5778 Y48.6400
G01 X-26.5580 Y48.5980
G01 X-26.5370 Y48.5561
G01 X-26.5138 Y48.5128
G01 X-26.4920 Y48.4744
G01 X-26.4668 Y48.4323
G01 X-26.4432 Y48.3950
G01 X-26.4159 Y48.3542
G01 X-26.3729 Y48.2939
G01 X-26.3341 Y48.2438
G01 X-26.3029 Y48.2059
G01 X-26.2741 Y48.1724
G01 X-26.2411 Y48.1361
G01 X-26.1935 Y48.0865
G01 X-26.1439 Y48.0389
G01 X-26.1076 Y48.0059
G01 X-26.0695 Y47.9731
G01 X-26.0362 Y47.9459
G01 X-25.9861 Y47.9071
G01 X-25.9258 Y47.8641
G01 X-25.8850 Y47.8368
G01 X-25.8436 Y47.8106
G01 X-25.8056 Y47.7880
G01 X-25.7672 Y47.7662
G01 X-25.7239 Y47.7430
G01 X-25.6820 Y47.7220
G01 X-25.6400 Y47.7022
G01 X-25.5997 Y47.6843
G01 X-25.5658 Y47.6700
G01 X-25.5131 Y47.6496
G01 X-25.4669 Y47.6331
G01 X-25.4249 Y47.6192
G01 X-25.3780 Y47.6050
G01 X-25.3354 Y47.5932
G01 X-25.2878 Y47.5813
G01 X-25.2217 Y47.5667
G01 X-25.1530 Y47.5545
G01 X-25.1045 Y47.5473
G01 X-25.0548 Y47.5412
G01 X-24.9677 Y47.5338
G01 X-24.9187 Y47.5314
G01 X-24.8500 Y47.5300
G01 X-24.5751 Y47.5300
G01 X-24.5071 Y47.5088
G01 X-24.4598 Y47.4957
G01 X-24.4122 Y47.4838
G01 X-24.3413 Y47.4681
G01 X-24.3161 Y47.4634
G01 X-24.2678 Y47.4551
G01 X-24.2192 Y47.4478
G01 X-24.1646 Y47.4411
G01 X-24.0727 Y47.4334
G01 X-24.0236 Y47.4310
G01 X-23.9500 Y47.4295
G01 X-20.1500 Y47.4295
G01 X-20.0764 Y47.4310
G01 X-20.0273 Y47.4334
G01 X-19.9784 Y47.4370
G01 X-19.9295 Y47.4418
G01 X-19.8808 Y47.4478
G01 X-19.8322 Y47.4551
G01 X-19.7839 Y47.4634
G01 X-19.7587 Y47.4681
G01 X-19.6878 Y47.4838
G01 X-19.6402 Y47.4957
G01 X-19.5929 Y47.5088
G01 X-19.5459 Y47.5231
G01 X-19.4993 Y47.5385
G01 X-19.4530 Y47.5550
G01 X-19.3957 Y47.5772
G01 X-19.3170 Y47.6113
G01 X-19.2750 Y47.6311
G01 X-19.2288 Y47.6544
G01 X-19.1855 Y47.6776
G01 X-19.1427 Y47.7018
G01 X-19.1006 Y47.7270
G01 X-19.0592 Y47.7533
G01 X-19.0183 Y47.7805
G01 X-18.9782 Y47.8088
G01 X-18.9540 Y47.8264
G01 X-18.9001 Y47.8683
G01 X-18.8621 Y47.8994
G01 X-18.8249 Y47.9315
G01 X-18.7886 Y47.9644
G01 X-18.7530 Y47.9983
G01 X-17.6454 Y49.1054
G01 X-17.5944 Y49.1586
G01 X-17.5615 Y49.1949
G01 X-17.5254 Y49.2368
G01 X-17.4983 Y49.2701
G01 X-17.4564 Y49.3240
G01 X-17.4105 Y49.3883
G01 X-17.3833 Y49.4292
G01 X-17.3544 Y49.4747
G01 X-17.3318 Y49.5127
G01 X-17.3076 Y49.5555
G01 X-17.2844 Y49.5988
G01 X-17.2611 Y49.6450
G01 X-17.2413 Y49.6870
G01 X-17.2072 Y49.7657
G01 X-17.1850 Y49.8230
G01 X-17.1685 Y49.8693
G01 X-17.1531 Y49.9159
G01 X-17.1388 Y49.9629
G01 X-17.1257 Y50.0102
G01 X-17.1138 Y50.0578
G01 X-17.1030 Y50.1057
G01 X-17.0934 Y50.1539
G01 X-17.0851 Y50.2022
G01 X-17.0778 Y50.2508
G01 X-17.0711 Y50.3054
G01 X-17.0634 Y50.3973
G01 X-17.0610 Y50.4464
G01 X-17.0595 Y50.5200
G01 X-17.0595 Y54.4700
G01 X-17.0610 Y54.5436
G01 X-17.0634 Y54.5927
G01 X-17.0670 Y54.6416
G01 X-17.0718 Y54.6905
G01 X-17.0778 Y54.7392
G01 X-17.0851 Y54.7878
G01 X-17.0934 Y54.8361
G01 X-17.0981 Y54.8613
G01 X-17.1138 Y54.9322
G01 X-17.1257 Y54.9798
G01 X-17.1388 Y55.0271
G01 X-17.1531 Y55.0741
G01 X-17.1685 Y55.1207
G01 X-17.1850 Y55.1670
G01 X-17.2072 Y55.2243
G01 X-17.2413 Y55.3030
G01 X-17.2611 Y55.3450
G01 X-17.2844 Y55.3912
G01 X-17.3076 Y55.4345
G01 X-17.3318 Y55.4773
G01 X-17.3570 Y55.5194
G01 X-17.3833 Y55.5608
G01 X-17.4105 Y55.6017
G01 X-17.4388 Y55.6418
G01 X-17.4564 Y55.6660
G01 X-17.4983 Y55.7199
G01 X-17.5294 Y55.7579
G01 X-17.5615 Y55.7951
G01 X-17.5944 Y55.8314
G01 X-17.6454 Y55.8846
G01 X-17.6986 Y55.9356
G01 X-17.7349 Y55.9685
G01 X-17.7768 Y56.0046
G01 X-17.8101 Y56.0317
G01 X-17.8640 Y56.0736
G01 X-17.9283 Y56.1195
G01 X-17.9692 Y56.1467
G01 X-18.0147 Y56.1756
G01 X-18.0527 Y56.1982
G01 X-18.0955 Y56.2224
G01 X-18.1388 Y56.2456
G01 X-18.1850 Y56.2689
G01 X-18.2270 Y56.2887
G01 X-18.2719 Y56.3086
G01 X-18.3057 Y56.3228
G01 X-18.3630 Y56.3450
G01 X-18.4093 Y56.3615
G01 X-18.4559 Y56.3769
G01 X-18.5029 Y56.3912
G01 X-18.5502 Y56.4043
G01 X-18.5978 Y56.4162
G01 X-18.6687 Y56.4319
G01 X-18.7422 Y56.4449
G01 X-18.7908 Y56.4522
G01 X-18.8454 Y56.4589
G01 X-18.9373 Y56.4666
G01 X-18.9864 Y56.4690
G01 X-19.0600 Y56.4705
G01 X-19.1336 Y56.4690
G01 X-19.1827 Y56.4666
G01 X-19.2316 Y56.4630
G01 X-19.2805 Y56.4582
G01 X-19.3292 Y56.4522
G01 X-19.3778 Y56.4449
G01 X-19.4513 Y56.4319
G01 X-19.5222 Y56.4162
G01 X-19.5698 Y56.4043
G01 X-19.6171 Y56.3912
G01 X-19.6641 Y56.3769
G01 X-19.7107 Y56.3615
G01 X-19.7570 Y56.3450
G01 X-19.8143 Y56.3228
G01 X-19.8930 Y56.2887
G01 X-19.9350 Y56.2689
G01 X-19.9812 Y56.2456
G01 X-20.0245 Y56.2224
G01 X-20.0673 Y56.1982
G01 X-20.1094 Y56.1730
G01 X-20.1508 Y56.1467
G01 X-20.1917 Y56.1195
G01 X-20.2318 Y56.0912
G01 X-20.2560 Y56.0736
G01 X-20.3099 Y56.0317
G01 X-20.3479 Y56.0006
G01 X-20.3851 Y55.9685
G01 X-20.4214 Y55.9356
G01 X-20.4746 Y55.8846
G01 X-20.5256 Y55.8314
G01 X-20.5585 Y55.7951
G01 X-20.5946 Y55.7532
G01 X-20.6217 Y55.7199
G01 X-20.6636 Y55.6660
G01 X-20.7095 Y55.6017
G01 X-20.7367 Y55.5608
G01 X-20.7656 Y55.5153
G01 X-20.7882 Y55.4773
G01 X-20.8124 Y55.4345
G01 X-20.8356 Y55.3912
G01 X-20.8589 Y55.3450
G01 X-20.8787 Y55.3030
G01 X-20.8986 Y55.2581
G01 X-20.9128 Y55.2243
G01 X-20.9350 Y55.1670
G01 X-20.9515 Y55.1207
G01 X-20.9669 Y55.0741
G01 X-20.9812 Y55.0271
G01 X-20.9943 Y54.9798
G01 X-21.0062 Y54.9322
G01 X-21.0219 Y54.8613
G01 X-21.0349 Y54.7878
G01 X-21.0422 Y54.7392
G01 X-21.0489 Y54.6846
G01 X-21.0566 Y54.5927
G01 X-21.0590 Y54.5436
G01 X-21.0605 Y54.4700
G01 X-21.0605 Y51.4305
G01 X-23.9500 Y51.4305
G01 X-24.0236 Y51.4290
G01 X-24.0727 Y51.4266
G01 X-24.1216 Y51.4230
G01 X-24.1705 Y51.4182
G01 X-24.2192 Y51.4122
G01 X-24.2678 Y51.4049
G01 X-24.3413 Y51.3919
G01 X-24.4122 Y51.3762
G01 X-24.4598 Y51.3643
G01 X-24.5071 Y51.3512
G01 X-24.5669 Y51.3327
G01 X-24.8594 Y51.3300
G01 X-24.9187 Y51.3286
G01 X-24.9677 Y51.3262
G01 X-25.0118 Y51.3230
G01 X-25.0606 Y51.3181
G01 X-25.1045 Y51.3127
G01 X-25.1530 Y51.3055
G01 X-25.2217 Y51.2933
G01 X-25.2447 Y51.2884
G01 X-25.2878 Y51.2787
G01 X-25.3354 Y51.2668
G01 X-25.3780 Y51.2550
G01 X-25.4249 Y51.2408
G01 X-25.4669 Y51.2269
G01 X-25.5131 Y51.2104
G01 X-25.5658 Y51.1900
G01 X-25.5997 Y51.1757
G01 X-25.6400 Y51.1578
G01 X-25.6820 Y51.1380
G01 X-25.7239 Y51.1170
G01 X-25.7672 Y51.0938
G01 X-25.8056 Y51.0720
G01 X-25.8477 Y51.0468
G01 X-25.8850 Y51.0232
G01 X-25.9258 Y50.9959
G01 X-25.9861 Y50.9529
G01 X-26.0362 Y50.9141
G01 X-26.0741 Y50.8829
G01 X-26.1076 Y50.8541
G01 X-26.1439 Y50.8211
G01 X-26.1935 Y50.7735
G01 X-26.2411 Y50.7239
G01 X-26.2741 Y50.6876
G01 X-26.3069 Y50.6495
G01 X-26.3612 Y50.5814
G01 X-26.3905 Y50.5419
G01 X-26.4159 Y50.5058
G01 X-26.4432 Y50.4650
G01 X-26.4694 Y50.4236
G01 X-26.5138 Y50.3472
G01 X-26.5370 Y50.3039
G01 X-26.5580 Y50.2620
G01 X-26.5778 Y50.2200
G01 X-26.5957 Y50.1797
G01 X-26.6100 Y50.1458
G01 X-26.6304 Y50.0931
G01 X-26.6469 Y50.0469
G01 X-26.6608 Y50.0049
G01 X-26.6750 Y49.9580
G01 X-26.6868 Y49.9154
G01 X-26.6987 Y49.8678
G01 X-26.7133 Y49.8017
G01 X-26.7180 Y49.7765
G01 X-26.7255 Y49.7330
G01 X-26.7327 Y49.6845
G01 X-26.7388 Y49.6348
G01 X-26.7462 Y49.5477
G01 X-26.7486 Y49.4987
G01 X-26.7500 Y49.4300
G01 X-26.7482 Y49.3613
G00 Z1.0000
G00 X-7.0905 Y51.7555
G01 F76.20
G01 Z-0.1500
G01 F150.00
G01 X-7.1255 Y51.7345
G01 X-7.1662 Y51.7073
G01 X-7.2055 Y51.6781
G01 X-7.2433 Y51.6471
G01 X-7.2796 Y51.6142
G01 X-7.3142 Y51.5796
G01 X-7.3471 Y51.5433
G01 X-7.3781 Y51.5055
G01 X-7.4073 Y51.4662
G01 X-7.4345 Y51.4255
G01 X-7.4597 Y51.3835
G01 X-7.4828 Y51.3404
G01 X-7.5038 Y51.2961
G01 X-7.5217 Y51.2532
G01 X-7.5376 Y51.2096
G01 X-7.5514 Y51.1652
G01 X-7.5631 Y51.1203
G01 X-7.5728 Y51.0748
G01 X-7.5803 Y51.0290
G01 X-7.5857 Y50.9828
G01 X-7.5889 Y50.9365
G01 X-7.5900 Y50.8900
G01 X-7.5900 Y47.8900
G01 X-7.5889 Y47.8435
G01 X-7.5857 Y47.7972
G01 X-7.5803 Y47.7510
G01 X-7.5728 Y47.7052
G01 X-7.5631 Y47.6597
G01 X-7.5514 Y47.6148
G01 X-7.5376 Y47.5704
G01 X-7.5217 Y47.5268
G01 X-7.5038 Y47.4839
G01 X-7.4828 Y47.4396
G01 X-7.4597 Y47.3965
G01 X-7.4345 Y47.3545
G01 X-7.4073 Y47.3138
G01 X-7.3781 Y47.2745
G01 X-7.3471 Y47.2367
G01 X-7.3142 Y47.2004
G01 X-7.2796 Y47.1658
G01 X-7.2433 Y47.1329
G01 X-7.2055 Y47.1018
G01 X-7.1662 Y47.0727
G01 X-7.1255 Y47.0455
G01 X-7.0835 Y47.0203
G01 X-7.0403 Y46.9971
G01 X-6.9961 Y46.9762
G01 X-6.9532 Y46.9583
G01 X-6.9096 Y46.9424
G01 X-6.8652 Y46.9286
G01 X-6.8202 Y46.9169
G01 X-6.7748 Y46.9072
G01 X-6.7289 Y46.8997
G01 X-6.6828 Y46.8943
G01 X-6.6364 Y46.8911
G01 X-6.5900 Y46.8900
G01 X-3.5900 Y46.8900
G01 X-3.5436 Y46.8911
G01 X-3.4972 Y46.8943
G01 X-3.4511 Y46.8997
G01 X-3.4052 Y46.9072
G01 X-3.3598 Y46.9169
G01 X-3.3148 Y46.9286
G01 X-3.2704 Y46.9424
G01 X-3.2268 Y46.9583
G01 X-3.1839 Y46.9762
G01 X-3.1397 Y46.9971
G01 X-3.0965 Y47.0203
G01 X-3.0545 Y47.0454
G01 X-3.0138 Y47.0727
G01 X-2.9745 Y47.1018
G01 X-2.9367 Y47.1329
G01 X-2.9004 Y47.1658
G01 X-2.8658 Y47.2004
G01 X-2.8329 Y47.2367
G01 X-2.8019 Y47.2745
G01 X-2.7727 Y47.3138
G01 X-2.7455 Y47.3545
G01 X-2.7203 Y47.3965
G01 X-2.6972 Y47.4396
G01 X-2.6762 Y47.4839
G01 X-2.6583 Y47.5268
G01 X-2.6424 Y47.5704
G01 X-2.6286 Y47.6148
G01 X-2.6169 Y47.6597
G01 X-2.6072 Y47.7052
G01 X-2.5997 Y47.7510
G01 X-2.5943 Y47.7972
G01 X-2.5911 Y47.8435
G01 X-2.5900 Y47.8900
G01 X-2.5900 Y50.8900
G01 X-2.5911 Y50.9365
G01 X-2.5943 Y50.9828
G01 X-2.5997 Y51.0290
G01 X-2.6072 Y51.0748
G01 X-2.6169 Y51.1203
G01 X-2.6286 Y51.1652
G01 X-2.6424 Y51.2096
G01 X-2.6583 Y51.2532
G01 X-2.6762 Y51.2961
G01 X-2.6972 Y51.3404
G01 X-2.7203 Y51.3835
G01 X-2.7455 Y51.4255
G01 X-2.7727 Y51.4662
G01 X-2.8019 Y51.5055
G01 X-2.8329 Y51.5433
G01 X-2.8658 Y51.5796
G01 X-2.9004 Y51.6142
G01 X-2.9367 Y51.6471
G01 X-2.9745 Y51.6782
G01 X-3.0138 Y51.7073
G01 X-3.0545 Y51.7345
G01 X-3.0895 Y51.7555
G01 X-3.0895 Y52.3714
G01 X-2.4054 Y53.0554
G01 X-2.3544 Y53.1086
G01 X-2.3215 Y53.1449
G01 X-2.2894 Y53.1821
G01 X-2.2583 Y53.2201
G01 X-2.2164 Y53.2740
G01 X-2.1988 Y53.2982
G01 X-2.1705 Y53.3383
G01 X-2.1433 Y53.3792
G01 X-2.1144 Y53.4247
G01 X-2.0918 Y53.4627
G01 X-2.0676 Y53.5055
G01 X-2.0444 Y53.5488
G01 X-2.0211 Y53.5950
G01 X-2.0013 Y53.6370
G01 X-1.9672 Y53.7157
G01 X-1.9450 Y53.7730
G01 X-1.9285 Y53.8193
G01 X-1.9131 Y53.8659
G01 X-1.8988 Y53.9129
G01 X-1.8857 Y53.9602
G01 X-1.8738 Y54.0078
G01 X-1.8581 Y54.0787
G01 X-1.8451 Y54.1522
G01 X-1.8378 Y54.2008
G01 X-1.8311 Y54.2554
G01 X-1.8270 Y54.2984
G01 X-1.8234 Y54.3473
G01 X-1.8210 Y54.3964
G01 X-1.8195 Y54.4700
G01 X-1.8210 Y54.5436
G01 X-1.8234 Y54.5927
G01 X-1.8270 Y54.6416
G01 X-1.8318 Y54.6905
G01 X-1.8378 Y54.7392
G01 X-1.8451 Y54.7878
G01 X-1.8581 Y54.8613
G01 X-1.8738 Y54.9322
G01 X-1.8857 Y54.9798
G01 X-1.8988 Y55.0271
G01 X-1.9131 Y55.0741
G01 X-1.9285 Y55.1207
G01 X-1.9450 Y55.1670
G01 X-1.9672 Y55.2243
G01 X-1.9814 Y55.2581
G01 X-2.0013 Y55.3030
G01 X-2.0211 Y55.3450
G01 X-2.0444 Y55.3912
G01 X-2.0676 Y55.4345
G01 X-2.0918 Y55.4773
G01 X-2.1170 Y55.5194
G01 X-2.1433 Y55.5608
G01 X-2.1705 Y55.6017
G01 X-2.2164 Y55.6660
G01 X-2.2583 Y55.7199
G01 X-2.2894 Y55.7579
G01 X-2.3215 Y55.7951
G01 X-2.3544 Y55.8314
G01 X-2.4054 Y55.8846
G01 X-2.4230 Y55.9017
G01 X-2.4586 Y55.9356
G01 X-2.4949 Y55.9685
G01 X-2.5368 Y56.0046
G01 X-2.5701 Y56.0317
G01 X-2.6240 Y56.0736
G01 X-2.6482 Y56.0912
G01 X-2.6883 Y56.1195
G01 X-2.7292 Y56.1467
G01 X-2.7747 Y56.1756
G01 X-2.8127 Y56.1982
G01 X-2.8555 Y56.2224
G01 X-2.8988 Y56.2456
G01 X-2.9450 Y56.2689
G01 X-2.9870 Y56.2887
G01 X-3.0658 Y56.3228
G01 X-3.1230 Y56.3450
G01 X-3.1693 Y56.3615
G01 X-3.2159 Y56.3769
G01 X-3.2629 Y56.3912
G01 X-3.3102 Y56.4043
G01 X-3.3578 Y56.4162
G01 X-3.4287 Y56.4319
G01 X-3.4539 Y56.4366
G01 X-3.5022 Y56.4449
G01 X-3.5508 Y56.4522
G01 X-3.6054 Y56.4589
G01 X-3.6484 Y56.4630
G01 X-3.6973 Y56.4666
G01 X-3.7464 Y56.4690
G01 X-3.8200 Y56.4705
G01 X-3.8936 Y56.4690
G01 X-3.9427 Y56.4666
G01 X-3.9916 Y56.4630
G01 X-4.0405 Y56.4582
G01 X-4.0892 Y56.4522
G01 X-4.1378 Y56.4449
G01 X-4.2113 Y56.4319
G01 X-4.2822 Y56.4162
G01 X-4.3298 Y56.4043
G01 X-4.3771 Y56.3912
G01 X-4.4241 Y56.3769
G01 X-4.4707 Y56.3615
G01 X-4.5170 Y56.3450
G01 X-4.5743 Y56.3228
G01 X-4.6081 Y56.3086
G01 X-4.6530 Y56.2887
G01 X-4.6950 Y56.2689
G01 X-4.7412 Y56.2456
G01 X-4.7845 Y56.2224
G01 X-4.8273 Y56.1982
G01 X-4.8694 Y56.1730
G01 X-4.9108 Y56.1467
G01 X-4.9517 Y56.1195
G01 X-5.0160 Y56.0736
G01 X-5.0699 Y56.0317
G01 X-5.1079 Y56.0006
G01 X-5.1451 Y55.9685
G01 X-5.1814 Y55.9356
G01 X-5.2346 Y55.8846
G01 X-6.5046 Y54.6146
G01 X-6.5556 Y54.5614
G01 X-6.5885 Y54.5251
G01 X-6.6206 Y54.4879
G01 X-6.6517 Y54.4499
G01 X-6.6936 Y54.3960
G01 X-6.7395 Y54.3317
G01 X-6.7667 Y54.2908
G01 X-6.7956 Y54.2453
G01 X-6.8182 Y54.2073
G01 X-6.8424 Y54.1645
G01 X-6.8656 Y54.1212
G01 X-6.8889 Y54.0750
G01 X-6.9087 Y54.0330
G01 X-6.9428 Y53.9543
G01 X-6.9650 Y53.8970
G01 X-6.9815 Y53.8507
G01 X-6.9969 Y53.8041
G01 X-7.0112 Y53.7571
G01 X-7.0243 Y53.7098
G01 X-7.0362 Y53.6622
G01 X-7.0519 Y53.5913
G01 X-7.0566 Y53.5661
G01 X-7.0649 Y53.5178
G01 X-7.0722 Y53.4692
G01 X-7.0789 Y53.4146
G01 X-7.0830 Y53.3716
G01 X-7.0866 Y53.3227
G01 X-7.0890 Y53.2736
G01 X-7.0905 Y53.2000
G01 X-7.0905 Y51.7555
G00 Z1.0000
M05
G00 Z1.0000
G00 Z20.00
G00 X0.0 Y0.0

