(G-CODE GENERATED BY FLATCAM v8.99 - www.flatcam.org - Version Date: 2019/12/15)

(Name: copper_0.6mm)
(Type: G-code from Geometry)
(Units: MM)

(Created on Sunday, 06 September 2020 at 20:21)

(TOOL DIAMETER: 0.6 mm)
(Feedrate: 150.0 mm/min)
(Feedrate_Z: 76.2 mm/min)
(Feedrate rapids 76.2 mm/min)

(Z_Cut: -0.15 mm)
(Z_Move: 1.0 mm)
(Z Toolchange: 20.0 mm)
(X,Y Toolchange: 0.0000, 0.0000 mm)
(Z Start: None mm)
(Z End: 20.0 mm)
(Steps per circle: 128)
(Preprocessor Geometry: default)

(X range:  -75.7403 ...   -0.4749  mm)
(Y range:    0.4397 ...   57.5251  mm)

(Spindle Speed: 12000 RPM)
G21
G90
G94




G01 F150.00
G00 Z1.0000

M03 S12000
G00 X-28.7687 Y13.7785
G01 F76.20
G01 Z-0.1500
G01 F150.00
G01 X-28.7649 Y13.7197
G01 X-28.7558 Y13.6467
G01 X-28.7469 Y13.5956
G01 X-28.7357 Y13.5456
G01 X-28.7161 Y13.4746
G01 X-28.6973 Y13.4188
G01 X-28.6814 Y13.3776
G01 X-28.6519 Y13.3110
G01 X-28.6248 Y13.2579
G01 X-28.5954 Y13.2068
G01 X-28.5718 Y13.1695
G01 X-28.5294 Y13.1093
G01 X-28.4929 Y13.0631
G01 X-28.4640 Y13.0296
G01 X-28.4185 Y12.9815
G01 X-28.3704 Y12.9360
G01 X-28.3355 Y12.9059
G01 X-28.2907 Y12.8706
G01 X-28.2305 Y12.8282
G01 X-28.1920 Y12.8038
G01 X-28.1421 Y12.7752
G01 X-28.0890 Y12.7481
G01 X-28.0224 Y12.7186
G01 X-27.9673 Y12.6978
G01 X-27.9254 Y12.6839
G01 X-27.8544 Y12.6643
G01 X-27.7969 Y12.6517
G01 X-27.7388 Y12.6420
G01 X-27.6932 Y12.6364
G01 X-27.6215 Y12.6312
G01 X-27.5700 Y12.6300
G01 X-27.5185 Y12.6312
G01 X-27.4597 Y12.6351
G01 X-27.3867 Y12.6442
G01 X-27.3287 Y12.6546
G01 X-27.2713 Y12.6678
G01 X-27.2287 Y12.6796
G01 X-27.1588 Y12.7027
G01 X-27.1142 Y12.7200
G01 X-27.0636 Y12.7421
G01 X-26.9979 Y12.7752
G01 X-26.9468 Y12.8046
G01 X-26.9095 Y12.8282
G01 X-26.8510 Y12.8693
G01 X-25.2393 Y11.2576
G01 X-25.2382 Y11.2287
G01 X-25.2339 Y11.1749
G01 X-25.2269 Y11.1213
G01 X-25.2173 Y11.0682
G01 X-25.2052 Y11.0156
G01 X-25.1904 Y10.9637
G01 X-25.1731 Y10.9125
G01 X-25.1534 Y10.8623
G01 X-25.1315 Y10.8138
G01 X-25.1066 Y10.7650
G01 X-25.0796 Y10.7182
G01 X-25.0505 Y10.6728
G01 X-25.0226 Y10.6334
G01 X-24.9856 Y10.5865
G01 X-24.9500 Y10.5459
G01 X-24.9178 Y10.5122
G01 X-24.8841 Y10.4800
G01 X-24.8421 Y10.4432
G01 X-24.7966 Y10.4074
G01 X-24.7572 Y10.3795
G01 X-24.7106 Y10.3496
G01 X-24.6650 Y10.3234
G01 X-24.6036 Y10.2925
G01 X-24.5576 Y10.2724
G01 X-24.5036 Y10.2519
G01 X-24.4522 Y10.2353
G01 X-24.4001 Y10.2213
G01 X-24.3549 Y10.2112
G01 X-24.3087 Y10.2031
G01 X-24.2534 Y10.1959
G01 X-24.2013 Y10.1918
G01 X-24.1400 Y10.1900
G01 X-24.0787 Y10.1918
G01 X-24.0249 Y10.1961
G01 X-23.9713 Y10.2031
G01 X-23.9251 Y10.2112
G01 X-23.8656 Y10.2248
G01 X-23.8137 Y10.2396
G01 X-23.7625 Y10.2569
G01 X-23.7123 Y10.2766
G01 X-23.6638 Y10.2985
G01 X-23.6150 Y10.3234
G01 X-23.5682 Y10.3504
G01 X-23.5228 Y10.3795
G01 X-23.4834 Y10.4074
G01 X-23.4365 Y10.4444
G01 X-23.4068 Y10.4701
G01 X-23.3856 Y10.4897
G01 X-14.4000 Y10.4897
G01 X-14.3681 Y10.4904
G01 X-14.3289 Y10.4930
G01 X-14.2753 Y10.4996
G01 X-14.2436 Y10.5052
G01 X-14.2127 Y10.5120
G01 X-14.1607 Y10.5264
G01 X-14.1235 Y10.5391
G01 X-14.0971 Y10.5493
G01 X-14.0520 Y10.5695
G01 X-14.0163 Y10.5878
G01 X-13.9823 Y10.6075
G01 X-13.9616 Y10.6206
G01 X-13.9174 Y10.6517
G01 X-13.8867 Y10.6761
G01 X-13.8681 Y10.6922
G01 X-13.8341 Y10.7241
G01 X-12.0685 Y12.4898
G01 X-10.8115 Y12.4898
G01 X-9.7003 Y11.3785
G01 X-9.7003 Y9.3550
G01 X-9.6996 Y9.3231
G01 X-9.6970 Y9.2839
G01 X-9.6926 Y9.2449
G01 X-9.6848 Y9.1986
G01 X-9.6780 Y9.1677
G01 X-9.6636 Y9.1157
G01 X-9.6509 Y9.0785
G01 X-9.6364 Y9.0420
G01 X-9.6202 Y9.0062
G01 X-9.6091 Y8.9843
G01 X-9.5901 Y8.9500
G01 X-9.5694 Y8.9166
G01 X-9.5471 Y8.8843
G01 X-9.5139 Y8.8417
G01 X-9.4879 Y8.8122
G01 X-9.4710 Y8.7944
G01 X-7.8227 Y7.1459
G01 X-7.8311 Y7.1079
G01 X-7.8426 Y7.0424
G01 X-7.8534 Y6.9547
G01 X-7.8585 Y6.8812
G01 X-7.8599 Y6.8224
G01 X-7.8585 Y6.7488
G01 X-7.8520 Y6.6607
G01 X-7.8426 Y6.5876
G01 X-7.8297 Y6.5152
G01 X-7.8132 Y6.4434
G01 X-7.7975 Y6.3866
G01 X-7.7747 Y6.3166
G01 X-7.7429 Y6.2342
G01 X-7.7131 Y6.1678
G01 X-7.6863 Y6.1144
G01 X-7.6503 Y6.0502
G01 X-7.6030 Y5.9756
G01 X-7.5604 Y5.9156
G01 X-7.5148 Y5.8578
G01 X-7.4763 Y5.8132
G01 X-7.4258 Y5.7596
G01 X-7.3618 Y5.6987
G01 X-7.3058 Y5.6509
G01 X-7.2548 Y5.6112
G01 X-7.1994 Y5.5720
G01 X-7.1362 Y5.5315
G01 X-7.0606 Y5.4887
G01 X-7.0072 Y5.4619
G01 X-6.9408 Y5.4321
G01 X-6.8584 Y5.4003
G01 X-6.7884 Y5.3775
G01 X-6.7173 Y5.3583
G01 X-6.6598 Y5.3453
G01 X-6.5874 Y5.3324
G01 X-6.4997 Y5.3216
G01 X-6.4262 Y5.3165
G01 X-6.3674 Y5.3151
G01 X-6.2790 Y5.3173
G01 X-6.2057 Y5.3230
G01 X-6.1326 Y5.3324
G01 X-6.0671 Y5.3439
G01 X-6.0027 Y5.3583
G01 X-5.9176 Y5.3818
G01 X-5.8478 Y5.4052
G01 X-5.7894 Y5.4278
G01 X-5.7254 Y5.4559
G01 X-5.6465 Y5.4957
G01 X-5.5826 Y5.5323
G01 X-5.5206 Y5.5720
G01 X-5.4724 Y5.6059
G01 X-5.4142 Y5.6509
G01 X-5.3473 Y5.7086
G01 X-5.2993 Y5.7543
G01 X-5.2536 Y5.8023
G01 X-5.2040 Y5.8592
G01 X-5.1562 Y5.9202
G01 X-5.1088 Y5.9878
G01 X-5.0765 Y6.0388
G01 X-5.0407 Y6.1015
G01 X-5.0069 Y6.1678
G01 X-4.9714 Y6.2478
G01 X-4.9453 Y6.3166
G01 X-4.9268 Y6.3726
G01 X-4.9033 Y6.4577
G01 X-4.8889 Y6.5221
G01 X-4.8774 Y6.5876
G01 X-4.8678 Y6.6624
G01 X-4.8615 Y6.7488
G01 X-4.8600 Y6.8150
G01 X-4.8615 Y6.8812
G01 X-4.8680 Y6.9693
G01 X-4.8774 Y7.0424
G01 X-4.8889 Y7.1079
G01 X-4.9033 Y7.1723
G01 X-4.9268 Y7.2574
G01 X-4.9502 Y7.3272
G01 X-4.9728 Y7.3856
G01 X-5.0009 Y7.4496
G01 X-5.0407 Y7.5285
G01 X-5.0773 Y7.5924
G01 X-5.1088 Y7.6422
G01 X-5.1562 Y7.7098
G01 X-5.2052 Y7.7722
G01 X-5.2536 Y7.8277
G01 X-5.2942 Y7.8704
G01 X-5.3582 Y7.9313
G01 X-5.4142 Y7.9791
G01 X-5.4652 Y8.0188
G01 X-5.5206 Y8.0580
G01 X-5.5838 Y8.0985
G01 X-5.6594 Y8.1413
G01 X-5.7128 Y8.1681
G01 X-5.7792 Y8.1979
G01 X-5.8616 Y8.2297
G01 X-5.9316 Y8.2525
G01 X-6.0027 Y8.2717
G01 X-6.0602 Y8.2847
G01 X-6.1326 Y8.2976
G01 X-6.2074 Y8.3072
G01 X-6.2938 Y8.3135
G01 X-6.3674 Y8.3149
G01 X-6.4410 Y8.3127
G01 X-6.4997 Y8.3084
G01 X-6.5874 Y8.2976
G01 X-6.6529 Y8.2861
G01 X-6.6909 Y8.2777
G01 X-8.0997 Y9.6865
G01 X-8.0997 Y11.7100
G01 X-8.1004 Y11.7419
G01 X-8.1030 Y11.7811
G01 X-8.1074 Y11.8201
G01 X-8.1152 Y11.8664
G01 X-8.1220 Y11.8973
G01 X-8.1322 Y11.9352
G01 X-8.1441 Y11.9726
G01 X-8.1593 Y12.0129
G01 X-8.1795 Y12.0581
G01 X-8.1909 Y12.0807
G01 X-8.2099 Y12.1151
G01 X-8.2388 Y12.1607
G01 X-8.2582 Y12.1880
G01 X-8.2768 Y12.2119
G01 X-8.3022 Y12.2419
G01 X-8.3290 Y12.2706
G01 X-9.9194 Y13.8610
G01 X-9.9481 Y13.8878
G01 X-9.9667 Y13.9039
G01 X-9.9974 Y13.9283
G01 X-10.0293 Y13.9512
G01 X-10.0635 Y13.9733
G01 X-10.1093 Y13.9991
G01 X-10.1445 Y14.0165
G01 X-10.1771 Y14.0307
G01 X-10.2035 Y14.0409
G01 X-10.2407 Y14.0536
G01 X-10.2927 Y14.0680
G01 X-10.3236 Y14.0748
G01 X-10.3553 Y14.0804
G01 X-10.4089 Y14.0870
G01 X-10.4481 Y14.0896
G01 X-10.4726 Y14.0902
G01 X-12.4000 Y14.0903
G01 X-12.4466 Y14.0888
G01 X-12.4858 Y14.0856
G01 X-12.5247 Y14.0804
G01 X-12.5564 Y14.0748
G01 X-12.6016 Y14.0644
G01 X-12.6393 Y14.0536
G01 X-12.6765 Y14.0409
G01 X-12.7130 Y14.0264
G01 X-12.7480 Y14.0105
G01 X-12.7837 Y13.9922
G01 X-12.8177 Y13.9725
G01 X-12.8507 Y13.9512
G01 X-12.8780 Y13.9318
G01 X-12.9019 Y13.9132
G01 X-12.9319 Y13.8878
G01 X-12.9606 Y13.8610
G01 X-14.7315 Y12.0903
G01 X-23.3856 Y12.0903
G01 X-23.4068 Y12.1099
G01 X-23.4479 Y12.1449
G01 X-23.4834 Y12.1726
G01 X-23.5350 Y12.2086
G01 X-23.5808 Y12.2372
G01 X-23.6280 Y12.2635
G01 X-23.6764 Y12.2875
G01 X-23.7224 Y12.3076
G01 X-23.7764 Y12.3281
G01 X-23.8278 Y12.3447
G01 X-23.8799 Y12.3587
G01 X-23.9251 Y12.3688
G01 X-23.9713 Y12.3769
G01 X-24.0266 Y12.3841
G01 X-24.0787 Y12.3882
G01 X-24.1076 Y12.3893
G01 X-26.1141 Y14.3959
G01 X-26.1372 Y14.4179
G01 X-26.1681 Y14.4451
G01 X-26.2093 Y14.4771
G01 X-26.2416 Y14.4994
G01 X-26.2635 Y14.5133
G01 X-26.3093 Y14.5391
G01 X-26.3445 Y14.5565
G01 X-26.3771 Y14.5707
G01 X-26.4035 Y14.5809
G01 X-26.4407 Y14.5936
G01 X-26.4927 Y14.6080
G01 X-26.5236 Y14.6148
G01 X-26.5553 Y14.6204
G01 X-26.6089 Y14.6270
G01 X-26.6481 Y14.6296
G01 X-26.6758 Y14.6302
G01 X-26.7215 Y14.6785
G01 X-26.7587 Y14.7141
G01 X-26.8045 Y14.7541
G01 X-26.8611 Y14.7982
G01 X-26.9095 Y14.8318
G01 X-26.9594 Y14.8630
G01 X-27.0109 Y14.8917
G01 X-27.0503 Y14.9116
G01 X-27.1040 Y14.9358
G01 X-27.1727 Y14.9622
G01 X-27.2287 Y14.9804
G01 X-27.2713 Y14.9922
G01 X-27.3431 Y15.0083
G01 X-27.4012 Y15.0180
G01 X-27.4468 Y15.0236
G01 X-27.5038 Y15.0281
G01 X-27.5700 Y15.0300
G01 X-27.6362 Y15.0281
G01 X-27.6949 Y15.0234
G01 X-27.7533 Y15.0158
G01 X-27.8113 Y15.0054
G01 X-27.8687 Y14.9922
G01 X-27.9254 Y14.9761
G01 X-27.9673 Y14.9622
G01 X-28.0258 Y14.9400
G01 X-28.0764 Y14.9179
G01 X-28.1291 Y14.8917
G01 X-28.1806 Y14.8630
G01 X-28.2305 Y14.8318
G01 X-28.2861 Y14.7929
G01 X-28.3369 Y14.7529
G01 X-28.3813 Y14.7141
G01 X-28.4185 Y14.6785
G01 X-28.4640 Y14.6304
G01 X-28.5022 Y14.5855
G01 X-28.5329 Y14.5461
G01 X-28.5636 Y14.5028
G01 X-28.5962 Y14.4520
G01 X-28.6248 Y14.4021
G01 X-28.6519 Y14.3490
G01 X-28.6800 Y14.2858
G01 X-28.7022 Y14.2273
G01 X-28.7204 Y14.1713
G01 X-28.7357 Y14.1144
G01 X-28.7483 Y14.0569
G01 X-28.7580 Y13.9988
G01 X-28.7636 Y13.9532
G01 X-28.7681 Y13.8962
G01 X-28.7700 Y13.8300
G01 X-28.7687 Y13.7785
G00 Z1.0000
G00 X-28.7687 Y16.3185
G01 F76.20
G01 Z-0.1500
G01 F150.00
G01 X-28.7649 Y16.2597
G01 X-28.7558 Y16.1867
G01 X-28.7469 Y16.1356
G01 X-28.7357 Y16.0856
G01 X-28.7204 Y16.0287
G01 X-28.6973 Y15.9588
G01 X-28.6758 Y15.9040
G01 X-28.6519 Y15.8510
G01 X-28.6317 Y15.8109
G01 X-28.5954 Y15.7468
G01 X-28.5636 Y15.6972
G01 X-28.5329 Y15.6539
G01 X-28.5022 Y15.6145
G01 X-28.4541 Y15.5587
G01 X-28.4133 Y15.5163
G01 X-28.3704 Y15.4760
G01 X-28.3369 Y15.4471
G01 X-28.2861 Y15.4071
G01 X-28.2305 Y15.3682
G01 X-28.1920 Y15.3438
G01 X-28.1421 Y15.3152
G01 X-28.0764 Y15.2821
G01 X-28.0258 Y15.2600
G01 X-27.9812 Y15.2427
G01 X-27.9254 Y15.2239
G01 X-27.8544 Y15.2043
G01 X-27.8044 Y15.1931
G01 X-27.7533 Y15.1842
G01 X-27.6932 Y15.1764
G01 X-27.6215 Y15.1712
G01 X-27.5626 Y15.1701
G01 X-27.5038 Y15.1719
G01 X-27.4451 Y15.1766
G01 X-27.4012 Y15.1820
G01 X-27.3356 Y15.1931
G01 X-27.2713 Y15.2078
G01 X-27.2146 Y15.2239
G01 X-27.1727 Y15.2378
G01 X-27.1142 Y15.2600
G01 X-27.0510 Y15.2881
G01 X-27.0109 Y15.3083
G01 X-26.9594 Y15.3370
G01 X-26.9095 Y15.3682
G01 X-26.8539 Y15.4071
G01 X-26.8145 Y15.4378
G01 X-26.7696 Y15.4760
G01 X-26.7215 Y15.5215
G01 X-26.6760 Y15.5696
G01 X-26.6378 Y15.6145
G01 X-26.6071 Y15.6539
G01 X-26.5825 Y15.6886
G01 X-26.5513 Y15.7088
G01 X-26.5313 Y15.7229
G01 X-26.5001 Y15.7468
G01 X-26.4701 Y15.7722
G01 X-26.4361 Y15.8041
G01 X-17.7805 Y24.4597
G01 X-13.8100 Y24.4597
G01 X-13.8087 Y24.4322
G01 X-13.8048 Y24.4046
G01 X-13.7984 Y24.3774
G01 X-13.7895 Y24.3510
G01 X-13.7779 Y24.3249
G01 X-13.7634 Y24.2994
G01 X-13.7552 Y24.2871
G01 X-13.7371 Y24.2640
G01 X-13.7169 Y24.2427
G01 X-13.6946 Y24.2236
G01 X-13.6706 Y24.2066
G01 X-13.6581 Y24.1991
G01 X-13.6318 Y24.1859
G01 X-13.6059 Y24.1757
G01 X-13.5791 Y24.1681
G01 X-13.5517 Y24.1629
G01 X-13.5378 Y24.1613
G01 X-13.5100 Y24.1600
G01 X-11.9100 Y24.1600
G01 X-11.8822 Y24.1613
G01 X-11.8683 Y24.1629
G01 X-11.8409 Y24.1681
G01 X-11.8274 Y24.1716
G01 X-11.8010 Y24.1805
G01 X-11.7882 Y24.1859
G01 X-11.7749 Y24.1921
G01 X-11.7494 Y24.2066
G01 X-11.7371 Y24.2148
G01 X-11.7140 Y24.2329
G01 X-11.6927 Y24.2531
G01 X-11.6829 Y24.2640
G01 X-11.6736 Y24.2754
G01 X-11.6566 Y24.2993
G01 X-11.6491 Y24.3119
G01 X-11.6359 Y24.3382
G01 X-11.6305 Y24.3510
G01 X-11.6216 Y24.3774
G01 X-11.6152 Y24.4046
G01 X-11.6113 Y24.4322
G01 X-11.6100 Y24.4600
G01 X-11.6100 Y26.0600
G01 X-11.6113 Y26.0878
G01 X-11.6129 Y26.1017
G01 X-11.6152 Y26.1154
G01 X-11.6216 Y26.1426
G01 X-11.6305 Y26.1690
G01 X-11.6359 Y26.1818
G01 X-11.6491 Y26.2081
G01 X-11.6648 Y26.2329
G01 X-11.6829 Y26.2560
G01 X-11.6927 Y26.2669
G01 X-11.7031 Y26.2773
G01 X-11.7254 Y26.2964
G01 X-11.7494 Y26.3134
G01 X-11.7749 Y26.3279
G01 X-11.7882 Y26.3341
G01 X-11.8141 Y26.3443
G01 X-11.8409 Y26.3519
G01 X-11.8546 Y26.3548
G01 X-11.8822 Y26.3587
G01 X-11.9100 Y26.3600
G01 X-13.5239 Y26.3597
G01 X-13.5517 Y26.3571
G01 X-13.5791 Y26.3519
G01 X-13.6059 Y26.3443
G01 X-13.6318 Y26.3341
G01 X-13.6581 Y26.3209
G01 X-13.6829 Y26.3052
G01 X-13.7060 Y26.2871
G01 X-13.7273 Y26.2669
G01 X-13.7464 Y26.2446
G01 X-13.7634 Y26.2207
G01 X-13.7779 Y26.1951
G01 X-13.7895 Y26.1690
G01 X-13.7984 Y26.1426
G01 X-13.8048 Y26.1154
G01 X-13.8087 Y26.0878
G01 X-13.8100 Y26.0603
G01 X-18.1194 Y26.0602
G01 X-18.1586 Y26.0588
G01 X-18.1831 Y26.0570
G01 X-18.2221 Y26.0526
G01 X-18.2684 Y26.0448
G01 X-18.3136 Y26.0344
G01 X-18.3513 Y26.0236
G01 X-18.3746 Y26.0159
G01 X-18.4149 Y26.0007
G01 X-18.4600 Y25.9805
G01 X-18.4827 Y25.9691
G01 X-18.5170 Y25.9501
G01 X-18.5627 Y25.9212
G01 X-18.5946 Y25.8983
G01 X-18.6253 Y25.8739
G01 X-18.6439 Y25.8578
G01 X-18.6779 Y25.8259
G01 X-27.0516 Y17.4522
G01 X-27.1142 Y17.4800
G01 X-27.1588 Y17.4973
G01 X-27.2287 Y17.5204
G01 X-27.2856 Y17.5357
G01 X-27.3287 Y17.5454
G01 X-27.4012 Y17.5580
G01 X-27.4468 Y17.5636
G01 X-27.5038 Y17.5681
G01 X-27.5700 Y17.5700
G01 X-27.6215 Y17.5688
G01 X-27.6803 Y17.5649
G01 X-27.7533 Y17.5558
G01 X-27.8044 Y17.5469
G01 X-27.8544 Y17.5357
G01 X-27.9254 Y17.5161
G01 X-27.9812 Y17.4973
G01 X-28.0224 Y17.4814
G01 X-28.0890 Y17.4519
G01 X-28.1291 Y17.4317
G01 X-28.1806 Y17.4030
G01 X-28.2428 Y17.3636
G01 X-28.2861 Y17.3329
G01 X-28.3255 Y17.3022
G01 X-28.3813 Y17.2541
G01 X-28.4185 Y17.2185
G01 X-28.4640 Y17.1704
G01 X-28.5022 Y17.1255
G01 X-28.5329 Y17.0861
G01 X-28.5636 Y17.0428
G01 X-28.5962 Y16.9920
G01 X-28.6248 Y16.9421
G01 X-28.6519 Y16.8890
G01 X-28.6800 Y16.8258
G01 X-28.7022 Y16.7673
G01 X-28.7204 Y16.7113
G01 X-28.7357 Y16.6544
G01 X-28.7483 Y16.5969
G01 X-28.7580 Y16.5388
G01 X-28.7636 Y16.4932
G01 X-28.7681 Y16.4362
G01 X-28.7700 Y16.3700
G01 X-28.7687 Y16.3185
G00 Z1.0000
G00 X-28.7687 Y18.8585
G01 F76.20
G01 Z-0.1500
G01 F150.00
G01 X-28.7649 Y18.7997
G01 X-28.7580 Y18.7412
G01 X-28.7469 Y18.6756
G01 X-28.7357 Y18.6256
G01 X-28.7204 Y18.5687
G01 X-28.7022 Y18.5127
G01 X-28.6800 Y18.4542
G01 X-28.6579 Y18.4036
G01 X-28.6317 Y18.3509
G01 X-28.6030 Y18.2994
G01 X-28.5718 Y18.2495
G01 X-28.5329 Y18.1939
G01 X-28.5022 Y18.1545
G01 X-28.4640 Y18.1096
G01 X-28.4185 Y18.0615
G01 X-28.3813 Y18.0259
G01 X-28.3355 Y17.9859
G01 X-28.2861 Y17.9471
G01 X-28.2428 Y17.9164
G01 X-28.1920 Y17.8838
G01 X-28.1421 Y17.8552
G01 X-28.0890 Y17.8281
G01 X-28.0258 Y17.8000
G01 X-27.9812 Y17.7827
G01 X-27.9254 Y17.7639
G01 X-27.8687 Y17.7478
G01 X-27.8044 Y17.7331
G01 X-27.7533 Y17.7242
G01 X-27.6932 Y17.7164
G01 X-27.6362 Y17.7119
G01 X-27.5700 Y17.7100
G01 X-27.5185 Y17.7112
G01 X-27.4597 Y17.7151
G01 X-27.4012 Y17.7220
G01 X-27.3356 Y17.7331
G01 X-27.2856 Y17.7443
G01 X-27.2287 Y17.7596
G01 X-27.1727 Y17.7778
G01 X-27.1142 Y17.8000
G01 X-27.0636 Y17.8221
G01 X-27.0109 Y17.8483
G01 X-26.9594 Y17.8770
G01 X-26.9095 Y17.9082
G01 X-26.8539 Y17.9471
G01 X-26.8145 Y17.9778
G01 X-26.7696 Y18.0160
G01 X-26.7215 Y18.0615
G01 X-26.6859 Y18.0987
G01 X-26.6459 Y18.1445
G01 X-26.6071 Y18.1939
G01 X-26.5764 Y18.2372
G01 X-26.5438 Y18.2880
G01 X-26.5152 Y18.3379
G01 X-26.4881 Y18.3910
G01 X-26.4600 Y18.4542
G01 X-26.4427 Y18.4988
G01 X-26.4239 Y18.5546
G01 X-26.4078 Y18.6113
G01 X-26.3931 Y18.6756
G01 X-26.3842 Y18.7267
G01 X-26.3764 Y18.7868
G01 X-26.3719 Y18.8438
G01 X-26.3700 Y18.9100
G01 X-26.3712 Y18.9615
G01 X-26.3751 Y19.0203
G01 X-26.3820 Y19.0788
G01 X-26.3931 Y19.1444
G01 X-26.4043 Y19.1944
G01 X-26.4196 Y19.2513
G01 X-26.4378 Y19.3073
G01 X-26.4600 Y19.3658
G01 X-26.4821 Y19.4164
G01 X-26.5083 Y19.4691
G01 X-26.5370 Y19.5206
G01 X-26.5682 Y19.5705
G01 X-26.6071 Y19.6261
G01 X-26.6378 Y19.6655
G01 X-26.6760 Y19.7104
G01 X-26.7215 Y19.7585
G01 X-26.7587 Y19.7941
G01 X-26.8045 Y19.8341
G01 X-26.8539 Y19.8729
G01 X-26.8972 Y19.9036
G01 X-26.9480 Y19.9362
G01 X-26.9979 Y19.9648
G01 X-27.0510 Y19.9919
G01 X-27.1142 Y20.0200
G01 X-27.1588 Y20.0373
G01 X-27.2146 Y20.0561
G01 X-27.2713 Y20.0722
G01 X-27.3356 Y20.0869
G01 X-27.3867 Y20.0958
G01 X-27.4468 Y20.1036
G01 X-27.5038 Y20.1081
G01 X-27.5700 Y20.1100
G01 X-27.6215 Y20.1088
G01 X-27.6803 Y20.1049
G01 X-27.7388 Y20.0980
G01 X-27.8044 Y20.0869
G01 X-27.8544 Y20.0757
G01 X-27.9113 Y20.0604
G01 X-27.9673 Y20.0422
G01 X-28.0258 Y20.0200
G01 X-28.0764 Y19.9979
G01 X-28.1291 Y19.9717
G01 X-28.1806 Y19.9430
G01 X-28.2305 Y19.9118
G01 X-28.2861 Y19.8729
G01 X-28.3255 Y19.8422
G01 X-28.3704 Y19.8040
G01 X-28.4185 Y19.7585
G01 X-28.4541 Y19.7213
G01 X-28.4941 Y19.6755
G01 X-28.5329 Y19.6261
G01 X-28.5636 Y19.5828
G01 X-28.5962 Y19.5320
G01 X-28.6248 Y19.4821
G01 X-28.6519 Y19.4290
G01 X-28.6800 Y19.3658
G01 X-28.6973 Y19.3212
G01 X-28.7161 Y19.2654
G01 X-28.7322 Y19.2087
G01 X-28.7469 Y19.1444
G01 X-28.7558 Y19.0933
G01 X-28.7636 Y19.0332
G01 X-28.7681 Y18.9762
G01 X-28.7700 Y18.9100
G01 X-28.7687 Y18.8585
G00 Z1.0000
G00 X-31.2894 Y21.4181
G01 F76.20
G01 Z-0.1500
G01 F150.00
G01 X-31.2856 Y21.3642
G01 X-31.2804 Y21.3253
G01 X-31.2748 Y21.2936
G01 X-31.2644 Y21.2484
G01 X-31.2536 Y21.2107
G01 X-31.2459 Y21.1874
G01 X-31.2264 Y21.1370
G01 X-31.2105 Y21.1019
G01 X-31.1991 Y21.0793
G01 X-31.1725 Y21.0323
G01 X-31.1512 Y20.9993
G01 X-31.1283 Y20.9674
G01 X-31.1039 Y20.9367
G01 X-31.0878 Y20.9181
G01 X-31.0559 Y20.8841
G01 X-31.0328 Y20.8621
G01 X-31.0019 Y20.8349
G01 X-30.9607 Y20.8029
G01 X-30.9284 Y20.7806
G01 X-30.9065 Y20.7667
G01 X-30.8607 Y20.7409
G01 X-30.8255 Y20.7235
G01 X-30.7929 Y20.7093
G01 X-30.7665 Y20.6991
G01 X-30.7293 Y20.6864
G01 X-30.6773 Y20.6720
G01 X-30.6464 Y20.6652
G01 X-30.6147 Y20.6596
G01 X-30.5611 Y20.6530
G01 X-30.5219 Y20.6504
G01 X-30.4974 Y20.6498
G01 X-28.4641 Y20.6497
G01 X-28.4133 Y20.5963
G01 X-28.3704 Y20.5560
G01 X-28.3255 Y20.5178
G01 X-28.2861 Y20.4871
G01 X-28.2305 Y20.4482
G01 X-28.1920 Y20.4238
G01 X-28.1421 Y20.3952
G01 X-28.0890 Y20.3681
G01 X-28.0360 Y20.3442
G01 X-27.9673 Y20.3178
G01 X-27.9113 Y20.2996
G01 X-27.8544 Y20.2843
G01 X-27.8044 Y20.2731
G01 X-27.7388 Y20.2620
G01 X-27.6932 Y20.2564
G01 X-27.6362 Y20.2519
G01 X-27.5700 Y20.2500
G01 X-27.5185 Y20.2512
G01 X-27.4597 Y20.2551
G01 X-27.3867 Y20.2642
G01 X-27.3356 Y20.2731
G01 X-27.2856 Y20.2843
G01 X-27.2146 Y20.3039
G01 X-27.1588 Y20.3227
G01 X-27.1176 Y20.3386
G01 X-27.0510 Y20.3681
G01 X-27.0109 Y20.3883
G01 X-26.9594 Y20.4170
G01 X-26.8972 Y20.4564
G01 X-26.8539 Y20.4871
G01 X-26.8145 Y20.5178
G01 X-26.7587 Y20.5659
G01 X-26.7215 Y20.6015
G01 X-26.6859 Y20.6387
G01 X-26.6459 Y20.6845
G01 X-26.6018 Y20.7411
G01 X-26.5682 Y20.7895
G01 X-26.5438 Y20.8280
G01 X-26.5152 Y20.8779
G01 X-26.4881 Y20.9310
G01 X-26.4600 Y20.9942
G01 X-26.4378 Y21.0527
G01 X-26.4196 Y21.1087
G01 X-26.4043 Y21.1656
G01 X-26.3946 Y21.2087
G01 X-26.3842 Y21.2667
G01 X-26.3766 Y21.3251
G01 X-26.3719 Y21.3838
G01 X-26.3700 Y21.4500
G01 X-26.3719 Y21.5162
G01 X-26.3766 Y21.5749
G01 X-26.3842 Y21.6333
G01 X-26.3931 Y21.6844
G01 X-26.4078 Y21.7487
G01 X-26.4239 Y21.8054
G01 X-26.4427 Y21.8612
G01 X-26.4642 Y21.9160
G01 X-26.4884 Y21.9697
G01 X-26.5152 Y22.0221
G01 X-26.5370 Y22.0606
G01 X-26.5682 Y22.1105
G01 X-26.6071 Y22.1661
G01 X-26.6378 Y22.2055
G01 X-26.6760 Y22.2504
G01 X-26.7215 Y22.2985
G01 X-26.7587 Y22.3341
G01 X-26.8045 Y22.3741
G01 X-26.8539 Y22.4129
G01 X-26.9095 Y22.4518
G01 X-26.9594 Y22.4830
G01 X-27.0109 Y22.5117
G01 X-27.0636 Y22.5379
G01 X-27.1142 Y22.5600
G01 X-27.1588 Y22.5773
G01 X-27.2146 Y22.5961
G01 X-27.2856 Y22.6157
G01 X-27.3356 Y22.6269
G01 X-27.3867 Y22.6358
G01 X-27.4468 Y22.6436
G01 X-27.5185 Y22.6488
G01 X-27.5700 Y22.6500
G01 X-27.6215 Y22.6488
G01 X-27.6949 Y22.6434
G01 X-27.7533 Y22.6358
G01 X-27.8044 Y22.6269
G01 X-27.8687 Y22.6122
G01 X-27.9254 Y22.5961
G01 X-27.9812 Y22.5773
G01 X-28.0258 Y22.5600
G01 X-28.0764 Y22.5379
G01 X-28.1291 Y22.5117
G01 X-28.1806 Y22.4830
G01 X-28.2305 Y22.4518
G01 X-28.2861 Y22.4129
G01 X-28.3255 Y22.3822
G01 X-28.3704 Y22.3440
G01 X-28.4133 Y22.3037
G01 X-28.4641 Y22.2503
G01 X-29.6897 Y22.2503
G01 X-29.6897 Y28.7385
G01 X-26.3485 Y32.0797
G01 X-25.0341 Y32.0797
G01 X-24.9885 Y32.0315
G01 X-24.9513 Y31.9959
G01 X-24.9055 Y31.9559
G01 X-24.8561 Y31.9171
G01 X-24.8128 Y31.8864
G01 X-24.7620 Y31.8538
G01 X-24.7121 Y31.8252
G01 X-24.6590 Y31.7981
G01 X-24.5958 Y31.7700
G01 X-24.5373 Y31.7478
G01 X-24.4813 Y31.7296
G01 X-24.4244 Y31.7143
G01 X-24.3744 Y31.7031
G01 X-24.3088 Y31.6920
G01 X-24.2503 Y31.6851
G01 X-24.1915 Y31.6812
G01 X-24.1400 Y31.6800
G01 X-24.0738 Y31.6819
G01 X-24.0151 Y31.6866
G01 X-23.9567 Y31.6942
G01 X-23.9056 Y31.7031
G01 X-23.8556 Y31.7143
G01 X-23.7987 Y31.7296
G01 X-23.7427 Y31.7478
G01 X-23.6842 Y31.7700
G01 X-23.6336 Y31.7921
G01 X-23.5809 Y31.8183
G01 X-23.5294 Y31.8470
G01 X-23.4672 Y31.8864
G01 X-23.4239 Y31.9171
G01 X-23.3731 Y31.9571
G01 X-23.3287 Y31.9959
G01 X-23.2967 Y32.0263
G01 X-23.2559 Y32.0687
G01 X-23.2159 Y32.1145
G01 X-23.1771 Y32.1639
G01 X-23.1382 Y32.2195
G01 X-23.1138 Y32.2580
G01 X-23.0852 Y32.3079
G01 X-23.0581 Y32.3610
G01 X-23.0300 Y32.4242
G01 X-23.0078 Y32.4827
G01 X-22.9896 Y32.5387
G01 X-22.9743 Y32.5956
G01 X-22.9631 Y32.6456
G01 X-22.9542 Y32.6967
G01 X-22.9464 Y32.7568
G01 X-22.9412 Y32.8285
G01 X-22.9400 Y32.8800
G01 X-22.9412 Y32.9315
G01 X-22.9451 Y32.9903
G01 X-22.9542 Y33.0633
G01 X-22.9646 Y33.1213
G01 X-22.9778 Y33.1787
G01 X-22.9939 Y33.2354
G01 X-23.0078 Y33.2773
G01 X-23.0300 Y33.3358
G01 X-23.0581 Y33.3990
G01 X-23.0852 Y33.4521
G01 X-23.1146 Y33.5032
G01 X-23.1464 Y33.5528
G01 X-23.1771 Y33.5961
G01 X-23.2078 Y33.6355
G01 X-23.2460 Y33.6804
G01 X-23.2915 Y33.7285
G01 X-23.3396 Y33.7740
G01 X-23.3845 Y33.8122
G01 X-23.4239 Y33.8429
G01 X-23.4672 Y33.8736
G01 X-23.5180 Y33.9062
G01 X-23.5809 Y33.9417
G01 X-23.6336 Y33.9679
G01 X-23.6842 Y33.9900
G01 X-23.7288 Y34.0073
G01 X-23.7846 Y34.0261
G01 X-23.8556 Y34.0457
G01 X-23.9056 Y34.0569
G01 X-23.9567 Y34.0658
G01 X-24.0168 Y34.0736
G01 X-24.0738 Y34.0781
G01 X-24.1474 Y34.0799
G01 X-24.2062 Y34.0781
G01 X-24.2503 Y34.0749
G01 X-24.3088 Y34.0680
G01 X-24.3744 Y34.0569
G01 X-24.4244 Y34.0457
G01 X-24.4813 Y34.0304
G01 X-24.5373 Y34.0122
G01 X-24.5958 Y33.9900
G01 X-24.6464 Y33.9679
G01 X-24.6991 Y33.9417
G01 X-24.7506 Y33.9130
G01 X-24.8005 Y33.8818
G01 X-24.8561 Y33.8429
G01 X-24.8955 Y33.8122
G01 X-24.9404 Y33.7740
G01 X-24.9833 Y33.7337
G01 X-25.0341 Y33.6803
G01 X-26.6800 Y33.6803
G01 X-26.7266 Y33.6788
G01 X-26.7658 Y33.6756
G01 X-26.8047 Y33.6704
G01 X-26.8289 Y33.6662
G01 X-26.8673 Y33.6580
G01 X-26.9193 Y33.6436
G01 X-26.9565 Y33.6309
G01 X-26.9930 Y33.6164
G01 X-27.0280 Y33.6006
G01 X-27.0507 Y33.5891
G01 X-27.0850 Y33.5701
G01 X-27.1307 Y33.5412
G01 X-27.1626 Y33.5183
G01 X-27.1933 Y33.4939
G01 X-27.2119 Y33.4778
G01 X-27.2459 Y33.4459
G01 X-31.0559 Y29.6359
G01 X-31.0878 Y29.6019
G01 X-31.1132 Y29.5719
G01 X-31.1318 Y29.5480
G01 X-31.1512 Y29.5207
G01 X-31.1733 Y29.4865
G01 X-31.1991 Y29.4407
G01 X-31.2105 Y29.4181
G01 X-31.2264 Y29.3830
G01 X-31.2409 Y29.3465
G01 X-31.2578 Y29.2952
G01 X-31.2680 Y29.2573
G01 X-31.2733 Y29.2333
G01 X-31.2804 Y29.1947
G01 X-31.2870 Y29.1411
G01 X-31.2896 Y29.1019
G01 X-31.2902 Y29.0774
G01 X-31.2903 Y21.4500
G01 X-31.2894 Y21.4181
G00 Z1.0000
G00 X-28.7687 Y23.9385
G01 F76.20
G01 Z-0.1500
G01 F150.00
G01 X-28.7649 Y23.8797
G01 X-28.7580 Y23.8212
G01 X-28.7469 Y23.7556
G01 X-28.7357 Y23.7056
G01 X-28.7204 Y23.6487
G01 X-28.7022 Y23.5927
G01 X-28.6800 Y23.5342
G01 X-28.6579 Y23.4836
G01 X-28.6317 Y23.4309
G01 X-28.6030 Y23.3794
G01 X-28.5718 Y23.3295
G01 X-28.5329 Y23.2739
G01 X-28.5022 Y23.2345
G01 X-28.4640 Y23.1896
G01 X-28.4185 Y23.1415
G01 X-28.3813 Y23.1059
G01 X-28.3355 Y23.0659
G01 X-28.2861 Y23.0271
G01 X-28.2428 Y22.9964
G01 X-28.1920 Y22.9638
G01 X-28.1421 Y22.9352
G01 X-28.0890 Y22.9081
G01 X-28.0258 Y22.8800
G01 X-27.9812 Y22.8627
G01 X-27.9254 Y22.8439
G01 X-27.8687 Y22.8278
G01 X-27.8044 Y22.8131
G01 X-27.7533 Y22.8042
G01 X-27.6932 Y22.7964
G01 X-27.6362 Y22.7919
G01 X-27.5700 Y22.7900
G01 X-27.5185 Y22.7912
G01 X-27.4597 Y22.7951
G01 X-27.4012 Y22.8020
G01 X-27.3356 Y22.8131
G01 X-27.2856 Y22.8243
G01 X-27.2287 Y22.8396
G01 X-27.1727 Y22.8578
G01 X-27.1142 Y22.8800
G01 X-27.0636 Y22.9021
G01 X-27.0109 Y22.9283
G01 X-26.9594 Y22.9570
G01 X-26.9095 Y22.9882
G01 X-26.8539 Y23.0271
G01 X-26.8145 Y23.0578
G01 X-26.7696 Y23.0960
G01 X-26.7215 Y23.1415
G01 X-26.6859 Y23.1787
G01 X-26.6459 Y23.2245
G01 X-26.6071 Y23.2739
G01 X-26.5764 Y23.3172
G01 X-26.5438 Y23.3680
G01 X-26.5152 Y23.4179
G01 X-26.4881 Y23.4710
G01 X-26.4600 Y23.5342
G01 X-26.4427 Y23.5788
G01 X-26.4239 Y23.6346
G01 X-26.4078 Y23.6913
G01 X-26.3931 Y23.7556
G01 X-26.3842 Y23.8067
G01 X-26.3764 Y23.8668
G01 X-26.3719 Y23.9238
G01 X-26.3700 Y23.9900
G01 X-26.3712 Y24.0415
G01 X-26.3751 Y24.1003
G01 X-26.3820 Y24.1588
G01 X-26.3931 Y24.2244
G01 X-26.4043 Y24.2744
G01 X-26.4196 Y24.3313
G01 X-26.4378 Y24.3873
G01 X-26.4600 Y24.4458
G01 X-26.4821 Y24.4964
G01 X-26.5083 Y24.5491
G01 X-26.5370 Y24.6006
G01 X-26.5682 Y24.6505
G01 X-26.6071 Y24.7061
G01 X-26.6378 Y24.7455
G01 X-26.6760 Y24.7904
G01 X-26.7215 Y24.8385
G01 X-26.7587 Y24.8741
G01 X-26.8045 Y24.9141
G01 X-26.8539 Y24.9529
G01 X-26.8972 Y24.9836
G01 X-26.9480 Y25.0162
G01 X-26.9979 Y25.0448
G01 X-27.0510 Y25.0719
G01 X-27.1142 Y25.1000
G01 X-27.1588 Y25.1173
G01 X-27.2146 Y25.1361
G01 X-27.2713 Y25.1522
G01 X-27.3356 Y25.1669
G01 X-27.3867 Y25.1758
G01 X-27.4468 Y25.1836
G01 X-27.5038 Y25.1881
G01 X-27.5700 Y25.1900
G01 X-27.6215 Y25.1888
G01 X-27.6803 Y25.1849
G01 X-27.7388 Y25.1780
G01 X-27.8044 Y25.1669
G01 X-27.8544 Y25.1557
G01 X-27.9113 Y25.1404
G01 X-27.9673 Y25.1222
G01 X-28.0258 Y25.1000
G01 X-28.0764 Y25.0779
G01 X-28.1291 Y25.0517
G01 X-28.1806 Y25.0230
G01 X-28.2305 Y24.9918
G01 X-28.2861 Y24.9529
G01 X-28.3255 Y24.9222
G01 X-28.3704 Y24.8840
G01 X-28.4185 Y24.8385
G01 X-28.4541 Y24.8013
G01 X-28.4941 Y24.7555
G01 X-28.5329 Y24.7061
G01 X-28.5636 Y24.6628
G01 X-28.5962 Y24.6120
G01 X-28.6248 Y24.5621
G01 X-28.6519 Y24.5090
G01 X-28.6800 Y24.4458
G01 X-28.6973 Y24.4012
G01 X-28.7161 Y24.3454
G01 X-28.7322 Y24.2887
G01 X-28.7469 Y24.2244
G01 X-28.7558 Y24.1733
G01 X-28.7636 Y24.1132
G01 X-28.7681 Y24.0562
G01 X-28.7700 Y23.9900
G01 X-28.7687 Y23.9385
G00 Z1.0000
G00 X-28.7687 Y26.4785
G01 F76.20
G01 Z-0.1500
G01 F150.00
G01 X-28.7649 Y26.4197
G01 X-28.7580 Y26.3612
G01 X-28.7469 Y26.2956
G01 X-28.7357 Y26.2456
G01 X-28.7204 Y26.1887
G01 X-28.7022 Y26.1327
G01 X-28.6800 Y26.0742
G01 X-28.6579 Y26.0236
G01 X-28.6317 Y25.9709
G01 X-28.6030 Y25.9194
G01 X-28.5718 Y25.8695
G01 X-28.5329 Y25.8139
G01 X-28.5022 Y25.7745
G01 X-28.4640 Y25.7296
G01 X-28.4185 Y25.6815
G01 X-28.3813 Y25.6459
G01 X-28.3355 Y25.6059
G01 X-28.2861 Y25.5671
G01 X-28.2428 Y25.5364
G01 X-28.1920 Y25.5038
G01 X-28.1421 Y25.4752
G01 X-28.0890 Y25.4481
G01 X-28.0258 Y25.4200
G01 X-27.9812 Y25.4027
G01 X-27.9254 Y25.3839
G01 X-27.8687 Y25.3678
G01 X-27.8044 Y25.3531
G01 X-27.7533 Y25.3442
G01 X-27.6932 Y25.3364
G01 X-27.6362 Y25.3319
G01 X-27.5700 Y25.3300
G01 X-27.5185 Y25.3312
G01 X-27.4597 Y25.3351
G01 X-27.4012 Y25.3420
G01 X-27.3356 Y25.3531
G01 X-27.2856 Y25.3643
G01 X-27.2287 Y25.3796
G01 X-27.1727 Y25.3978
G01 X-27.1142 Y25.4200
G01 X-27.0636 Y25.4421
G01 X-27.0109 Y25.4683
G01 X-26.9594 Y25.4970
G01 X-26.9095 Y25.5282
G01 X-26.8539 Y25.5671
G01 X-26.8145 Y25.5978
G01 X-26.7696 Y25.6360
G01 X-26.7215 Y25.6815
G01 X-26.6859 Y25.7187
G01 X-26.6459 Y25.7645
G01 X-26.6071 Y25.8139
G01 X-26.5764 Y25.8572
G01 X-26.5438 Y25.9080
G01 X-26.5152 Y25.9579
G01 X-26.4881 Y26.0110
G01 X-26.4600 Y26.0742
G01 X-26.4427 Y26.1188
G01 X-26.4239 Y26.1746
G01 X-26.4078 Y26.2313
G01 X-26.3931 Y26.2956
G01 X-26.3842 Y26.3467
G01 X-26.3764 Y26.4068
G01 X-26.3719 Y26.4638
G01 X-26.3700 Y26.5300
G01 X-26.3712 Y26.5815
G01 X-26.3751 Y26.6403
G01 X-26.3820 Y26.6988
G01 X-26.3931 Y26.7644
G01 X-26.4043 Y26.8144
G01 X-26.4196 Y26.8713
G01 X-26.4378 Y26.9273
G01 X-26.4600 Y26.9858
G01 X-26.4821 Y27.0364
G01 X-26.5083 Y27.0891
G01 X-26.5370 Y27.1406
G01 X-26.5682 Y27.1905
G01 X-26.6071 Y27.2461
G01 X-26.6378 Y27.2855
G01 X-26.6760 Y27.3304
G01 X-26.7215 Y27.3785
G01 X-26.7587 Y27.4141
G01 X-26.8045 Y27.4541
G01 X-26.8539 Y27.4929
G01 X-26.8972 Y27.5236
G01 X-26.9480 Y27.5562
G01 X-26.9979 Y27.5848
G01 X-27.0510 Y27.6119
G01 X-27.1142 Y27.6400
G01 X-27.1588 Y27.6573
G01 X-27.2146 Y27.6761
G01 X-27.2713 Y27.6922
G01 X-27.3356 Y27.7069
G01 X-27.3867 Y27.7158
G01 X-27.4468 Y27.7236
G01 X-27.5038 Y27.7281
G01 X-27.5700 Y27.7300
G01 X-27.6215 Y27.7288
G01 X-27.6803 Y27.7249
G01 X-27.7388 Y27.7180
G01 X-27.8044 Y27.7069
G01 X-27.8544 Y27.6957
G01 X-27.9113 Y27.6804
G01 X-27.9673 Y27.6622
G01 X-28.0258 Y27.6400
G01 X-28.0764 Y27.6179
G01 X-28.1291 Y27.5917
G01 X-28.1806 Y27.5630
G01 X-28.2305 Y27.5318
G01 X-28.2861 Y27.4929
G01 X-28.3255 Y27.4622
G01 X-28.3704 Y27.4240
G01 X-28.4185 Y27.3785
G01 X-28.4541 Y27.3413
G01 X-28.4941 Y27.2955
G01 X-28.5329 Y27.2461
G01 X-28.5636 Y27.2028
G01 X-28.5962 Y27.1520
G01 X-28.6248 Y27.1021
G01 X-28.6519 Y27.0490
G01 X-28.6800 Y26.9858
G01 X-28.6973 Y26.9412
G01 X-28.7161 Y26.8854
G01 X-28.7322 Y26.8287
G01 X-28.7469 Y26.7644
G01 X-28.7558 Y26.7133
G01 X-28.7636 Y26.6532
G01 X-28.7681 Y26.5962
G01 X-28.7700 Y26.5300
G01 X-28.7687 Y26.4785
G00 Z1.0000
G00 X-23.9688 Y27.7534
G01 F76.20
G01 Z-0.1500
G01 F150.00
G01 X-23.9653 Y27.6995
G01 X-23.9591 Y27.6459
G01 X-23.9488 Y27.5851
G01 X-23.9352 Y27.5256
G01 X-23.9204 Y27.4737
G01 X-23.9031 Y27.4225
G01 X-23.8890 Y27.3859
G01 X-23.8675 Y27.3364
G01 X-23.8435 Y27.2880
G01 X-23.8172 Y27.2408
G01 X-23.7805 Y27.1828
G01 X-23.7491 Y27.1389
G01 X-23.7156 Y27.0965
G01 X-23.6899 Y27.0668
G01 X-23.6478 Y27.0222
G01 X-23.6032 Y26.9801
G01 X-23.5621 Y26.9451
G01 X-23.5193 Y26.9122
G01 X-23.4750 Y26.8814
G01 X-23.4418 Y26.8604
G01 X-23.3950 Y26.8334
G01 X-23.3462 Y26.8085
G01 X-23.2876 Y26.7824
G01 X-23.2336 Y26.7619
G01 X-23.1822 Y26.7453
G01 X-23.1301 Y26.7313
G01 X-23.0849 Y26.7212
G01 X-23.0387 Y26.7131
G01 X-22.9834 Y26.7059
G01 X-22.9166 Y26.7011
G01 X-22.8700 Y26.7000
G01 X-22.8087 Y26.7018
G01 X-22.7549 Y26.7061
G01 X-22.7159 Y26.7109
G01 X-22.6626 Y26.7198
G01 X-22.5956 Y26.7348
G01 X-22.5437 Y26.7496
G01 X-22.4925 Y26.7669
G01 X-22.4524 Y26.7824
G01 X-22.3938 Y26.8085
G01 X-22.3580 Y26.8265
G01 X-22.3108 Y26.8528
G01 X-22.2528 Y26.8895
G01 X-22.2134 Y26.9174
G01 X-22.1779 Y26.9451
G01 X-22.1259 Y26.9900
G01 X-22.0922 Y27.0222
G01 X-22.0600 Y27.0559
G01 X-22.0232 Y27.0979
G01 X-21.9874 Y27.1434
G01 X-21.9595 Y27.1828
G01 X-21.9228 Y27.2408
G01 X-21.8965 Y27.2880
G01 X-21.8785 Y27.3238
G01 X-21.8566 Y27.3723
G01 X-21.8369 Y27.4225
G01 X-21.8153 Y27.4878
G01 X-21.8013 Y27.5399
G01 X-21.7912 Y27.5851
G01 X-21.7831 Y27.6313
G01 X-21.7759 Y27.6866
G01 X-21.7718 Y27.7387
G01 X-21.7707 Y27.7676
G01 X-21.0341 Y28.5041
G01 X-21.0121 Y28.5272
G01 X-20.9849 Y28.5581
G01 X-20.9529 Y28.5993
G01 X-20.9306 Y28.6316
G01 X-20.9175 Y28.6523
G01 X-20.8978 Y28.6863
G01 X-20.8795 Y28.7219
G01 X-20.8593 Y28.7671
G01 X-20.8441 Y28.8074
G01 X-20.8322 Y28.8448
G01 X-20.8220 Y28.8827
G01 X-20.8167 Y28.9067
G01 X-20.8096 Y28.9453
G01 X-20.8042 Y28.9860
G01 X-20.8004 Y29.0381
G01 X-20.7997 Y29.0700
G01 X-20.7997 Y31.6800
G01 X-20.6861 Y31.6803
G01 X-20.6583 Y31.6829
G01 X-20.6446 Y31.6852
G01 X-20.6309 Y31.6881
G01 X-20.6041 Y31.6957
G01 X-20.5782 Y31.7059
G01 X-20.5519 Y31.7191
G01 X-20.5271 Y31.7348
G01 X-20.5040 Y31.7529
G01 X-20.4827 Y31.7731
G01 X-20.4729 Y31.7840
G01 X-20.4548 Y31.8071
G01 X-20.4391 Y31.8319
G01 X-20.4259 Y31.8582
G01 X-20.4205 Y31.8710
G01 X-20.4116 Y31.8974
G01 X-20.4081 Y31.9109
G01 X-20.4029 Y31.9383
G01 X-20.4003 Y31.9661
G01 X-20.4000 Y33.7800
G01 X-20.4013 Y33.8078
G01 X-20.4052 Y33.8354
G01 X-20.4116 Y33.8626
G01 X-20.4157 Y33.8759
G01 X-20.4259 Y33.9018
G01 X-20.4321 Y33.9151
G01 X-20.4466 Y33.9406
G01 X-20.4636 Y33.9646
G01 X-20.4827 Y33.9869
G01 X-20.4931 Y33.9973
G01 X-20.5153 Y34.0164
G01 X-20.5271 Y34.0252
G01 X-20.5519 Y34.0409
G01 X-20.5781 Y34.0541
G01 X-20.5910 Y34.0595
G01 X-20.6174 Y34.0684
G01 X-20.6446 Y34.0748
G01 X-20.6583 Y34.0771
G01 X-20.6861 Y34.0797
G01 X-20.7000 Y34.0800
G01 X-22.5139 Y34.0797
G01 X-22.5417 Y34.0771
G01 X-22.5554 Y34.0748
G01 X-22.5826 Y34.0684
G01 X-22.5959 Y34.0643
G01 X-22.6219 Y34.0541
G01 X-22.6351 Y34.0478
G01 X-22.6607 Y34.0334
G01 X-22.6847 Y34.0164
G01 X-22.7069 Y33.9973
G01 X-22.7173 Y33.9869
G01 X-22.7364 Y33.9646
G01 X-22.7452 Y33.9529
G01 X-22.7609 Y33.9281
G01 X-22.7741 Y33.9018
G01 X-22.7795 Y33.8890
G01 X-22.7884 Y33.8626
G01 X-22.7948 Y33.8354
G01 X-22.7971 Y33.8217
G01 X-22.7997 Y33.7939
G01 X-22.8000 Y33.7800
G01 X-22.8000 Y31.9800
G01 X-22.7987 Y31.9522
G01 X-22.7971 Y31.9383
G01 X-22.7919 Y31.9109
G01 X-22.7843 Y31.8841
G01 X-22.7741 Y31.8582
G01 X-22.7609 Y31.8319
G01 X-22.7452 Y31.8071
G01 X-22.7271 Y31.7840
G01 X-22.7173 Y31.7731
G01 X-22.6960 Y31.7529
G01 X-22.6729 Y31.7348
G01 X-22.6481 Y31.7191
G01 X-22.6218 Y31.7059
G01 X-22.5959 Y31.6957
G01 X-22.5826 Y31.6916
G01 X-22.5554 Y31.6852
G01 X-22.5417 Y31.6829
G01 X-22.5139 Y31.6803
G01 X-22.4003 Y31.6800
G01 X-22.4003 Y29.4015
G01 X-22.9024 Y28.8993
G01 X-22.9313 Y28.8982
G01 X-22.9705 Y28.8953
G01 X-23.0241 Y28.8891
G01 X-23.0849 Y28.8788
G01 X-23.1301 Y28.8687
G01 X-23.1822 Y28.8547
G01 X-23.2336 Y28.8381
G01 X-23.2876 Y28.8176
G01 X-23.3336 Y28.7975
G01 X-23.3820 Y28.7735
G01 X-23.4292 Y28.7472
G01 X-23.4750 Y28.7186
G01 X-23.5266 Y28.6826
G01 X-23.5621 Y28.6549
G01 X-23.6032 Y28.6199
G01 X-23.6478 Y28.5778
G01 X-23.6800 Y28.5441
G01 X-23.7168 Y28.5021
G01 X-23.7526 Y28.4566
G01 X-23.7805 Y28.4172
G01 X-23.8104 Y28.3706
G01 X-23.8366 Y28.3250
G01 X-23.8615 Y28.2762
G01 X-23.8834 Y28.2277
G01 X-23.9031 Y28.1775
G01 X-23.9204 Y28.1263
G01 X-23.9352 Y28.0744
G01 X-23.9488 Y28.0149
G01 X-23.9569 Y27.9687
G01 X-23.9641 Y27.9134
G01 X-23.9682 Y27.8613
G01 X-23.9700 Y27.8000
G01 X-23.9688 Y27.7534
G00 Z1.0000
G00 X-18.8888 Y30.2934
G01 F76.20
G01 Z-0.1500
G01 F150.00
G01 X-18.8853 Y30.2395
G01 X-18.8769 Y30.1713
G01 X-18.8688 Y30.1251
G01 X-18.8587 Y30.0799
G01 X-18.8404 Y30.0137
G01 X-18.8231 Y29.9625
G01 X-18.8076 Y29.9224
G01 X-18.7815 Y29.8638
G01 X-18.7635 Y29.8280
G01 X-18.7372 Y29.7808
G01 X-18.7005 Y29.7228
G01 X-18.6726 Y29.6834
G01 X-18.6449 Y29.6479
G01 X-18.6000 Y29.5959
G01 X-18.5678 Y29.5622
G01 X-18.5341 Y29.5300
G01 X-18.4921 Y29.4932
G01 X-18.4393 Y29.4522
G01 X-18.3950 Y29.4214
G01 X-18.3606 Y29.3996
G01 X-18.3020 Y29.3665
G01 X-18.2662 Y29.3485
G01 X-18.2177 Y29.3266
G01 X-18.1536 Y29.3019
G01 X-18.1022 Y29.2853
G01 X-18.0644 Y29.2748
G01 X-18.0049 Y29.2612
G01 X-17.9441 Y29.2509
G01 X-17.9034 Y29.2459
G01 X-17.8513 Y29.2418
G01 X-17.7900 Y29.2400
G01 X-17.7434 Y29.2411
G01 X-17.6895 Y29.2447
G01 X-17.6213 Y29.2531
G01 X-17.5751 Y29.2612
G01 X-17.5299 Y29.2713
G01 X-17.4637 Y29.2896
G01 X-17.4125 Y29.3069
G01 X-17.3724 Y29.3224
G01 X-17.3138 Y29.3485
G01 X-17.2650 Y29.3734
G01 X-17.2182 Y29.4004
G01 X-17.1850 Y29.4214
G01 X-17.1289 Y29.4609
G01 X-17.0865 Y29.4944
G01 X-17.0568 Y29.5201
G01 X-17.0122 Y29.5622
G01 X-16.9800 Y29.5959
G01 X-16.9432 Y29.6379
G01 X-16.9074 Y29.6834
G01 X-16.8714 Y29.7350
G01 X-16.8428 Y29.7808
G01 X-16.8165 Y29.8280
G01 X-16.7925 Y29.8764
G01 X-16.7724 Y29.9224
G01 X-16.7519 Y29.9764
G01 X-16.7353 Y30.0278
G01 X-16.7213 Y30.0799
G01 X-16.7112 Y30.1251
G01 X-16.7009 Y30.1859
G01 X-16.6959 Y30.2266
G01 X-16.6918 Y30.2787
G01 X-16.6901 Y30.3326
G01 X-16.6911 Y30.3866
G01 X-16.6947 Y30.4405
G01 X-16.7009 Y30.4941
G01 X-16.7112 Y30.5549
G01 X-16.7213 Y30.6001
G01 X-16.7353 Y30.6522
G01 X-16.7519 Y30.7036
G01 X-16.7724 Y30.7576
G01 X-16.7925 Y30.8036
G01 X-16.8165 Y30.8520
G01 X-16.8428 Y30.8992
G01 X-16.8714 Y30.9450
G01 X-16.9074 Y30.9966
G01 X-16.9351 Y31.0321
G01 X-16.9701 Y31.0732
G01 X-16.9897 Y31.0944
G01 X-16.9897 Y32.9685
G01 X-15.8785 Y34.0798
G01 X-14.6215 Y34.0798
G01 X-9.4659 Y28.9241
G01 X-9.4428 Y28.9021
G01 X-9.4119 Y28.8749
G01 X-9.3707 Y28.8429
G01 X-9.3384 Y28.8206
G01 X-9.3165 Y28.8067
G01 X-9.2707 Y28.7809
G01 X-9.2481 Y28.7695
G01 X-9.2130 Y28.7536
G01 X-9.1626 Y28.7341
G01 X-9.1252 Y28.7222
G01 X-9.1016 Y28.7156
G01 X-9.0564 Y28.7052
G01 X-9.0101 Y28.6974
G01 X-8.9840 Y28.6942
G01 X-8.9466 Y28.6912
G01 X-8.9000 Y28.6898
G01 X-7.1115 Y28.6898
G01 X-6.7874 Y28.3657
G01 X-7.6559 Y27.4972
G01 X-7.6779 Y27.4742
G01 X-7.7051 Y27.4433
G01 X-7.7371 Y27.4021
G01 X-7.7594 Y27.3698
G01 X-7.7725 Y27.3490
G01 X-7.7922 Y27.3151
G01 X-7.8165 Y27.2668
G01 X-7.8307 Y27.2342
G01 X-7.8409 Y27.2079
G01 X-7.8536 Y27.1707
G01 X-7.8680 Y27.1187
G01 X-7.8748 Y27.0878
G01 X-7.8804 Y27.0561
G01 X-7.8870 Y27.0025
G01 X-7.8896 Y26.9633
G01 X-7.8903 Y26.9314
G01 X-7.8903 Y24.3000
G01 X-7.8888 Y24.2534
G01 X-7.8856 Y24.2142
G01 X-7.8804 Y24.1753
G01 X-7.8762 Y24.1511
G01 X-7.8680 Y24.1127
G01 X-7.8536 Y24.0607
G01 X-7.8409 Y24.0235
G01 X-7.8307 Y23.9971
G01 X-7.8165 Y23.9645
G01 X-7.7922 Y23.9163
G01 X-7.7725 Y23.8823
G01 X-7.7512 Y23.8493
G01 X-7.7371 Y23.8293
G01 X-7.7132 Y23.7981
G01 X-7.6779 Y23.7572
G01 X-7.6559 Y23.7341
G01 X-6.5656 Y22.6440
G01 X-6.5369 Y22.6172
G01 X-6.5169 Y22.5999
G01 X-6.4830 Y22.5732
G01 X-6.4557 Y22.5538
G01 X-6.4215 Y22.5317
G01 X-6.3757 Y22.5059
G01 X-6.3530 Y22.4945
G01 X-6.3180 Y22.4786
G01 X-6.2815 Y22.4641
G01 X-6.2443 Y22.4514
G01 X-6.2066 Y22.4406
G01 X-6.1614 Y22.4302
G01 X-6.1297 Y22.4246
G01 X-6.0890 Y22.4192
G01 X-6.0516 Y22.4162
G01 X-6.0050 Y22.4148
G01 X-4.6203 Y22.4148
G01 X-4.6203 Y18.4894
G01 X-4.9944 Y18.1153
G01 X-5.0917 Y18.1153
G01 X-5.1170 Y18.1544
G01 X-5.1561 Y18.2098
G01 X-5.2052 Y18.2722
G01 X-5.2536 Y18.3277
G01 X-5.2993 Y18.3757
G01 X-5.3582 Y18.4313
G01 X-5.4042 Y18.4710
G01 X-5.4652 Y18.5188
G01 X-5.5206 Y18.5580
G01 X-5.5838 Y18.5985
G01 X-5.6465 Y18.6343
G01 X-5.7128 Y18.6681
G01 X-5.7894 Y18.7022
G01 X-5.8478 Y18.7248
G01 X-5.9176 Y18.7482
G01 X-5.9884 Y18.7682
G01 X-6.0671 Y18.7861
G01 X-6.1326 Y18.7976
G01 X-6.2203 Y18.8084
G01 X-6.2938 Y18.8135
G01 X-6.3600 Y18.8150
G01 X-6.4410 Y18.8127
G01 X-6.5143 Y18.8070
G01 X-6.5874 Y18.7976
G01 X-6.6529 Y18.7861
G01 X-6.7316 Y18.7682
G01 X-6.8024 Y18.7482
G01 X-6.8722 Y18.7248
G01 X-6.9306 Y18.7022
G01 X-6.9946 Y18.6741
G01 X-7.0606 Y18.6413
G01 X-7.1374 Y18.5977
G01 X-7.1994 Y18.5580
G01 X-7.2594 Y18.5154
G01 X-7.3172 Y18.4698
G01 X-7.3727 Y18.4214
G01 X-7.4207 Y18.3757
G01 X-7.4763 Y18.3168
G01 X-7.5160 Y18.2708
G01 X-7.5639 Y18.2098
G01 X-7.6030 Y18.1544
G01 X-7.6435 Y18.0912
G01 X-7.6793 Y18.0285
G01 X-7.7128 Y17.9629
G01 X-7.7486 Y17.8822
G01 X-7.7747 Y17.8134
G01 X-7.7975 Y17.7434
G01 X-7.8167 Y17.6723
G01 X-7.8311 Y17.6079
G01 X-7.8426 Y17.5424
G01 X-7.8522 Y17.4676
G01 X-7.8577 Y17.3960
G01 X-7.8599 Y17.3224
G01 X-7.8585 Y17.2488
G01 X-7.8534 Y17.1753
G01 X-7.8426 Y17.0876
G01 X-7.8311 Y17.0221
G01 X-7.8132 Y16.9434
G01 X-7.7932 Y16.8726
G01 X-7.7747 Y16.8166
G01 X-7.7429 Y16.7342
G01 X-7.7131 Y16.6678
G01 X-7.6793 Y16.6015
G01 X-7.6427 Y16.5376
G01 X-7.6030 Y16.4756
G01 X-7.5639 Y16.4202
G01 X-7.5241 Y16.3692
G01 X-7.4763 Y16.3132
G01 X-7.4207 Y16.2543
G01 X-7.3727 Y16.2086
G01 X-7.3172 Y16.1602
G01 X-7.2548 Y16.1112
G01 X-7.1994 Y16.0720
G01 X-7.1248 Y16.0247
G01 X-7.0606 Y15.9887
G01 X-6.9946 Y15.9559
G01 X-6.9306 Y15.9278
G01 X-6.8584 Y15.9003
G01 X-6.7884 Y15.8775
G01 X-6.7173 Y15.8583
G01 X-6.6529 Y15.8439
G01 X-6.5874 Y15.8324
G01 X-6.4997 Y15.8216
G01 X-6.4262 Y15.8165
G01 X-6.3526 Y15.8151
G01 X-6.2790 Y15.8173
G01 X-6.2057 Y15.8230
G01 X-6.1326 Y15.8324
G01 X-6.0746 Y15.8425
G01 X-6.0027 Y15.8583
G01 X-5.9316 Y15.8775
G01 X-5.8616 Y15.9003
G01 X-5.7894 Y15.9278
G01 X-5.7128 Y15.9619
G01 X-5.6465 Y15.9957
G01 X-5.5826 Y16.0323
G01 X-5.5206 Y16.0720
G01 X-5.4652 Y16.1112
G01 X-5.4028 Y16.1602
G01 X-5.3473 Y16.2086
G01 X-5.2942 Y16.2596
G01 X-5.2437 Y16.3132
G01 X-5.1959 Y16.3692
G01 X-5.1509 Y16.4274
G01 X-5.1170 Y16.4756
G01 X-5.0917 Y16.5147
G01 X-4.6556 Y16.5148
G01 X-4.6163 Y16.5162
G01 X-4.5918 Y16.5180
G01 X-4.5528 Y16.5224
G01 X-4.5065 Y16.5302
G01 X-4.4757 Y16.5370
G01 X-4.4236 Y16.5514
G01 X-4.3864 Y16.5641
G01 X-4.3499 Y16.5786
G01 X-4.3149 Y16.5945
G01 X-4.2793 Y16.6128
G01 X-4.2453 Y16.6325
G01 X-4.2123 Y16.6538
G01 X-4.1922 Y16.6679
G01 X-4.1610 Y16.6918
G01 X-4.1310 Y16.7172
G01 X-4.0971 Y16.7491
G01 X-3.2541 Y17.5921
G01 X-3.2222 Y17.6260
G01 X-3.1968 Y17.6560
G01 X-3.1782 Y17.6799
G01 X-3.1588 Y17.7073
G01 X-3.1367 Y17.7415
G01 X-3.1178 Y17.7743
G01 X-3.0935 Y17.8225
G01 X-3.0793 Y17.8551
G01 X-3.0691 Y17.8814
G01 X-3.0522 Y17.9327
G01 X-3.0420 Y17.9707
G01 X-3.0352 Y18.0015
G01 X-3.0296 Y18.0333
G01 X-3.0242 Y18.0739
G01 X-3.0204 Y18.1260
G01 X-3.0197 Y18.1579
G01 X-3.0197 Y22.7630
G01 X-2.9899 Y22.8100
G01 X-2.9709 Y22.8443
G01 X-2.9595 Y22.8670
G01 X-2.9393 Y22.9121
G01 X-2.9291 Y22.9385
G01 X-2.9164 Y22.9757
G01 X-2.9020 Y23.0277
G01 X-2.8952 Y23.0586
G01 X-2.8896 Y23.0903
G01 X-2.8830 Y23.1439
G01 X-2.8804 Y23.1831
G01 X-2.8798 Y23.2076
G01 X-2.8804 Y23.2469
G01 X-2.8830 Y23.2861
G01 X-2.8896 Y23.3397
G01 X-2.8967 Y23.3783
G01 X-2.9056 Y23.4166
G01 X-2.9164 Y23.4543
G01 X-2.9241 Y23.4776
G01 X-2.9393 Y23.5179
G01 X-2.9535 Y23.5505
G01 X-2.9778 Y23.5987
G01 X-2.9975 Y23.6327
G01 X-3.0188 Y23.6657
G01 X-3.0329 Y23.6857
G01 X-3.0568 Y23.7169
G01 X-3.0921 Y23.7578
G01 X-3.1194 Y23.7860
G01 X-3.1481 Y23.8128
G01 X-3.1681 Y23.8301
G01 X-3.2020 Y23.8568
G01 X-3.2416 Y23.8844
G01 X-3.2635 Y23.8983
G01 X-3.2963 Y23.9172
G01 X-3.3320 Y23.9355
G01 X-3.3771 Y23.9557
G01 X-3.4174 Y23.9709
G01 X-3.4548 Y23.9828
G01 X-3.4927 Y23.9930
G01 X-3.5167 Y23.9983
G01 X-3.5553 Y24.0054
G01 X-3.6089 Y24.0120
G01 X-3.6481 Y24.0146
G01 X-3.6800 Y24.0153
G01 X-5.6735 Y24.0153
G01 X-6.2898 Y24.6315
G01 X-6.2898 Y26.5999
G01 X-5.8899 Y26.9997
G01 X-5.8444 Y26.9997
G01 X-5.8232 Y26.9801
G01 X-5.7921 Y26.9532
G01 X-5.7466 Y26.9174
G01 X-5.7072 Y26.8895
G01 X-5.6606 Y26.8596
G01 X-5.6150 Y26.8334
G01 X-5.5662 Y26.8085
G01 X-5.5076 Y26.7824
G01 X-5.4536 Y26.7619
G01 X-5.4022 Y26.7453
G01 X-5.3501 Y26.7313
G01 X-5.3049 Y26.7212
G01 X-5.2587 Y26.7131
G01 X-5.2034 Y26.7059
G01 X-5.1513 Y26.7018
G01 X-5.0900 Y26.7000
G01 X-5.0434 Y26.7011
G01 X-4.9895 Y26.7047
G01 X-4.9359 Y26.7109
G01 X-4.8751 Y26.7212
G01 X-4.8299 Y26.7313
G01 X-4.7778 Y26.7453
G01 X-4.7264 Y26.7619
G01 X-4.6724 Y26.7824
G01 X-4.6264 Y26.8025
G01 X-4.5780 Y26.8265
G01 X-4.5308 Y26.8528
G01 X-4.4850 Y26.8814
G01 X-4.4334 Y26.9174
G01 X-4.3979 Y26.9451
G01 X-4.3568 Y26.9801
G01 X-4.3122 Y27.0222
G01 X-4.2800 Y27.0559
G01 X-4.2432 Y27.0979
G01 X-4.2074 Y27.1434
G01 X-4.1795 Y27.1828
G01 X-4.1496 Y27.2294
G01 X-4.1234 Y27.2750
G01 X-4.0985 Y27.3238
G01 X-4.0724 Y27.3824
G01 X-4.0519 Y27.4364
G01 X-4.0353 Y27.4878
G01 X-4.0213 Y27.5399
G01 X-4.0112 Y27.5851
G01 X-4.0009 Y27.6459
G01 X-3.9947 Y27.6995
G01 X-3.9911 Y27.7534
G01 X-3.9900 Y27.8000
G01 X-3.9918 Y27.8613
G01 X-3.9961 Y27.9151
G01 X-4.0031 Y27.9687
G01 X-4.0112 Y28.0149
G01 X-4.0248 Y28.0744
G01 X-4.0396 Y28.1263
G01 X-4.0569 Y28.1775
G01 X-4.0710 Y28.2141
G01 X-4.0925 Y28.2636
G01 X-4.1165 Y28.3120
G01 X-4.1428 Y28.3592
G01 X-4.1714 Y28.4050
G01 X-4.2074 Y28.4566
G01 X-4.2351 Y28.4921
G01 X-4.2701 Y28.5332
G01 X-4.3122 Y28.5778
G01 X-4.3568 Y28.6199
G01 X-4.3979 Y28.6549
G01 X-4.4334 Y28.6826
G01 X-4.4728 Y28.7105
G01 X-4.5194 Y28.7404
G01 X-4.5650 Y28.7666
G01 X-4.6264 Y28.7975
G01 X-4.6724 Y28.8176
G01 X-4.7125 Y28.8331
G01 X-4.7778 Y28.8547
G01 X-4.8299 Y28.8687
G01 X-4.8751 Y28.8788
G01 X-4.9213 Y28.8869
G01 X-4.9766 Y28.8941
G01 X-5.0287 Y28.8982
G01 X-5.0576 Y28.8993
G01 X-6.2141 Y30.0559
G01 X-6.2372 Y30.0779
G01 X-6.2681 Y30.1051
G01 X-6.2974 Y30.1283
G01 X-6.3416 Y30.1594
G01 X-6.3750 Y30.1801
G01 X-6.4093 Y30.1992
G01 X-6.4445 Y30.2165
G01 X-6.4806 Y30.2321
G01 X-6.5174 Y30.2459
G01 X-6.5407 Y30.2536
G01 X-6.5784 Y30.2644
G01 X-6.6167 Y30.2734
G01 X-6.6699 Y30.2826
G01 X-6.7089 Y30.2870
G01 X-6.7481 Y30.2896
G01 X-6.7800 Y30.2903
G01 X-8.5685 Y30.2903
G01 X-13.7294 Y35.4510
G01 X-13.7581 Y35.4778
G01 X-13.7781 Y35.4951
G01 X-13.8120 Y35.5218
G01 X-13.8393 Y35.5412
G01 X-13.8849 Y35.5701
G01 X-13.9193 Y35.5891
G01 X-13.9420 Y35.6005
G01 X-13.9770 Y35.6164
G01 X-14.0135 Y35.6309
G01 X-14.0648 Y35.6478
G01 X-14.1027 Y35.6580
G01 X-14.1336 Y35.6648
G01 X-14.1653 Y35.6704
G01 X-14.2060 Y35.6758
G01 X-14.2434 Y35.6788
G01 X-14.2900 Y35.6803
G01 X-16.2100 Y35.6803
G01 X-16.2419 Y35.6796
G01 X-16.2958 Y35.6756
G01 X-16.3347 Y35.6704
G01 X-16.3733 Y35.6633
G01 X-16.4116 Y35.6544
G01 X-16.4493 Y35.6436
G01 X-16.4865 Y35.6309
G01 X-16.5230 Y35.6164
G01 X-16.5580 Y35.6005
G01 X-16.5937 Y35.5822
G01 X-16.6277 Y35.5625
G01 X-16.6607 Y35.5412
G01 X-16.6880 Y35.5218
G01 X-16.7119 Y35.5032
G01 X-16.7419 Y35.4778
G01 X-16.7706 Y35.4510
G01 X-18.3559 Y33.8659
G01 X-18.3878 Y33.8319
G01 X-18.4051 Y33.8119
G01 X-18.4283 Y33.7826
G01 X-18.4594 Y33.7384
G01 X-18.4733 Y33.7165
G01 X-18.4922 Y33.6837
G01 X-18.5105 Y33.6481
G01 X-18.5264 Y33.6130
G01 X-18.5459 Y33.5626
G01 X-18.5578 Y33.5252
G01 X-18.5680 Y33.4873
G01 X-18.5748 Y33.4564
G01 X-18.5804 Y33.4247
G01 X-18.5870 Y33.3711
G01 X-18.5896 Y33.3319
G01 X-18.5903 Y33.3000
G01 X-18.5903 Y31.0944
G01 X-18.6099 Y31.0732
G01 X-18.6368 Y31.0421
G01 X-18.6726 Y30.9966
G01 X-18.7005 Y30.9572
G01 X-18.7304 Y30.9106
G01 X-18.7566 Y30.8650
G01 X-18.7815 Y30.8162
G01 X-18.8034 Y30.7677
G01 X-18.8231 Y30.7175
G01 X-18.8404 Y30.6663
G01 X-18.8552 Y30.6144
G01 X-18.8688 Y30.5549
G01 X-18.8769 Y30.5087
G01 X-18.8841 Y30.4534
G01 X-18.8882 Y30.4013
G01 X-18.8900 Y30.3400
G01 X-18.8888 Y30.2934
G00 Z1.0000
G00 X-16.3488 Y32.8334
G01 F76.20
G01 Z-0.1500
G01 F150.00
G01 X-16.3439 Y32.7649
G01 X-16.3369 Y32.7113
G01 X-16.3273 Y32.6582
G01 X-16.3152 Y32.6056
G01 X-16.3004 Y32.5537
G01 X-16.2831 Y32.5025
G01 X-16.2634 Y32.4523
G01 X-16.2415 Y32.4038
G01 X-16.2166 Y32.3550
G01 X-16.1896 Y32.3082
G01 X-16.1686 Y32.2750
G01 X-16.1326 Y32.2234
G01 X-16.1049 Y32.1879
G01 X-16.0699 Y32.1468
G01 X-16.0503 Y32.1256
G01 X-16.0503 Y30.3400
G01 X-16.0488 Y30.2934
G01 X-16.0456 Y30.2542
G01 X-16.0426 Y30.2299
G01 X-16.0348 Y30.1836
G01 X-16.0280 Y30.1527
G01 X-16.0178 Y30.1148
G01 X-16.0009 Y30.0635
G01 X-15.9864 Y30.0270
G01 X-15.9705 Y29.9920
G01 X-15.9591 Y29.9693
G01 X-15.9325 Y29.9223
G01 X-15.9112 Y29.8893
G01 X-15.8971 Y29.8693
G01 X-15.8639 Y29.8267
G01 X-15.8379 Y29.7972
G01 X-15.8159 Y29.7741
G01 X-13.8093 Y27.7676
G01 X-13.8082 Y27.7387
G01 X-13.8053 Y27.6995
G01 X-13.7991 Y27.6459
G01 X-13.7888 Y27.5851
G01 X-13.7752 Y27.5256
G01 X-13.7604 Y27.4737
G01 X-13.7431 Y27.4225
G01 X-13.7290 Y27.3859
G01 X-13.7075 Y27.3364
G01 X-13.6835 Y27.2880
G01 X-13.6572 Y27.2408
G01 X-13.6205 Y27.1828
G01 X-13.5926 Y27.1434
G01 X-13.5556 Y27.0965
G01 X-13.5200 Y27.0559
G01 X-13.4878 Y27.0222
G01 X-13.4541 Y26.9900
G01 X-13.4121 Y26.9532
G01 X-13.3711 Y26.9209
G01 X-13.3150 Y26.8814
G01 X-13.2806 Y26.8596
G01 X-13.2350 Y26.8334
G01 X-13.1862 Y26.8085
G01 X-13.1377 Y26.7866
G01 X-13.0736 Y26.7619
G01 X-13.0222 Y26.7453
G01 X-12.9701 Y26.7313
G01 X-12.9249 Y26.7212
G01 X-12.8787 Y26.7131
G01 X-12.8105 Y26.7047
G01 X-12.7566 Y26.7011
G01 X-12.7100 Y26.7000
G01 X-12.6634 Y26.7011
G01 X-12.6095 Y26.7047
G01 X-12.5413 Y26.7131
G01 X-12.4951 Y26.7212
G01 X-12.4499 Y26.7313
G01 X-12.3837 Y26.7496
G01 X-12.3325 Y26.7669
G01 X-12.2924 Y26.7824
G01 X-12.2464 Y26.8025
G01 X-12.1980 Y26.8265
G01 X-12.1382 Y26.8604
G01 X-12.0928 Y26.8895
G01 X-12.0607 Y26.9122
G01 X-12.0179 Y26.9451
G01 X-11.9768 Y26.9801
G01 X-11.9322 Y27.0222
G01 X-11.9000 Y27.0559
G01 X-11.8551 Y27.1079
G01 X-11.8274 Y27.1434
G01 X-11.7914 Y27.1950
G01 X-11.7628 Y27.2408
G01 X-11.7365 Y27.2880
G01 X-11.7125 Y27.3364
G01 X-11.6924 Y27.3824
G01 X-11.6719 Y27.4364
G01 X-11.6553 Y27.4878
G01 X-11.6413 Y27.5399
G01 X-11.6298 Y27.5926
G01 X-11.6209 Y27.6459
G01 X-11.6147 Y27.6995
G01 X-11.6111 Y27.7534
G01 X-11.6100 Y27.8000
G01 X-11.6118 Y27.8613
G01 X-11.6159 Y27.9134
G01 X-11.6231 Y27.9687
G01 X-11.6312 Y28.0149
G01 X-11.6413 Y28.0601
G01 X-11.6553 Y28.1122
G01 X-11.6719 Y28.1636
G01 X-11.6924 Y28.2176
G01 X-11.7125 Y28.2636
G01 X-11.7365 Y28.3120
G01 X-11.7628 Y28.3592
G01 X-11.7914 Y28.4050
G01 X-11.8274 Y28.4566
G01 X-11.8644 Y28.5035
G01 X-11.9000 Y28.5441
G01 X-11.9322 Y28.5778
G01 X-11.9659 Y28.6100
G01 X-12.0079 Y28.6468
G01 X-12.0607 Y28.6878
G01 X-12.1050 Y28.7186
G01 X-12.1382 Y28.7396
G01 X-12.1850 Y28.7666
G01 X-12.2338 Y28.7915
G01 X-12.2924 Y28.8176
G01 X-12.3464 Y28.8381
G01 X-12.3978 Y28.8547
G01 X-12.4356 Y28.8652
G01 X-12.4951 Y28.8788
G01 X-12.5559 Y28.8891
G01 X-12.6095 Y28.8953
G01 X-12.6487 Y28.8982
G01 X-12.6776 Y28.8993
G01 X-14.4497 Y30.6715
G01 X-14.4497 Y32.1256
G01 X-14.4301 Y32.1468
G01 X-14.3951 Y32.1879
G01 X-14.3674 Y32.2234
G01 X-14.3314 Y32.2750
G01 X-14.3096 Y32.3094
G01 X-14.2834 Y32.3550
G01 X-14.2585 Y32.4038
G01 X-14.2366 Y32.4523
G01 X-14.2169 Y32.5025
G01 X-14.1996 Y32.5537
G01 X-14.1813 Y32.6199
G01 X-14.1712 Y32.6651
G01 X-14.1609 Y32.7259
G01 X-14.1547 Y32.7795
G01 X-14.1511 Y32.8334
G01 X-14.1500 Y32.8800
G01 X-14.1518 Y32.9413
G01 X-14.1561 Y32.9951
G01 X-14.1609 Y33.0341
G01 X-14.1727 Y33.1018
G01 X-14.1848 Y33.1544
G01 X-14.1953 Y33.1922
G01 X-14.2169 Y33.2575
G01 X-14.2366 Y33.3077
G01 X-14.2585 Y33.3562
G01 X-14.2765 Y33.3920
G01 X-14.3028 Y33.4392
G01 X-14.3314 Y33.4850
G01 X-14.3622 Y33.5293
G01 X-14.4044 Y33.5835
G01 X-14.4400 Y33.6241
G01 X-14.4722 Y33.6578
G01 X-14.5059 Y33.6900
G01 X-14.5479 Y33.7268
G01 X-14.6007 Y33.7678
G01 X-14.6450 Y33.7986
G01 X-14.6794 Y33.8204
G01 X-14.7380 Y33.8535
G01 X-14.7864 Y33.8775
G01 X-14.8324 Y33.8976
G01 X-14.8725 Y33.9131
G01 X-14.9237 Y33.9304
G01 X-14.9899 Y33.9487
G01 X-15.0351 Y33.9588
G01 X-15.0813 Y33.9669
G01 X-15.1366 Y33.9741
G01 X-15.1887 Y33.9782
G01 X-15.2574 Y33.9799
G01 X-15.3113 Y33.9782
G01 X-15.3505 Y33.9753
G01 X-15.4187 Y33.9669
G01 X-15.4649 Y33.9588
G01 X-15.5244 Y33.9452
G01 X-15.5763 Y33.9304
G01 X-15.6136 Y33.9181
G01 X-15.6777 Y33.8934
G01 X-15.7262 Y33.8715
G01 X-15.7750 Y33.8466
G01 X-15.8218 Y33.8196
G01 X-15.8550 Y33.7986
G01 X-15.9111 Y33.7591
G01 X-15.9535 Y33.7256
G01 X-15.9832 Y33.6999
G01 X-16.0278 Y33.6578
G01 X-16.0600 Y33.6241
G01 X-16.1049 Y33.5721
G01 X-16.1326 Y33.5366
G01 X-16.1605 Y33.4972
G01 X-16.1972 Y33.4392
G01 X-16.2235 Y33.3920
G01 X-16.2415 Y33.3562
G01 X-16.2634 Y33.3077
G01 X-16.2831 Y33.2575
G01 X-16.3047 Y33.1922
G01 X-16.3187 Y33.1401
G01 X-16.3288 Y33.0949
G01 X-16.3369 Y33.0487
G01 X-16.3439 Y32.9951
G01 X-16.3489 Y32.9266
G01 X-16.3500 Y32.8800
G01 X-16.3488 Y32.8334
G00 Z1.0000
G00 X-33.3557 Y52.9056
G01 F76.20
G01 Z-0.1500
G01 F150.00
G01 X-33.3456 Y52.9123
G01 X-33.3160 Y52.9517
G01 X-33.2217 Y53.2033
G01 X-33.0987 Y53.8591
G01 X-33.0987 Y54.6999
G01 X-33.2217 Y55.3557
G01 X-33.3160 Y55.6073
G01 X-33.3456 Y55.6467
G01 X-33.3557 Y55.6535
G01 X-33.3658 Y55.6467
G01 X-33.3954 Y55.6073
G01 X-33.4897 Y55.3557
G01 X-33.6127 Y54.6999
G01 X-33.6127 Y53.8591
G01 X-33.4897 Y53.2033
G01 X-33.3954 Y52.9517
G01 X-33.3658 Y52.9123
G01 X-33.3557 Y52.9056
G00 Z1.0000
G00 X-34.8125 Y53.7825
G01 F76.20
G01 Z-0.1500
G01 F150.00
G01 X-34.8097 Y53.7409
G01 X-34.8027 Y53.6927
G01 X-34.6599 Y52.9308
G01 X-34.6530 Y52.8990
G01 X-34.6425 Y52.8615
G01 X-34.6319 Y52.8307
G01 X-34.4891 Y52.4497
G01 X-34.4756 Y52.4168
G01 X-34.4568 Y52.3784
G01 X-34.4354 Y52.3415
G01 X-34.4115 Y52.3061
G01 X-34.2600 Y52.1041
G01 X-34.2417 Y52.0815
G01 X-34.2223 Y52.0598
G01 X-34.2019 Y52.0391
G01 X-34.1806 Y52.0194
G01 X-34.1468 Y51.9918
G01 X-34.1232 Y51.9748
G01 X-33.8253 Y51.7762
G01 X-33.8003 Y51.7608
G01 X-33.7614 Y51.7400
G01 X-33.7346 Y51.7278
G01 X-33.7073 Y51.7169
G01 X-33.6795 Y51.7073
G01 X-33.6370 Y51.6956
G01 X-33.5937 Y51.6870
G01 X-33.5500 Y51.6816
G01 X-33.5206 Y51.6798
G01 X-33.4986 Y51.6794
G01 X-33.2129 Y51.6794
G01 X-33.1836 Y51.6801
G01 X-33.1542 Y51.6822
G01 X-33.1250 Y51.6858
G01 X-33.0959 Y51.6909
G01 X-33.0672 Y51.6973
G01 X-33.0388 Y51.7052
G01 X-33.0108 Y51.7144
G01 X-32.9833 Y51.7250
G01 X-32.9564 Y51.7369
G01 X-32.9304 Y51.7500
G01 X-32.9047 Y51.7645
G01 X-32.8861 Y51.7762
G01 X-32.5942 Y51.9706
G01 X-32.5687 Y51.9886
G01 X-32.5419 Y52.0099
G01 X-32.5201 Y52.0291
G01 X-32.4992 Y52.0493
G01 X-32.4793 Y52.0706
G01 X-32.4605 Y52.0927
G01 X-32.2917 Y52.3177
G01 X-32.2750 Y52.3430
G01 X-32.2546 Y52.3784
G01 X-32.2418 Y52.4039
G01 X-32.2249 Y52.4431
G01 X-32.0773 Y52.8368
G01 X-32.0689 Y52.8615
G01 X-32.0617 Y52.8864
G01 X-32.0516 Y52.9308
G01 X-31.9087 Y53.6927
G01 X-31.9016 Y53.7417
G01 X-31.8995 Y53.7686
G01 X-31.8984 Y53.8033
G01 X-31.8984 Y54.3032
G01 X-31.7669 Y53.9537
G01 X-31.7553 Y53.9277
G01 X-31.7426 Y53.9022
G01 X-31.7286 Y53.8774
G01 X-31.7134 Y53.8533
G01 X-31.6930 Y53.8242
G01 X-31.5501 Y53.6337
G01 X-31.5274 Y53.6053
G01 X-31.5080 Y53.5836
G01 X-31.4877 Y53.5629
G01 X-31.4663 Y53.5432
G01 X-31.4325 Y53.5156
G01 X-31.4029 Y53.4945
G01 X-31.3160 Y53.4365
G01 X-31.8614 Y52.6026
G01 X-31.8837 Y52.5647
G01 X-31.9032 Y52.5252
G01 X-31.9197 Y52.4844
G01 X-31.9298 Y52.4545
G01 X-31.9405 Y52.4141
G01 X-31.9488 Y52.3709
G01 X-31.9527 Y52.3406
G01 X-31.9555 Y52.2979
G01 X-31.9557 Y52.2686
G01 X-31.9533 Y52.2246
G01 X-31.9477 Y52.1810
G01 X-31.9389 Y52.1379
G01 X-31.9269 Y52.0955
G01 X-31.9119 Y52.0541
G01 X-31.8948 Y52.0159
G01 X-31.8803 Y51.9880
G01 X-31.8575 Y51.9504
G01 X-31.8362 Y51.9199
G01 X-31.8136 Y51.8916
G01 X-31.7839 Y51.8591
G01 X-31.7520 Y51.8289
G01 X-31.7295 Y51.8100
G01 X-31.7061 Y51.7923
G01 X-31.6819 Y51.7758
G01 X-31.6568 Y51.7604
G01 X-31.6311 Y51.7463
G01 X-31.6047 Y51.7335
G01 X-31.5777 Y51.7220
G01 X-31.5502 Y51.7118
G01 X-31.5222 Y51.7030
G01 X-31.4939 Y51.6955
G01 X-31.4507 Y51.6870
G01 X-31.4199 Y51.6828
G01 X-31.3924 Y51.6805
G01 X-31.3557 Y51.6794
G01 X-29.4986 Y51.6794
G01 X-29.4618 Y51.6805
G01 X-29.4178 Y51.6849
G01 X-29.3812 Y51.6910
G01 X-29.3456 Y51.6992
G01 X-29.3173 Y51.7074
G01 X-29.2895 Y51.7170
G01 X-29.2621 Y51.7280
G01 X-29.2354 Y51.7402
G01 X-29.2092 Y51.7538
G01 X-29.1838 Y51.7686
G01 X-29.1591 Y51.7847
G01 X-29.1236 Y51.8110
G01 X-29.1011 Y51.8300
G01 X-29.0742 Y51.8552
G01 X-29.0589 Y51.8711
G01 X-29.0382 Y51.8946
G01 X-29.0175 Y51.9207
G01 X-28.9955 Y51.9523
G01 X-28.9801 Y51.9773
G01 X-28.9659 Y52.0032
G01 X-28.9530 Y52.0296
G01 X-28.9427 Y52.0532
G01 X-28.9311 Y52.0843
G01 X-28.9222 Y52.1124
G01 X-28.9147 Y52.1409
G01 X-28.9086 Y52.1697
G01 X-28.9039 Y52.1988
G01 X-28.9007 Y52.2280
G01 X-28.8985 Y52.2722
G01 X-28.8989 Y52.3016
G01 X-28.9007 Y52.3310
G01 X-28.9039 Y52.3603
G01 X-28.9086 Y52.3894
G01 X-28.9147 Y52.4182
G01 X-28.9222 Y52.4467
G01 X-28.9311 Y52.4747
G01 X-28.9427 Y52.5058
G01 X-28.9589 Y52.5420
G01 X-28.9728 Y52.5689
G01 X-28.9877 Y52.5943
G01 X-29.0037 Y52.6190
G01 X-29.0300 Y52.6545
G01 X-29.0490 Y52.6770
G01 X-29.0795 Y52.7090
G01 X-29.1011 Y52.7291
G01 X-29.1352 Y52.7571
G01 X-29.1591 Y52.7744
G01 X-29.1850 Y52.7912
G01 X-29.2222 Y52.8122
G01 X-29.2487 Y52.8251
G01 X-29.2895 Y52.8420
G01 X-29.3173 Y52.8516
G01 X-29.3599 Y52.8634
G01 X-29.4032 Y52.8720
G01 X-29.4342 Y52.8762
G01 X-29.4765 Y52.8792
G01 X-30.2440 Y52.8797
G01 X-29.8540 Y53.4741
G01 X-29.8348 Y53.5053
G01 X-29.8144 Y53.5443
G01 X-29.7990 Y53.5792
G01 X-29.7917 Y53.5984
G01 X-29.7817 Y53.6283
G01 X-29.7709 Y53.6687
G01 X-29.7626 Y53.7119
G01 X-29.7575 Y53.7556
G01 X-29.7556 Y53.8051
G01 X-29.7562 Y53.8290
G01 X-29.7581 Y53.8582
G01 X-29.7638 Y53.9019
G01 X-29.7726 Y53.9450
G01 X-29.7802 Y53.9733
G01 X-29.7892 Y54.0013
G01 X-29.8004 Y54.0309
G01 X-29.8166 Y54.0670
G01 X-29.8312 Y54.0948
G01 X-29.8460 Y54.1201
G01 X-29.8621 Y54.1447
G01 X-29.8753 Y54.1630
G01 X-29.8978 Y54.1912
G01 X-29.9173 Y54.2132
G01 X-29.9485 Y54.2442
G01 X-29.9706 Y54.2636
G01 X-29.9975 Y54.2849
G01 X-30.0174 Y54.2990
G01 X-30.0420 Y54.3149
G01 X-30.0674 Y54.3296
G01 X-30.0934 Y54.3431
G01 X-30.1201 Y54.3553
G01 X-30.1474 Y54.3661
G01 X-30.1752 Y54.3756
G01 X-30.2033 Y54.3838
G01 X-30.2385 Y54.3919
G01 X-30.2607 Y54.3959
G01 X-30.3044 Y54.4012
G01 X-30.3484 Y54.4034
G01 X-30.6026 Y54.4035
G01 X-30.6516 Y54.4361
G01 X-30.6811 Y54.4756
G01 X-30.7556 Y54.6741
G01 X-30.7556 Y55.4088
G01 X-30.6811 Y55.6073
G01 X-30.6516 Y55.6467
G01 X-30.6026 Y55.6794
G01 X-30.1089 Y55.6794
G01 X-30.0599 Y55.6467
G01 X-29.9651 Y55.5211
G01 X-29.9460 Y55.4986
G01 X-29.9154 Y55.4668
G01 X-29.8937 Y55.4469
G01 X-29.8594 Y55.4190
G01 X-29.8354 Y55.4019
G01 X-29.8106 Y55.3860
G01 X-29.7721 Y55.3644
G01 X-29.7320 Y55.3457
G01 X-29.6907 Y55.3301
G01 X-29.6626 Y55.3213
G01 X-29.6197 Y55.3108
G01 X-29.5761 Y55.3035
G01 X-29.5322 Y55.2994
G01 X-29.4880 Y55.2986
G01 X-29.4439 Y55.3010
G01 X-29.4146 Y55.3044
G01 X-29.3856 Y55.3092
G01 X-29.3425 Y55.3191
G01 X-29.3143 Y55.3275
G01 X-29.2865 Y55.3372
G01 X-29.2592 Y55.3483
G01 X-29.2346 Y55.3596
G01 X-29.1936 Y55.3817
G01 X-29.1686 Y55.3973
G01 X-29.1439 Y55.4145
G01 X-29.1211 Y55.4321
G01 X-29.0986 Y55.4512
G01 X-29.0772 Y55.4713
G01 X-29.0567 Y55.4925
G01 X-29.0373 Y55.5147
G01 X-29.0190 Y55.5378
G01 X-29.0019 Y55.5617
G01 X-28.9860 Y55.5865
G01 X-28.9644 Y55.6251
G01 X-28.9516 Y55.6516
G01 X-28.9402 Y55.6787
G01 X-28.9248 Y55.7227
G01 X-28.9175 Y55.7487
G01 X-28.9108 Y55.7774
G01 X-28.9056 Y55.8064
G01 X-28.9018 Y55.8353
G01 X-28.8835 Y55.8191
G01 X-28.8619 Y55.8019
G01 X-28.8258 Y55.7765
G01 X-28.7879 Y55.7538
G01 X-28.7485 Y55.7339
G01 X-28.7077 Y55.7170
G01 X-28.6657 Y55.7032
G01 X-28.6372 Y55.6957
G01 X-28.6160 Y55.6910
G01 X-28.5793 Y55.6849
G01 X-28.5354 Y55.6805
G01 X-28.4986 Y55.6794
G01 X-27.8417 Y55.6794
G01 X-28.8358 Y54.3539
G01 X-28.8573 Y54.3233
G01 X-28.8731 Y54.2979
G01 X-28.8876 Y54.2718
G01 X-28.9007 Y54.2450
G01 X-28.9114 Y54.2206
G01 X-28.9230 Y54.1895
G01 X-28.9321 Y54.1610
G01 X-28.9379 Y54.1394
G01 X-29.0808 Y53.5679
G01 X-29.0872 Y53.5397
G01 X-29.0932 Y53.5030
G01 X-29.0976 Y53.4591
G01 X-29.0987 Y53.4224
G01 X-29.0987 Y53.0414
G01 X-29.0982 Y53.0184
G01 X-29.0963 Y52.9877
G01 X-29.0927 Y52.9571
G01 X-29.0866 Y52.9215
G01 X-29.0771 Y52.8819
G01 X-29.0631 Y52.8379
G01 X-28.9098 Y52.4299
G01 X-28.8938 Y52.3948
G01 X-28.8786 Y52.3660
G01 X-28.8563 Y52.3295
G01 X-28.8358 Y52.3004
G01 X-28.6795 Y52.0927
G01 X-28.6509 Y52.0598
G01 X-28.6305 Y52.0391
G01 X-28.6091 Y52.0194
G01 X-28.5754 Y51.9918
G01 X-28.5458 Y51.9706
G01 X-28.2600 Y51.7802
G01 X-28.2288 Y51.7608
G01 X-28.1899 Y51.7400
G01 X-28.1632 Y51.7278
G01 X-28.1220 Y51.7119
G01 X-28.0940 Y51.7031
G01 X-28.0656 Y51.6956
G01 X-28.0223 Y51.6870
G01 X-27.9914 Y51.6829
G01 X-27.9492 Y51.6798
G01 X-27.1908 Y51.6798
G01 X-27.1615 Y51.6816
G01 X-27.1177 Y51.6870
G01 X-27.0744 Y51.6956
G01 X-27.0319 Y51.7073
G01 X-27.0041 Y51.7169
G01 X-26.9634 Y51.7337
G01 X-26.9369 Y51.7466
G01 X-26.8986 Y51.7683
G01 X-26.5942 Y51.9706
G01 X-26.5687 Y51.9886
G01 X-26.5419 Y52.0099
G01 X-26.5201 Y52.0291
G01 X-26.4992 Y52.0493
G01 X-26.4793 Y52.0706
G01 X-26.4605 Y52.0927
G01 X-26.3042 Y52.3004
G01 X-26.2913 Y52.3183
G01 X-26.2741 Y52.3445
G01 X-26.2531 Y52.3813
G01 X-26.2340 Y52.4211
G01 X-26.2227 Y52.4489
G01 X-26.2088 Y52.4902
G01 X-26.1979 Y52.5330
G01 X-26.1901 Y52.5765
G01 X-26.1855 Y52.6205
G01 X-26.1843 Y52.6499
G01 X-26.1851 Y52.6941
G01 X-26.1875 Y52.7234
G01 X-26.1937 Y52.7672
G01 X-26.2032 Y52.8103
G01 X-26.2112 Y52.8386
G01 X-26.2259 Y52.8803
G01 X-26.2374 Y52.9075
G01 X-26.2570 Y52.9470
G01 X-26.2795 Y52.9850
G01 X-26.3022 Y53.0180
G01 X-26.3230 Y53.0444
G01 X-26.3525 Y53.0773
G01 X-26.3844 Y53.1079
G01 X-26.4184 Y53.1361
G01 X-26.4543 Y53.1617
G01 X-26.4921 Y53.1847
G01 X-26.5315 Y53.2047
G01 X-26.5727 Y53.2221
G01 X-26.6141 Y53.2359
G01 X-26.6569 Y53.2469
G01 X-26.7003 Y53.2547
G01 X-26.7443 Y53.2592
G01 X-26.7827 Y53.2606
G01 X-26.8179 Y53.2596
G01 X-26.8472 Y53.2573
G01 X-26.8910 Y53.2510
G01 X-26.9341 Y53.2416
G01 X-26.9624 Y53.2335
G01 X-26.9904 Y53.2241
G01 X-27.0313 Y53.2074
G01 X-27.0708 Y53.1878
G01 X-27.1088 Y53.1652
G01 X-27.1418 Y53.1425
G01 X-27.1682 Y53.1217
G01 X-27.1904 Y53.1023
G01 X-27.2115 Y53.0819
G01 X-27.2317 Y53.0604
G01 X-27.2508 Y53.0380
G01 X-27.3456 Y52.9123
G01 X-27.3946 Y52.8797
G01 X-27.7454 Y52.8797
G01 X-27.7944 Y52.9123
G01 X-27.8240 Y52.9517
G01 X-27.8984 Y53.1503
G01 X-27.8984 Y53.3485
G01 X-27.8029 Y53.7307
G01 X-26.1613 Y55.9194
G01 X-26.1401 Y55.9497
G01 X-26.1245 Y55.9747
G01 X-26.1101 Y56.0005
G01 X-26.0910 Y56.0404
G01 X-26.0797 Y56.0683
G01 X-26.0702 Y56.0957
G01 X-26.0618 Y56.1240
G01 X-26.0549 Y56.1527
G01 X-26.0493 Y56.1817
G01 X-26.0450 Y56.2130
G01 X-26.0426 Y56.2404
G01 X-26.0413 Y56.2784
G01 X-26.0423 Y56.3141
G01 X-26.0446 Y56.3420
G01 X-26.0486 Y56.3728
G01 X-26.0527 Y56.3959
G01 X-26.0607 Y56.4306
G01 X-26.0688 Y56.4590
G01 X-26.0836 Y56.5007
G01 X-26.1014 Y56.5413
G01 X-26.1240 Y56.5836
G01 X-26.1458 Y56.6179
G01 X-26.1721 Y56.6535
G01 X-26.2009 Y56.6871
G01 X-26.2322 Y56.7185
G01 X-26.2657 Y56.7474
G01 X-26.3012 Y56.7739
G01 X-26.3324 Y56.7940
G01 X-26.3514 Y56.8049
G01 X-26.3786 Y56.8190
G01 X-26.4149 Y56.8353
G01 X-26.4598 Y56.8515
G01 X-26.5024 Y56.8633
G01 X-26.5459 Y56.8720
G01 X-26.5898 Y56.8774
G01 X-26.6193 Y56.8792
G01 X-26.6414 Y56.8797
G01 X-28.4986 Y56.8797
G01 X-28.5354 Y56.8785
G01 X-28.5647 Y56.8760
G01 X-28.5939 Y56.8720
G01 X-28.6160 Y56.8681
G01 X-28.6372 Y56.8634
G01 X-28.6657 Y56.8559
G01 X-28.7077 Y56.8420
G01 X-28.7485 Y56.8251
G01 X-28.7879 Y56.8053
G01 X-28.8134 Y56.7904
G01 X-28.8381 Y56.7744
G01 X-28.8736 Y56.7480
G01 X-28.9070 Y56.7192
G01 X-28.9382 Y56.6880
G01 X-28.9671 Y56.6545
G01 X-28.9849 Y56.6311
G01 X-29.0016 Y56.6068
G01 X-29.0243 Y56.5689
G01 X-29.0442 Y56.5294
G01 X-29.0611 Y56.4886
G01 X-29.0749 Y56.4467
G01 X-29.0824 Y56.4182
G01 X-29.0871 Y56.3969
G01 X-29.0934 Y56.3586
G01 X-29.1657 Y56.4549
G01 X-29.1936 Y56.4885
G01 X-29.2135 Y56.5097
G01 X-29.2343 Y56.5300
G01 X-29.2562 Y56.5492
G01 X-29.2830 Y56.5704
G01 X-29.3085 Y56.5884
G01 X-29.5942 Y56.7789
G01 X-29.6255 Y56.7983
G01 X-29.6644 Y56.8190
G01 X-29.7047 Y56.8369
G01 X-29.7462 Y56.8517
G01 X-29.7745 Y56.8599
G01 X-29.8099 Y56.8681
G01 X-29.8465 Y56.8742
G01 X-29.8904 Y56.8785
G01 X-29.9271 Y56.8797
G01 X-30.7916 Y56.8796
G01 X-30.8210 Y56.8785
G01 X-30.8503 Y56.8760
G01 X-30.8794 Y56.8720
G01 X-30.9227 Y56.8634
G01 X-30.9652 Y56.8517
G01 X-31.0067 Y56.8369
G01 X-31.0471 Y56.8190
G01 X-31.0890 Y56.7965
G01 X-31.1172 Y56.7789
G01 X-31.4029 Y56.5884
G01 X-31.4284 Y56.5704
G01 X-31.4440 Y56.5584
G01 X-31.4681 Y56.5382
G01 X-31.4877 Y56.5200
G01 X-31.5179 Y56.4885
G01 X-31.5367 Y56.4663
G01 X-31.6930 Y56.2587
G01 X-31.7134 Y56.2295
G01 X-31.7286 Y56.2054
G01 X-31.7510 Y56.1643
G01 X-31.7613 Y56.1422
G01 X-31.7748 Y56.1093
G01 X-31.9203 Y55.7211
G01 X-31.9342 Y55.6772
G01 X-31.9438 Y55.6376
G01 X-31.9475 Y55.6171
G01 X-31.9521 Y55.5842
G01 X-31.9546 Y55.5560
G01 X-31.9558 Y55.5253
G01 X-31.9559 Y55.1179
G01 X-32.0516 Y55.6282
G01 X-32.0617 Y55.6726
G01 X-32.0689 Y55.6976
G01 X-32.0795 Y55.7283
G01 X-32.2249 Y56.1159
G01 X-32.2418 Y56.1552
G01 X-32.2546 Y56.1806
G01 X-32.2760 Y56.2176
G01 X-32.2917 Y56.2413
G01 X-32.4515 Y56.4549
G01 X-32.4697 Y56.4775
G01 X-32.4992 Y56.5097
G01 X-32.5201 Y56.5300
G01 X-32.5419 Y56.5492
G01 X-32.5763 Y56.5759
G01 X-32.8861 Y56.7829
G01 X-32.9240 Y56.8055
G01 X-32.9634 Y56.8253
G01 X-33.0041 Y56.8422
G01 X-33.0460 Y56.8560
G01 X-33.0744 Y56.8634
G01 X-33.1177 Y56.8720
G01 X-33.1486 Y56.8762
G01 X-33.1761 Y56.8785
G01 X-33.2129 Y56.8797
G01 X-33.4986 Y56.8797
G01 X-33.5206 Y56.8792
G01 X-33.5500 Y56.8774
G01 X-33.5937 Y56.8720
G01 X-33.6370 Y56.8634
G01 X-33.6795 Y56.8517
G01 X-33.7210 Y56.8369
G01 X-33.7481 Y56.8253
G01 X-33.7745 Y56.8124
G01 X-33.8033 Y56.7965
G01 X-33.8315 Y56.7789
G01 X-34.1172 Y56.5884
G01 X-34.1468 Y56.5673
G01 X-34.1823 Y56.5382
G01 X-34.2123 Y56.5097
G01 X-34.2430 Y56.4759
G01 X-34.2644 Y56.4491
G01 X-34.4115 Y56.2529
G01 X-34.4364 Y56.2161
G01 X-34.4568 Y56.1806
G01 X-34.4756 Y56.1422
G01 X-34.4891 Y56.1093
G01 X-34.6319 Y55.7283
G01 X-34.6463 Y55.6851
G01 X-34.6534 Y55.6584
G01 X-34.6599 Y55.6282
G01 X-34.8027 Y54.8663
G01 X-34.8098 Y54.8173
G01 X-34.8120 Y54.7905
G01 X-34.8130 Y54.7557
G01 X-34.8130 Y53.8033
G01 X-34.8125 Y53.7825
G00 Z1.0000
G00 X-39.9553 Y52.2572
G01 F76.20
G01 Z-0.1500
G01 F150.00
G01 X-39.9536 Y52.2278
G01 X-39.9482 Y52.1839
G01 X-39.9395 Y52.1406
G01 X-39.9277 Y52.0980
G01 X-39.9115 Y52.0531
G01 X-39.8953 Y52.0169
G01 X-39.8740 Y51.9771
G01 X-39.8504 Y51.9398
G01 X-39.8241 Y51.9043
G01 X-39.7952 Y51.8709
G01 X-39.7639 Y51.8397
G01 X-39.7305 Y51.8108
G01 X-39.6950 Y51.7845
G01 X-39.6577 Y51.7609
G01 X-39.6187 Y51.7401
G01 X-39.5783 Y51.7222
G01 X-39.5367 Y51.7074
G01 X-39.4941 Y51.6956
G01 X-39.4508 Y51.6870
G01 X-39.4069 Y51.6816
G01 X-39.3775 Y51.6798
G01 X-39.3556 Y51.6794
G01 X-39.3186 Y51.6806
G01 X-39.2747 Y51.6849
G01 X-39.2382 Y51.6910
G01 X-39.2025 Y51.6993
G01 X-39.1602 Y51.7122
G01 X-39.1190 Y51.7281
G01 X-39.0791 Y51.7470
G01 X-39.0407 Y51.7688
G01 X-39.0039 Y51.7933
G01 X-38.9691 Y51.8205
G01 X-38.9364 Y51.8502
G01 X-38.9060 Y51.8822
G01 X-38.8780 Y51.9164
G01 X-38.8607 Y51.9403
G01 X-38.8371 Y51.9776
G01 X-38.8163 Y52.0166
G01 X-38.8040 Y52.0433
G01 X-38.7882 Y52.0846
G01 X-38.7793 Y52.1126
G01 X-38.3557 Y53.8050
G01 X-37.9321 Y52.1126
G01 X-37.9233 Y52.0846
G01 X-37.9074 Y52.0433
G01 X-37.8951 Y52.0166
G01 X-37.8816 Y51.9904
G01 X-37.8668 Y51.9650
G01 X-37.8422 Y51.9282
G01 X-37.8244 Y51.9048
G01 X-37.8055 Y51.8822
G01 X-37.7802 Y51.8552
G01 X-37.7534 Y51.8301
G01 X-37.7193 Y51.8021
G01 X-37.6954 Y51.7848
G01 X-37.6645 Y51.7649
G01 X-37.6323 Y51.7470
G01 X-37.5924 Y51.7281
G01 X-37.5651 Y51.7171
G01 X-37.5231 Y51.7032
G01 X-37.4946 Y51.6957
G01 X-37.4513 Y51.6871
G01 X-37.4203 Y51.6829
G01 X-37.3781 Y51.6798
G01 X-37.3339 Y51.6798
G01 X-37.3045 Y51.6816
G01 X-37.2607 Y51.6870
G01 X-37.2173 Y51.6956
G01 X-37.1888 Y51.7031
G01 X-37.1469 Y51.7169
G01 X-37.1061 Y51.7338
G01 X-37.0796 Y51.7467
G01 X-37.0411 Y51.7685
G01 X-37.0044 Y51.7930
G01 X-36.9809 Y51.8108
G01 X-36.9475 Y51.8397
G01 X-36.9264 Y51.8602
G01 X-36.8955 Y51.8944
G01 X-36.8747 Y51.9206
G01 X-36.8528 Y51.9520
G01 X-36.8301 Y51.9899
G01 X-36.8161 Y52.0169
G01 X-36.7999 Y52.0531
G01 X-36.7837 Y52.0980
G01 X-36.7719 Y52.1406
G01 X-36.7633 Y52.1839
G01 X-36.7578 Y52.2278
G01 X-36.7557 Y52.2719
G01 X-36.7567 Y52.3160
G01 X-36.7610 Y52.3600
G01 X-36.7686 Y52.4035
G01 X-37.7793 Y56.4464
G01 X-37.7882 Y56.4745
G01 X-37.8041 Y56.5157
G01 X-37.8163 Y56.5425
G01 X-37.8299 Y56.5687
G01 X-37.8447 Y56.5942
G01 X-37.8608 Y56.6189
G01 X-37.8780 Y56.6427
G01 X-37.9060 Y56.6769
G01 X-37.9313 Y56.7038
G01 X-37.9581 Y56.7290
G01 X-37.9806 Y56.7480
G01 X-38.0041 Y56.7658
G01 X-38.0284 Y56.7825
G01 X-38.0663 Y56.8052
G01 X-38.0932 Y56.8192
G01 X-38.1294 Y56.8354
G01 X-38.1604 Y56.8470
G01 X-38.1885 Y56.8559
G01 X-38.2170 Y56.8634
G01 X-38.2383 Y56.8681
G01 X-38.2604 Y56.8720
G01 X-38.2913 Y56.8762
G01 X-38.3189 Y56.8785
G01 X-38.3557 Y56.8797
G01 X-38.3925 Y56.8785
G01 X-38.4219 Y56.8760
G01 X-38.4511 Y56.8720
G01 X-38.4731 Y56.8681
G01 X-38.5087 Y56.8598
G01 X-38.5370 Y56.8516
G01 X-38.5649 Y56.8420
G01 X-38.5922 Y56.8311
G01 X-38.6183 Y56.8192
G01 X-38.6452 Y56.8052
G01 X-38.6644 Y56.7942
G01 X-38.6953 Y56.7743
G01 X-38.7146 Y56.7606
G01 X-38.7422 Y56.7386
G01 X-38.7643 Y56.7191
G01 X-38.7853 Y56.6985
G01 X-38.8054 Y56.6769
G01 X-38.8244 Y56.6544
G01 X-38.8422 Y56.6309
G01 X-38.8588 Y56.6066
G01 X-38.8743 Y56.5815
G01 X-38.8885 Y56.5557
G01 X-38.9014 Y56.5292
G01 X-38.9130 Y56.5021
G01 X-38.9279 Y56.4605
G01 X-38.9379 Y56.4251
G01 X-39.9379 Y52.4251
G01 X-39.9457 Y52.3891
G01 X-39.9524 Y52.3437
G01 X-39.9554 Y52.3013
G01 X-39.9559 Y52.2794
G01 X-39.9553 Y52.2572
G00 Z1.0000
G00 X-42.2410 Y54.1612
G01 F76.20
G01 Z-0.1500
G01 F150.00
G01 X-42.2375 Y54.1152
G01 X-42.2332 Y54.0848
G01 X-42.2295 Y54.0644
G01 X-42.2199 Y54.0248
G01 X-42.2110 Y53.9953
G01 X-42.2034 Y53.9736
G01 X-42.0525 Y53.5725
G01 X-42.0365 Y53.5373
G01 X-42.0209 Y53.5079
G01 X-41.9983 Y53.4711
G01 X-41.9781 Y53.4425
G01 X-41.9641 Y53.4247
G01 X-41.9454 Y53.4028
G01 X-41.9155 Y53.3717
G01 X-41.8833 Y53.3428
G01 X-41.8569 Y53.3219
G01 X-41.8374 Y53.3080
G01 X-41.5272 Y53.1016
G01 X-41.5017 Y53.0869
G01 X-41.4623 Y53.0671
G01 X-41.4353 Y53.0555
G01 X-41.4077 Y53.0453
G01 X-41.3797 Y53.0364
G01 X-41.3513 Y53.0289
G01 X-41.3080 Y53.0203
G01 X-41.2643 Y53.0150
G01 X-41.2202 Y53.0128
G01 X-40.6341 Y53.0128
G01 X-40.6047 Y53.0139
G01 X-40.5754 Y53.0164
G01 X-40.5463 Y53.0203
G01 X-40.5030 Y53.0289
G01 X-40.4605 Y53.0407
G01 X-40.4190 Y53.0555
G01 X-40.3786 Y53.0733
G01 X-40.3525 Y53.0869
G01 X-40.3271 Y53.1016
G01 X-40.0047 Y53.3166
G01 X-39.9812 Y53.3344
G01 X-39.9587 Y53.3534
G01 X-39.9266 Y53.3838
G01 X-39.8969 Y53.4165
G01 X-39.8785 Y53.4395
G01 X-39.8612 Y53.4633
G01 X-39.8412 Y53.4944
G01 X-39.8233 Y53.5264
G01 X-39.8044 Y53.5663
G01 X-39.7885 Y53.6075
G01 X-39.7795 Y53.6356
G01 X-39.7720 Y53.6641
G01 X-39.7633 Y53.7074
G01 X-39.7591 Y53.7384
G01 X-39.7560 Y53.7806
G01 X-39.7556 Y53.8101
G01 X-39.7578 Y53.8542
G01 X-39.7631 Y53.8980
G01 X-39.7685 Y53.9270
G01 X-39.7792 Y53.9699
G01 X-39.7880 Y53.9980
G01 X-39.8039 Y54.0392
G01 X-39.8161 Y54.0660
G01 X-39.8369 Y54.1050
G01 X-39.8524 Y54.1301
G01 X-39.8744 Y54.1619
G01 X-39.8961 Y54.1892
G01 X-39.9156 Y54.2113
G01 X-39.9468 Y54.2426
G01 X-39.9703 Y54.2634
G01 X-40.0037 Y54.2893
G01 X-40.0404 Y54.3139
G01 X-40.0658 Y54.3288
G01 X-40.1052 Y54.3487
G01 X-40.1452 Y54.3653
G01 X-40.0228 Y54.4468
G01 X-39.9974 Y54.4647
G01 X-39.9582 Y54.4966
G01 X-39.9388 Y54.5145
G01 X-39.9186 Y54.5350
G01 X-39.8994 Y54.5565
G01 X-39.8812 Y54.5788
G01 X-39.8641 Y54.6020
G01 X-39.8482 Y54.6260
G01 X-39.8334 Y54.6507
G01 X-39.8177 Y54.6802
G01 X-39.8075 Y54.7022
G01 X-39.7964 Y54.7288
G01 X-39.6483 Y55.1236
G01 X-39.6343 Y55.1676
G01 X-39.6238 Y55.2125
G01 X-39.6164 Y55.2606
G01 X-39.6140 Y55.2887
G01 X-39.6128 Y55.3195
G01 X-39.6127 Y55.7081
G01 X-39.6140 Y55.7465
G01 X-39.6187 Y55.7924
G01 X-39.6269 Y55.8378
G01 X-39.6390 Y55.8837
G01 X-39.6509 Y55.9188
G01 X-39.7964 Y56.3065
G01 X-39.8135 Y56.3462
G01 X-39.8264 Y56.3719
G01 X-39.8419 Y56.3991
G01 X-39.8560 Y56.4213
G01 X-39.8762 Y56.4499
G01 X-39.8994 Y56.4788
G01 X-39.9186 Y56.5002
G01 X-39.9388 Y56.5207
G01 X-39.9710 Y56.5496
G01 X-39.9974 Y56.5705
G01 X-40.0169 Y56.5843
G01 X-40.3085 Y56.7789
G01 X-40.3271 Y56.7907
G01 X-40.3525 Y56.8055
G01 X-40.3786 Y56.8190
G01 X-40.4054 Y56.8313
G01 X-40.4327 Y56.8422
G01 X-40.4605 Y56.8517
G01 X-40.4887 Y56.8599
G01 X-40.5241 Y56.8681
G01 X-40.5608 Y56.8742
G01 X-40.5900 Y56.8774
G01 X-40.6194 Y56.8792
G01 X-40.6414 Y56.8797
G01 X-41.3631 Y56.8796
G01 X-41.3924 Y56.8785
G01 X-41.4363 Y56.8742
G01 X-41.4730 Y56.8681
G01 X-41.4986 Y56.8623
G01 X-41.5240 Y56.8681
G01 X-41.5461 Y56.8720
G01 X-41.5770 Y56.8762
G01 X-41.6046 Y56.8785
G01 X-41.6414 Y56.8797
G01 X-41.6635 Y56.8792
G01 X-41.7076 Y56.8760
G01 X-41.7368 Y56.8720
G01 X-41.7588 Y56.8681
G01 X-41.7801 Y56.8634
G01 X-41.8086 Y56.8559
G01 X-41.8505 Y56.8420
G01 X-41.8779 Y56.8311
G01 X-41.9039 Y56.8192
G01 X-41.9436 Y56.7980
G01 X-41.9687 Y56.7825
G01 X-41.9930 Y56.7659
G01 X-42.0164 Y56.7480
G01 X-42.0389 Y56.7291
G01 X-42.0709 Y56.6986
G01 X-42.1018 Y56.6645
G01 X-42.1225 Y56.6383
G01 X-42.1363 Y56.6190
G01 X-42.1599 Y56.5817
G01 X-42.1741 Y56.5559
G01 X-42.1870 Y56.5294
G01 X-42.1973 Y56.5058
G01 X-42.2089 Y56.4747
G01 X-42.2178 Y56.4467
G01 X-42.2253 Y56.4182
G01 X-42.2339 Y56.3749
G01 X-42.2381 Y56.3439
G01 X-42.2404 Y56.3163
G01 X-42.2416 Y56.2795
G01 X-42.2416 Y54.1843
G01 X-42.2410 Y54.1612
G00 Z1.0000
G00 X-41.0413 Y55.6794
G01 F76.20
G01 Z-0.1500
G01 F150.00
G01 X-41.0413 Y55.3559
G01 X-40.8430 Y55.3559
G01 X-40.8130 Y55.4360
G01 X-40.8130 Y55.5993
G01 X-40.8430 Y55.6794
G01 X-41.0413 Y55.6794
G00 Z1.0000
G00 X-44.9553 Y56.0676
G01 F76.20
G01 Z-0.1500
G01 F150.00
G01 X-44.9537 Y56.0382
G01 X-44.9483 Y55.9943
G01 X-44.9397 Y55.9510
G01 X-44.9280 Y55.9084
G01 X-44.9131 Y55.8668
G01 X-44.8953 Y55.8264
G01 X-44.8745 Y55.7874
G01 X-44.8591 Y55.7623
G01 X-44.8370 Y55.7305
G01 X-44.8057 Y55.6920
G01 X-44.7803 Y55.6649
G01 X-44.7646 Y55.6498
G01 X-44.7426 Y55.6303
G01 X-44.7078 Y55.6031
G01 X-44.6711 Y55.5785
G01 X-44.6456 Y55.5636
G01 X-44.6062 Y55.5437
G01 X-44.5654 Y55.5268
G01 X-44.5235 Y55.5129
G01 X-44.4806 Y55.5021
G01 X-44.4371 Y55.4945
G01 X-44.3931 Y55.4901
G01 X-44.3560 Y55.4889
G01 X-44.3195 Y55.4900
G01 X-44.2756 Y55.4943
G01 X-44.2465 Y55.4990
G01 X-44.2177 Y55.5050
G01 X-44.1751 Y55.5168
G01 X-44.1335 Y55.5316
G01 X-44.0931 Y55.5495
G01 X-44.0541 Y55.5703
G01 X-44.0290 Y55.5857
G01 X-43.8883 Y55.6794
G01 X-43.6803 Y55.6794
G01 X-43.6313 Y55.6467
G01 X-43.6017 Y55.6073
G01 X-43.5273 Y55.4088
G01 X-43.5273 Y54.4836
G01 X-43.6017 Y54.2851
G01 X-43.6313 Y54.2457
G01 X-43.6803 Y54.2130
G01 X-43.8883 Y54.2130
G01 X-44.0414 Y54.3146
G01 X-44.0799 Y54.3363
G01 X-44.1064 Y54.3492
G01 X-44.1335 Y54.3608
G01 X-44.1611 Y54.3710
G01 X-44.1892 Y54.3799
G01 X-44.2177 Y54.3873
G01 X-44.2386 Y54.3920
G01 X-44.2610 Y54.3959
G01 X-44.2919 Y54.4001
G01 X-44.3195 Y54.4023
G01 X-44.3560 Y54.4035
G01 X-44.3784 Y54.4030
G01 X-44.4078 Y54.4012
G01 X-44.4517 Y54.3957
G01 X-44.4950 Y54.3871
G01 X-44.5375 Y54.3752
G01 X-44.5823 Y54.3591
G01 X-44.6185 Y54.3429
G01 X-44.6584 Y54.3215
G01 X-44.6957 Y54.2978
G01 X-44.7148 Y54.2842
G01 X-44.7426 Y54.2621
G01 X-44.7646 Y54.2426
G01 X-44.7958 Y54.2113
G01 X-44.8153 Y54.1892
G01 X-44.8370 Y54.1619
G01 X-44.8509 Y54.1423
G01 X-44.8669 Y54.1176
G01 X-44.8818 Y54.0921
G01 X-44.8953 Y54.0660
G01 X-44.9075 Y54.0392
G01 X-44.9184 Y54.0118
G01 X-44.9280 Y53.9840
G01 X-44.9362 Y53.9557
G01 X-44.9443 Y53.9204
G01 X-44.9483 Y53.8980
G01 X-44.9524 Y53.8672
G01 X-44.9547 Y53.8395
G01 X-44.9559 Y53.8030
G01 X-44.9554 Y53.7806
G01 X-44.9536 Y53.7512
G01 X-44.9503 Y53.7219
G01 X-44.9442 Y53.6856
G01 X-44.9394 Y53.6641
G01 X-44.9319 Y53.6356
G01 X-44.9230 Y53.6075
G01 X-44.9114 Y53.5768
G01 X-44.8952 Y53.5406
G01 X-44.8811 Y53.5134
G01 X-44.8702 Y53.4944
G01 X-44.8502 Y53.4633
G01 X-44.8329 Y53.4395
G01 X-44.8049 Y53.4053
G01 X-44.7799 Y53.3787
G01 X-44.7528 Y53.3534
G01 X-44.7143 Y53.3221
G01 X-44.6886 Y53.3040
G01 X-44.4029 Y53.1135
G01 X-44.3717 Y53.0941
G01 X-44.3328 Y53.0733
G01 X-44.3060 Y53.0611
G01 X-44.2787 Y53.0502
G01 X-44.2509 Y53.0407
G01 X-44.2084 Y53.0289
G01 X-44.1797 Y53.0229
G01 X-44.1506 Y53.0182
G01 X-44.1067 Y53.0139
G01 X-44.0700 Y53.0127
G01 X-43.4912 Y53.0128
G01 X-43.4618 Y53.0139
G01 X-43.4325 Y53.0164
G01 X-43.4034 Y53.0203
G01 X-43.3602 Y53.0289
G01 X-43.3176 Y53.0407
G01 X-43.2761 Y53.0555
G01 X-43.2358 Y53.0733
G01 X-43.1938 Y53.0959
G01 X-43.1657 Y53.1135
G01 X-42.8800 Y53.3040
G01 X-42.8504 Y53.3251
G01 X-42.8276 Y53.3432
G01 X-42.7952 Y53.3724
G01 X-42.7650 Y53.4039
G01 X-42.7462 Y53.4261
G01 X-42.5774 Y53.6511
G01 X-42.5543 Y53.6870
G01 X-42.5338 Y53.7244
G01 X-42.5216 Y53.7502
G01 X-42.5081 Y53.7831
G01 X-42.3576 Y54.1858
G01 X-42.3447 Y54.2301
G01 X-42.3381 Y54.2601
G01 X-42.3307 Y54.3082
G01 X-42.3275 Y54.3517
G01 X-42.3270 Y55.5176
G01 X-42.3275 Y55.5407
G01 X-42.3295 Y55.5714
G01 X-42.3330 Y55.6019
G01 X-42.3391 Y55.6376
G01 X-42.3486 Y55.6772
G01 X-42.3576 Y55.7066
G01 X-42.3652 Y55.7283
G01 X-42.5081 Y56.1093
G01 X-42.5216 Y56.1422
G01 X-42.5319 Y56.1643
G01 X-42.5543 Y56.2054
G01 X-42.5774 Y56.2413
G01 X-42.7327 Y56.4491
G01 X-42.7462 Y56.4663
G01 X-42.7650 Y56.4885
G01 X-42.7849 Y56.5097
G01 X-42.8058 Y56.5300
G01 X-42.8389 Y56.5584
G01 X-42.8545 Y56.5704
G01 X-42.8800 Y56.5884
G01 X-43.1657 Y56.7789
G01 X-43.1969 Y56.7983
G01 X-43.2358 Y56.8190
G01 X-43.2625 Y56.8313
G01 X-43.3037 Y56.8471
G01 X-43.3317 Y56.8560
G01 X-43.3602 Y56.8634
G01 X-43.3813 Y56.8681
G01 X-43.4179 Y56.8742
G01 X-43.4618 Y56.8785
G01 X-43.4912 Y56.8796
G01 X-44.0700 Y56.8797
G01 X-44.0921 Y56.8792
G01 X-44.1214 Y56.8774
G01 X-44.1652 Y56.8720
G01 X-44.1873 Y56.8681
G01 X-44.2227 Y56.8599
G01 X-44.2509 Y56.8517
G01 X-44.2787 Y56.8422
G01 X-44.3060 Y56.8313
G01 X-44.3328 Y56.8190
G01 X-44.3748 Y56.7965
G01 X-44.4029 Y56.7789
G01 X-44.6947 Y56.5842
G01 X-44.7143 Y56.5703
G01 X-44.7416 Y56.5486
G01 X-44.7637 Y56.5291
G01 X-44.7799 Y56.5136
G01 X-44.8049 Y56.4870
G01 X-44.8238 Y56.4645
G01 X-44.8417 Y56.4411
G01 X-44.8584 Y56.4168
G01 X-44.8702 Y56.3980
G01 X-44.8881 Y56.3660
G01 X-44.9010 Y56.3395
G01 X-44.9127 Y56.3125
G01 X-44.9230 Y56.2849
G01 X-44.9358 Y56.2426
G01 X-44.9442 Y56.2067
G01 X-44.9481 Y56.1850
G01 X-44.9523 Y56.1540
G01 X-44.9547 Y56.1265
G01 X-44.9559 Y56.0894
G01 X-44.9553 Y56.0676
G00 Z1.0000
G00 X-59.7488 Y53.1534
G01 F76.20
G01 Z-0.1500
G01 F150.00
G01 X-59.7453 Y53.0995
G01 X-59.7369 Y53.0313
G01 X-59.7288 Y52.9851
G01 X-59.7187 Y52.9399
G01 X-59.7004 Y52.8737
G01 X-59.6831 Y52.8225
G01 X-59.6676 Y52.7824
G01 X-59.6415 Y52.7238
G01 X-59.6235 Y52.6880
G01 X-59.5972 Y52.6408
G01 X-59.5605 Y52.5828
G01 X-59.5326 Y52.5434
G01 X-59.5049 Y52.5079
G01 X-59.4600 Y52.4559
G01 X-59.4278 Y52.4222
G01 X-59.3941 Y52.3900
G01 X-59.3421 Y52.3451
G01 X-59.3066 Y52.3174
G01 X-59.2672 Y52.2895
G01 X-59.2092 Y52.2528
G01 X-59.1620 Y52.2265
G01 X-59.1262 Y52.2085
G01 X-59.0676 Y52.1824
G01 X-59.0136 Y52.1619
G01 X-58.9622 Y52.1453
G01 X-58.9244 Y52.1348
G01 X-58.8574 Y52.1198
G01 X-58.8041 Y52.1109
G01 X-58.7634 Y52.1059
G01 X-58.6966 Y52.1011
G01 X-58.6500 Y52.1000
G01 X-58.6034 Y52.1011
G01 X-58.5349 Y52.1061
G01 X-58.4813 Y52.1131
G01 X-58.4426 Y52.1198
G01 X-58.3756 Y52.1348
G01 X-58.3237 Y52.1496
G01 X-58.2725 Y52.1669
G01 X-58.2324 Y52.1824
G01 X-58.1738 Y52.2085
G01 X-58.1380 Y52.2265
G01 X-58.0908 Y52.2528
G01 X-58.0328 Y52.2895
G01 X-57.9934 Y52.3174
G01 X-57.9579 Y52.3451
G01 X-57.9168 Y52.3801
G01 X-57.8956 Y52.3997
G01 X-57.8501 Y52.3997
G01 X-54.1503 Y48.6999
G01 X-54.1503 Y40.4300
G01 X-54.2500 Y40.4300
G01 X-54.3162 Y40.4281
G01 X-54.3749 Y40.4234
G01 X-54.4333 Y40.4158
G01 X-54.4844 Y40.4069
G01 X-54.5344 Y40.3957
G01 X-54.5913 Y40.3804
G01 X-54.6473 Y40.3622
G01 X-54.7058 Y40.3400
G01 X-54.7690 Y40.3119
G01 X-54.8221 Y40.2848
G01 X-54.8732 Y40.2554
G01 X-54.9228 Y40.2236
G01 X-54.9589 Y40.1982
G01 X-55.0169 Y40.1529
G01 X-55.0613 Y40.1141
G01 X-55.0985 Y40.0785
G01 X-55.1440 Y40.0304
G01 X-55.1822 Y39.9855
G01 X-55.2129 Y39.9461
G01 X-55.2436 Y39.9028
G01 X-55.2762 Y39.8520
G01 X-55.3117 Y39.7891
G01 X-55.3319 Y39.7490
G01 X-55.3558 Y39.6960
G01 X-55.3773 Y39.6412
G01 X-55.3961 Y39.5854
G01 X-55.4122 Y39.5287
G01 X-55.4269 Y39.4644
G01 X-55.4358 Y39.4133
G01 X-55.4436 Y39.3532
G01 X-55.4488 Y39.2815
G01 X-55.4500 Y39.2300
G01 X-55.4488 Y39.1785
G01 X-55.4449 Y39.1197
G01 X-55.4358 Y39.0467
G01 X-55.4254 Y38.9887
G01 X-55.4122 Y38.9313
G01 X-55.4004 Y38.8887
G01 X-55.3773 Y38.8188
G01 X-55.3600 Y38.7742
G01 X-55.3379 Y38.7236
G01 X-55.3048 Y38.6579
G01 X-55.2754 Y38.6068
G01 X-55.2518 Y38.5695
G01 X-55.2129 Y38.5139
G01 X-55.1729 Y38.4631
G01 X-55.1341 Y38.4187
G01 X-55.1037 Y38.3867
G01 X-55.0504 Y38.3360
G01 X-55.0155 Y38.3059
G01 X-54.9707 Y38.2706
G01 X-54.9105 Y38.2282
G01 X-54.8606 Y38.1970
G01 X-54.8091 Y38.1683
G01 X-54.7690 Y38.1481
G01 X-54.7058 Y38.1200
G01 X-54.6612 Y38.1027
G01 X-54.6054 Y38.0839
G01 X-54.5344 Y38.0643
G01 X-54.4844 Y38.0531
G01 X-54.4188 Y38.0420
G01 X-54.3732 Y38.0364
G01 X-54.3162 Y38.0319
G01 X-54.2574 Y38.0301
G01 X-52.4500 Y38.0300
G01 X-52.3985 Y38.0312
G01 X-52.3397 Y38.0351
G01 X-52.2667 Y38.0442
G01 X-52.2156 Y38.0531
G01 X-52.1513 Y38.0678
G01 X-52.0946 Y38.0839
G01 X-52.0388 Y38.1027
G01 X-51.9840 Y38.1242
G01 X-51.9310 Y38.1481
G01 X-51.8909 Y38.1683
G01 X-51.8268 Y38.2046
G01 X-51.7772 Y38.2364
G01 X-51.7339 Y38.2671
G01 X-51.6831 Y38.3071
G01 X-51.6387 Y38.3459
G01 X-51.6067 Y38.3763
G01 X-51.5560 Y38.4296
G01 X-51.5259 Y38.4645
G01 X-51.4906 Y38.5093
G01 X-51.4482 Y38.5695
G01 X-51.4170 Y38.6194
G01 X-51.3883 Y38.6709
G01 X-51.3681 Y38.7110
G01 X-51.3400 Y38.7742
G01 X-51.3227 Y38.8188
G01 X-51.3039 Y38.8746
G01 X-51.2843 Y38.9456
G01 X-51.2731 Y38.9956
G01 X-51.2642 Y39.0467
G01 X-51.2551 Y39.1197
G01 X-51.2512 Y39.1785
G01 X-51.2501 Y39.2226
G01 X-51.2519 Y39.2962
G01 X-51.2566 Y39.3549
G01 X-51.2642 Y39.4133
G01 X-51.2731 Y39.4644
G01 X-51.2878 Y39.5287
G01 X-51.3039 Y39.5854
G01 X-51.3227 Y39.6412
G01 X-51.3400 Y39.6858
G01 X-51.3681 Y39.7490
G01 X-51.3952 Y39.8021
G01 X-51.4246 Y39.8532
G01 X-51.4564 Y39.9028
G01 X-51.4871 Y39.9461
G01 X-51.5271 Y39.9969
G01 X-51.5659 Y40.0413
G01 X-51.6015 Y40.0785
G01 X-51.6496 Y40.1240
G01 X-51.6845 Y40.1541
G01 X-51.7339 Y40.1929
G01 X-51.7895 Y40.2318
G01 X-51.8394 Y40.2630
G01 X-51.8909 Y40.2917
G01 X-51.9436 Y40.3179
G01 X-51.9942 Y40.3400
G01 X-52.0527 Y40.3622
G01 X-52.1087 Y40.3804
G01 X-52.1656 Y40.3957
G01 X-52.2156 Y40.4069
G01 X-52.2812 Y40.4180
G01 X-52.3397 Y40.4249
G01 X-52.3985 Y40.4288
G01 X-52.4500 Y40.4300
G01 X-52.5497 Y40.4300
G01 X-52.5497 Y49.0314
G01 X-52.5512 Y49.0780
G01 X-52.5544 Y49.1171
G01 X-52.5596 Y49.1561
G01 X-52.5638 Y49.1803
G01 X-52.5720 Y49.2187
G01 X-52.5864 Y49.2707
G01 X-52.5991 Y49.3079
G01 X-52.6136 Y49.3444
G01 X-52.6294 Y49.3794
G01 X-52.6409 Y49.4021
G01 X-52.6675 Y49.4490
G01 X-52.6888 Y49.4820
G01 X-52.7082 Y49.5094
G01 X-52.7268 Y49.5333
G01 X-52.7522 Y49.5633
G01 X-52.7841 Y49.5972
G01 X-56.9528 Y53.7659
G01 X-56.9867 Y53.7978
G01 X-57.0067 Y53.8151
G01 X-57.0406 Y53.8418
G01 X-57.0680 Y53.8612
G01 X-57.1022 Y53.8833
G01 X-57.1479 Y53.9091
G01 X-57.1832 Y53.9265
G01 X-57.2158 Y53.9407
G01 X-57.2421 Y53.9509
G01 X-57.2793 Y53.9636
G01 X-57.3171 Y53.9744
G01 X-57.3622 Y53.9848
G01 X-57.3939 Y53.9904
G01 X-57.4329 Y53.9956
G01 X-57.4720 Y53.9988
G01 X-57.5186 Y54.0003
G01 X-57.8956 Y54.0003
G01 X-57.9168 Y54.0199
G01 X-57.9479 Y54.0468
G01 X-58.0007 Y54.0878
G01 X-58.0450 Y54.1186
G01 X-58.0794 Y54.1404
G01 X-58.1380 Y54.1735
G01 X-58.1738 Y54.1915
G01 X-58.2223 Y54.2134
G01 X-58.2864 Y54.2381
G01 X-58.3378 Y54.2547
G01 X-58.3756 Y54.2652
G01 X-58.4351 Y54.2788
G01 X-58.4959 Y54.2891
G01 X-58.5495 Y54.2953
G01 X-58.6034 Y54.2989
G01 X-58.6500 Y54.3000
G01 X-58.6966 Y54.2989
G01 X-58.7505 Y54.2953
G01 X-58.8187 Y54.2869
G01 X-58.8649 Y54.2788
G01 X-58.9101 Y54.2687
G01 X-58.9622 Y54.2547
G01 X-59.0275 Y54.2331
G01 X-59.0777 Y54.2134
G01 X-59.1262 Y54.1915
G01 X-59.1620 Y54.1735
G01 X-59.2092 Y54.1472
G01 X-59.2550 Y54.1186
G01 X-59.2993 Y54.0878
G01 X-59.3535 Y54.0456
G01 X-59.3941 Y54.0100
G01 X-59.4278 Y53.9778
G01 X-59.4600 Y53.9441
G01 X-59.4968 Y53.9021
G01 X-59.5378 Y53.8493
G01 X-59.5686 Y53.8050
G01 X-59.5904 Y53.7706
G01 X-59.6166 Y53.7250
G01 X-59.6415 Y53.6762
G01 X-59.6634 Y53.6277
G01 X-59.6831 Y53.5775
G01 X-59.7047 Y53.5122
G01 X-59.7187 Y53.4601
G01 X-59.7288 Y53.4149
G01 X-59.7369 Y53.3687
G01 X-59.7439 Y53.3151
G01 X-59.7489 Y53.2466
G01 X-59.7500 Y53.2000
G01 X-59.7488 Y53.1534
G00 Z1.0000
G00 X-64.7087 Y49.3385
G01 F76.20
G01 Z-0.1500
G01 F150.00
G01 X-64.7034 Y49.2651
G01 X-64.6958 Y49.2067
G01 X-64.6854 Y49.1487
G01 X-64.6722 Y49.0913
G01 X-64.6561 Y49.0346
G01 X-64.6373 Y48.9788
G01 X-64.6158 Y48.9240
G01 X-64.5919 Y48.8710
G01 X-64.5648 Y48.8179
G01 X-64.5354 Y48.7668
G01 X-64.5036 Y48.7172
G01 X-64.4729 Y48.6739
G01 X-64.4329 Y48.6231
G01 X-64.3941 Y48.5787
G01 X-64.3585 Y48.5415
G01 X-64.3104 Y48.4960
G01 X-64.2655 Y48.4578
G01 X-64.2261 Y48.4271
G01 X-64.1705 Y48.3882
G01 X-64.1206 Y48.3570
G01 X-64.0691 Y48.3283
G01 X-64.0297 Y48.3084
G01 X-63.9658 Y48.2800
G01 X-63.9212 Y48.2627
G01 X-63.8654 Y48.2439
G01 X-63.7944 Y48.2243
G01 X-63.7444 Y48.2131
G01 X-63.6788 Y48.2020
G01 X-63.6203 Y48.1951
G01 X-63.5615 Y48.1912
G01 X-63.5100 Y48.1900
G01 X-63.4436 Y48.1919
G01 X-59.4503 Y44.1985
G01 X-59.4503 Y38.7144
G01 X-59.4699 Y38.6932
G01 X-59.4968 Y38.6621
G01 X-59.5326 Y38.6166
G01 X-59.5605 Y38.5772
G01 X-59.5904 Y38.5306
G01 X-59.6166 Y38.4850
G01 X-59.6415 Y38.4362
G01 X-59.6634 Y38.3877
G01 X-59.6831 Y38.3375
G01 X-59.7004 Y38.2863
G01 X-59.7152 Y38.2344
G01 X-59.7288 Y38.1749
G01 X-59.7369 Y38.1287
G01 X-59.7441 Y38.0734
G01 X-59.7482 Y38.0213
G01 X-59.7500 Y37.9600
G01 X-59.7489 Y37.9134
G01 X-59.7453 Y37.8595
G01 X-59.7369 Y37.7913
G01 X-59.7288 Y37.7451
G01 X-59.7152 Y37.6856
G01 X-59.7004 Y37.6337
G01 X-59.6881 Y37.5964
G01 X-59.6676 Y37.5424
G01 X-59.6415 Y37.4838
G01 X-59.6166 Y37.4350
G01 X-59.5896 Y37.3882
G01 X-59.5605 Y37.3428
G01 X-59.5378 Y37.3107
G01 X-59.5049 Y37.2679
G01 X-59.4699 Y37.2268
G01 X-59.4278 Y37.1822
G01 X-59.3832 Y37.1401
G01 X-59.3521 Y37.1132
G01 X-59.3111 Y37.0809
G01 X-59.2672 Y37.0495
G01 X-59.2092 Y37.0128
G01 X-59.1620 Y36.9865
G01 X-59.1262 Y36.9685
G01 X-59.0676 Y36.9424
G01 X-59.0275 Y36.9269
G01 X-58.9763 Y36.9096
G01 X-58.9101 Y36.8913
G01 X-58.8649 Y36.8812
G01 X-58.8187 Y36.8731
G01 X-58.7505 Y36.8647
G01 X-58.7113 Y36.8618
G01 X-58.6824 Y36.8607
G01 X-58.3859 Y36.5641
G01 X-58.3628 Y36.5421
G01 X-58.3319 Y36.5149
G01 X-58.3026 Y36.4917
G01 X-58.2584 Y36.4606
G01 X-58.2365 Y36.4467
G01 X-58.2037 Y36.4278
G01 X-58.1680 Y36.4094
G01 X-58.1228 Y36.3893
G01 X-58.0826 Y36.3741
G01 X-58.0452 Y36.3621
G01 X-58.0216 Y36.3556
G01 X-57.9764 Y36.3452
G01 X-57.9301 Y36.3374
G01 X-57.9040 Y36.3342
G01 X-57.8666 Y36.3312
G01 X-57.8200 Y36.3297
G01 X-45.2603 Y36.3297
G01 X-45.2603 Y10.9865
G01 X-46.6965 Y9.5503
G01 X-49.5359 Y9.5503
G01 X-49.5815 Y9.5985
G01 X-49.6187 Y9.6341
G01 X-49.6645 Y9.6741
G01 X-49.7139 Y9.7129
G01 X-49.7572 Y9.7436
G01 X-49.8080 Y9.7762
G01 X-49.8579 Y9.8048
G01 X-49.9110 Y9.8319
G01 X-49.9742 Y9.8600
G01 X-50.0188 Y9.8773
G01 X-50.0746 Y9.8961
G01 X-50.1313 Y9.9122
G01 X-50.1956 Y9.9269
G01 X-50.2467 Y9.9358
G01 X-50.3068 Y9.9436
G01 X-50.3638 Y9.9481
G01 X-50.4374 Y9.9499
G01 X-50.4962 Y9.9481
G01 X-50.5403 Y9.9449
G01 X-50.6133 Y9.9358
G01 X-50.6644 Y9.9269
G01 X-50.7144 Y9.9157
G01 X-50.7854 Y9.8961
G01 X-50.8412 Y9.8773
G01 X-50.8858 Y9.8600
G01 X-50.9364 Y9.8379
G01 X-50.9891 Y9.8117
G01 X-51.0532 Y9.7754
G01 X-51.1028 Y9.7436
G01 X-51.1389 Y9.7182
G01 X-51.1969 Y9.6729
G01 X-51.2413 Y9.6341
G01 X-51.2733 Y9.6037
G01 X-51.3141 Y9.5613
G01 X-51.3622 Y9.5055
G01 X-51.3929 Y9.4661
G01 X-51.4236 Y9.4228
G01 X-51.4630 Y9.3606
G01 X-51.4917 Y9.3091
G01 X-51.5116 Y9.2697
G01 X-51.5400 Y9.2058
G01 X-51.5622 Y9.1473
G01 X-51.5804 Y9.0913
G01 X-51.5922 Y9.0487
G01 X-51.6083 Y8.9769
G01 X-51.6180 Y8.9188
G01 X-51.6236 Y8.8732
G01 X-51.6288 Y8.8015
G01 X-51.6300 Y8.7500
G01 X-51.6288 Y8.6985
G01 X-51.6249 Y8.6397
G01 X-51.6158 Y8.5667
G01 X-51.6054 Y8.5087
G01 X-51.5922 Y8.4513
G01 X-51.5804 Y8.4087
G01 X-51.5573 Y8.3388
G01 X-51.5400 Y8.2942
G01 X-51.5179 Y8.2436
G01 X-51.4848 Y8.1779
G01 X-51.4554 Y8.1268
G01 X-51.4318 Y8.0895
G01 X-51.3894 Y8.0293
G01 X-51.3529 Y7.9831
G01 X-51.3240 Y7.9496
G01 X-51.2785 Y7.9015
G01 X-51.2304 Y7.8560
G01 X-51.1955 Y7.8259
G01 X-51.1461 Y7.7871
G01 X-51.0905 Y7.7482
G01 X-51.0520 Y7.7238
G01 X-51.0021 Y7.6952
G01 X-50.9364 Y7.6621
G01 X-50.8858 Y7.6400
G01 X-50.8412 Y7.6227
G01 X-50.7713 Y7.5996
G01 X-50.7144 Y7.5843
G01 X-50.6644 Y7.5731
G01 X-50.5988 Y7.5620
G01 X-50.5532 Y7.5564
G01 X-50.4962 Y7.5519
G01 X-50.4226 Y7.5501
G01 X-50.3638 Y7.5519
G01 X-50.3197 Y7.5551
G01 X-50.2467 Y7.5642
G01 X-50.1956 Y7.5731
G01 X-50.1313 Y7.5878
G01 X-50.0746 Y7.6039
G01 X-50.0327 Y7.6178
G01 X-49.9742 Y7.6400
G01 X-49.9236 Y7.6621
G01 X-49.8709 Y7.6883
G01 X-49.8068 Y7.7246
G01 X-49.7572 Y7.7564
G01 X-49.7211 Y7.7818
G01 X-49.6631 Y7.8271
G01 X-49.6187 Y7.8659
G01 X-49.5867 Y7.8963
G01 X-49.5359 Y7.9497
G01 X-46.3576 Y7.9498
G01 X-46.3184 Y7.9512
G01 X-46.2792 Y7.9544
G01 X-46.2403 Y7.9596
G01 X-46.2086 Y7.9652
G01 X-46.1777 Y7.9720
G01 X-46.1398 Y7.9822
G01 X-46.1024 Y7.9941
G01 X-46.0621 Y8.0093
G01 X-46.0295 Y8.0235
G01 X-45.9943 Y8.0409
G01 X-45.9600 Y8.0599
G01 X-45.9266 Y8.0806
G01 X-45.8870 Y8.1082
G01 X-45.8631 Y8.1268
G01 X-45.8331 Y8.1522
G01 X-45.8044 Y8.1790
G01 X-43.8890 Y10.0944
G01 X-43.8622 Y10.1231
G01 X-43.8449 Y10.1431
G01 X-43.8182 Y10.1770
G01 X-43.7906 Y10.2166
G01 X-43.7767 Y10.2385
G01 X-43.7578 Y10.2713
G01 X-43.7335 Y10.3195
G01 X-43.7193 Y10.3521
G01 X-43.7091 Y10.3785
G01 X-43.6964 Y10.4157
G01 X-43.6820 Y10.4677
G01 X-43.6752 Y10.4986
G01 X-43.6696 Y10.5303
G01 X-43.6642 Y10.5710
G01 X-43.6612 Y10.6084
G01 X-43.6597 Y10.6550
G01 X-43.6597 Y36.3297
G01 X-11.7915 Y36.3297
G01 X-3.8902 Y28.4285
G01 X-3.8902 Y26.4601
G01 X-4.2901 Y26.0603
G01 X-4.3356 Y26.0603
G01 X-4.3568 Y26.0799
G01 X-4.3879 Y26.1068
G01 X-4.4334 Y26.1426
G01 X-4.4728 Y26.1705
G01 X-4.5194 Y26.2004
G01 X-4.5650 Y26.2266
G01 X-4.6138 Y26.2515
G01 X-4.6623 Y26.2734
G01 X-4.7125 Y26.2931
G01 X-4.7778 Y26.3147
G01 X-4.8299 Y26.3287
G01 X-4.8826 Y26.3402
G01 X-4.9359 Y26.3491
G01 X-4.9895 Y26.3553
G01 X-5.0434 Y26.3589
G01 X-5.0900 Y26.3600
G01 X-5.1513 Y26.3582
G01 X-5.2051 Y26.3539
G01 X-5.2587 Y26.3469
G01 X-5.3049 Y26.3388
G01 X-5.3501 Y26.3287
G01 X-5.4022 Y26.3147
G01 X-5.4536 Y26.2981
G01 X-5.5076 Y26.2776
G01 X-5.5536 Y26.2575
G01 X-5.6020 Y26.2335
G01 X-5.6492 Y26.2072
G01 X-5.6950 Y26.1786
G01 X-5.7466 Y26.1426
G01 X-5.7821 Y26.1149
G01 X-5.8232 Y26.0799
G01 X-5.8625 Y26.0430
G01 X-5.9000 Y26.0041
G01 X-5.9368 Y25.9621
G01 X-5.9726 Y25.9166
G01 X-6.0005 Y25.8772
G01 X-6.0304 Y25.8306
G01 X-6.0566 Y25.7850
G01 X-6.0815 Y25.7362
G01 X-6.1034 Y25.6877
G01 X-6.1231 Y25.6375
G01 X-6.1404 Y25.5863
G01 X-6.1587 Y25.5201
G01 X-6.1688 Y25.4749
G01 X-6.1791 Y25.4141
G01 X-6.1853 Y25.3605
G01 X-6.1889 Y25.3066
G01 X-6.1900 Y25.2600
G01 X-6.1882 Y25.1987
G01 X-6.1839 Y25.1449
G01 X-6.1769 Y25.0913
G01 X-6.1688 Y25.0451
G01 X-6.1552 Y24.9856
G01 X-6.1404 Y24.9337
G01 X-6.1281 Y24.8964
G01 X-6.1076 Y24.8424
G01 X-6.0875 Y24.7964
G01 X-6.0635 Y24.7480
G01 X-6.0372 Y24.7008
G01 X-6.0086 Y24.6550
G01 X-5.9726 Y24.6034
G01 X-5.9449 Y24.5679
G01 X-5.9099 Y24.5268
G01 X-5.8678 Y24.4822
G01 X-5.8341 Y24.4500
G01 X-5.7921 Y24.4132
G01 X-5.7466 Y24.3774
G01 X-5.6950 Y24.3414
G01 X-5.6492 Y24.3128
G01 X-5.6020 Y24.2865
G01 X-5.5536 Y24.2625
G01 X-5.5041 Y24.2410
G01 X-5.4536 Y24.2219
G01 X-5.4163 Y24.2096
G01 X-5.3644 Y24.1948
G01 X-5.3118 Y24.1827
G01 X-5.2587 Y24.1731
G01 X-5.2034 Y24.1659
G01 X-5.1513 Y24.1618
G01 X-5.0900 Y24.1600
G01 X-5.0287 Y24.1618
G01 X-4.9749 Y24.1661
G01 X-4.9213 Y24.1731
G01 X-4.8751 Y24.1812
G01 X-4.8299 Y24.1913
G01 X-4.7778 Y24.2053
G01 X-4.7264 Y24.2219
G01 X-4.6724 Y24.2424
G01 X-4.6264 Y24.2625
G01 X-4.5780 Y24.2865
G01 X-4.5308 Y24.3128
G01 X-4.4850 Y24.3414
G01 X-4.4334 Y24.3774
G01 X-4.3979 Y24.4051
G01 X-4.3568 Y24.4401
G01 X-4.3356 Y24.4597
G01 X-3.9586 Y24.4597
G01 X-3.9267 Y24.4604
G01 X-3.8875 Y24.4630
G01 X-3.8339 Y24.4696
G01 X-3.7953 Y24.4767
G01 X-3.7571 Y24.4856
G01 X-3.7334 Y24.4922
G01 X-3.6821 Y24.5091
G01 X-3.6456 Y24.5236
G01 X-3.6106 Y24.5395
G01 X-3.5879 Y24.5509
G01 X-3.5536 Y24.5699
G01 X-3.5202 Y24.5906
G01 X-3.4806 Y24.6182
G01 X-3.4567 Y24.6368
G01 X-3.4267 Y24.6622
G01 X-3.3928 Y24.6941
G01 X-2.5241 Y25.5628
G01 X-2.5021 Y25.5858
G01 X-2.4749 Y25.6167
G01 X-2.4482 Y25.6506
G01 X-2.4288 Y25.6780
G01 X-2.4067 Y25.7122
G01 X-2.3878 Y25.7449
G01 X-2.3695 Y25.7806
G01 X-2.3536 Y25.8156
G01 X-2.3391 Y25.8521
G01 X-2.3222 Y25.9034
G01 X-2.3120 Y25.9413
G01 X-2.3038 Y25.9797
G01 X-2.2974 Y26.0185
G01 X-2.2942 Y26.0446
G01 X-2.2912 Y26.0820
G01 X-2.2898 Y26.1213
G01 X-2.2897 Y28.7600
G01 X-2.2904 Y28.7919
G01 X-2.2944 Y28.8458
G01 X-2.2996 Y28.8847
G01 X-2.3052 Y28.9164
G01 X-2.3156 Y28.9616
G01 X-2.3264 Y28.9993
G01 X-2.3341 Y29.0226
G01 X-2.3536 Y29.0730
G01 X-2.3695 Y29.1080
G01 X-2.3809 Y29.1307
G01 X-2.4075 Y29.1777
G01 X-2.4288 Y29.2107
G01 X-2.4482 Y29.2380
G01 X-2.4668 Y29.2619
G01 X-2.4922 Y29.2919
G01 X-2.5241 Y29.3259
G01 X-10.8941 Y37.6959
G01 X-10.9281 Y37.7278
G01 X-10.9581 Y37.7532
G01 X-10.9820 Y37.7718
G01 X-11.0216 Y37.7994
G01 X-11.0549 Y37.8201
G01 X-11.0893 Y37.8391
G01 X-11.1119 Y37.8505
G01 X-11.1470 Y37.8664
G01 X-11.1835 Y37.8809
G01 X-11.2348 Y37.8978
G01 X-11.2727 Y37.9080
G01 X-11.3111 Y37.9162
G01 X-11.3499 Y37.9226
G01 X-11.3889 Y37.9270
G01 X-11.4281 Y37.9295
G01 X-11.4600 Y37.9302
G01 X-57.4885 Y37.9302
G01 X-57.5507 Y37.9924
G01 X-57.5518 Y38.0213
G01 X-57.5547 Y38.0605
G01 X-57.5609 Y38.1141
G01 X-57.5712 Y38.1749
G01 X-57.5813 Y38.2201
G01 X-57.5953 Y38.2722
G01 X-57.6119 Y38.3236
G01 X-57.6324 Y38.3776
G01 X-57.6525 Y38.4236
G01 X-57.6834 Y38.4850
G01 X-57.7104 Y38.5318
G01 X-57.7395 Y38.5772
G01 X-57.7674 Y38.6166
G01 X-57.7951 Y38.6521
G01 X-57.8301 Y38.6932
G01 X-57.8497 Y38.7144
G01 X-57.8498 Y44.5374
G01 X-57.8512 Y44.5766
G01 X-57.8530 Y44.6011
G01 X-57.8596 Y44.6547
G01 X-57.8667 Y44.6933
G01 X-57.8756 Y44.7316
G01 X-57.8822 Y44.7552
G01 X-57.8991 Y44.8065
G01 X-57.9136 Y44.8430
G01 X-57.9295 Y44.8780
G01 X-57.9409 Y44.9007
G01 X-57.9675 Y44.9477
G01 X-57.9888 Y44.9807
G01 X-58.0029 Y45.0007
G01 X-58.0268 Y45.0319
G01 X-58.0522 Y45.0619
G01 X-58.0841 Y45.0959
G01 X-62.3119 Y49.3236
G01 X-62.3100 Y49.3900
G01 X-62.3119 Y49.4562
G01 X-62.3166 Y49.5149
G01 X-62.3220 Y49.5588
G01 X-62.3331 Y49.6244
G01 X-62.3478 Y49.6887
G01 X-62.3639 Y49.7454
G01 X-62.3778 Y49.7873
G01 X-62.4000 Y49.8458
G01 X-62.4284 Y49.9097
G01 X-62.4552 Y49.9621
G01 X-62.4770 Y50.0006
G01 X-62.5164 Y50.0628
G01 X-62.5471 Y50.1061
G01 X-62.5778 Y50.1455
G01 X-62.6160 Y50.1904
G01 X-62.6615 Y50.2385
G01 X-62.7096 Y50.2840
G01 X-62.7445 Y50.3141
G01 X-62.7893 Y50.3494
G01 X-62.8495 Y50.3918
G01 X-62.8880 Y50.4162
G01 X-62.9379 Y50.4448
G01 X-62.9910 Y50.4719
G01 X-63.0576 Y50.5014
G01 X-63.1127 Y50.5222
G01 X-63.1546 Y50.5361
G01 X-63.2256 Y50.5557
G01 X-63.2831 Y50.5683
G01 X-63.3412 Y50.5780
G01 X-63.3868 Y50.5836
G01 X-63.4585 Y50.5888
G01 X-63.5100 Y50.5900
G01 X-63.5615 Y50.5888
G01 X-63.6203 Y50.5849
G01 X-63.6933 Y50.5758
G01 X-63.7444 Y50.5669
G01 X-63.7944 Y50.5557
G01 X-63.8654 Y50.5361
G01 X-63.9212 Y50.5173
G01 X-63.9658 Y50.5000
G01 X-64.0290 Y50.4719
G01 X-64.0691 Y50.4517
G01 X-64.1206 Y50.4230
G01 X-64.1828 Y50.3836
G01 X-64.2307 Y50.3494
G01 X-64.2769 Y50.3129
G01 X-64.3104 Y50.2840
G01 X-64.3637 Y50.2333
G01 X-64.4040 Y50.1904
G01 X-64.4329 Y50.1569
G01 X-64.4729 Y50.1061
G01 X-64.5118 Y50.0505
G01 X-64.5362 Y50.0120
G01 X-64.5648 Y49.9621
G01 X-64.5979 Y49.8964
G01 X-64.6200 Y49.8458
G01 X-64.6373 Y49.8012
G01 X-64.6561 Y49.7454
G01 X-64.6757 Y49.6744
G01 X-64.6869 Y49.6244
G01 X-64.6958 Y49.5733
G01 X-64.7036 Y49.5132
G01 X-64.7088 Y49.4415
G01 X-64.7100 Y49.3900
G01 X-64.7087 Y49.3385
G00 Z1.0000
G00 X-69.6888 Y51.8834
G01 F76.20
G01 Z-0.1500
G01 F150.00
G01 X-69.6839 Y51.8149
G01 X-69.6769 Y51.7613
G01 X-69.6673 Y51.7082
G01 X-69.6552 Y51.6556
G01 X-69.6404 Y51.6037
G01 X-69.6231 Y51.5525
G01 X-69.6076 Y51.5124
G01 X-69.5875 Y51.4664
G01 X-69.5635 Y51.4180
G01 X-69.5296 Y51.3582
G01 X-69.5005 Y51.3128
G01 X-69.4726 Y51.2734
G01 X-69.4449 Y51.2379
G01 X-69.4099 Y51.1968
G01 X-69.3678 Y51.1522
G01 X-69.3341 Y51.1200
G01 X-69.2821 Y51.0751
G01 X-69.2466 Y51.0474
G01 X-69.2072 Y51.0195
G01 X-69.1606 Y50.9896
G01 X-69.1150 Y50.9634
G01 X-69.0662 Y50.9385
G01 X-69.0177 Y50.9166
G01 X-68.9536 Y50.8919
G01 X-68.9022 Y50.8753
G01 X-68.8501 Y50.8613
G01 X-68.8049 Y50.8512
G01 X-68.7587 Y50.8431
G01 X-68.7034 Y50.8359
G01 X-68.6366 Y50.8311
G01 X-68.5900 Y50.8300
G01 X-68.5287 Y50.8318
G01 X-68.4749 Y50.8361
G01 X-68.4359 Y50.8409
G01 X-68.3826 Y50.8498
G01 X-68.3156 Y50.8648
G01 X-68.2637 Y50.8796
G01 X-68.2125 Y50.8969
G01 X-68.1623 Y50.9166
G01 X-68.1138 Y50.9385
G01 X-68.0780 Y50.9565
G01 X-68.0308 Y50.9828
G01 X-67.9850 Y51.0114
G01 X-67.9334 Y51.0474
G01 X-67.8865 Y51.0844
G01 X-67.8568 Y51.1101
G01 X-67.8356 Y51.1297
G01 X-64.7100 Y51.1297
G01 X-64.7097 Y51.0161
G01 X-64.7087 Y51.0022
G01 X-64.7048 Y50.9746
G01 X-64.6984 Y50.9474
G01 X-64.6895 Y50.9210
G01 X-64.6779 Y50.8949
G01 X-64.6634 Y50.8694
G01 X-64.6464 Y50.8454
G01 X-64.6273 Y50.8231
G01 X-64.6060 Y50.8029
G01 X-64.5829 Y50.7848
G01 X-64.5581 Y50.7691
G01 X-64.5318 Y50.7559
G01 X-64.5059 Y50.7457
G01 X-64.4791 Y50.7381
G01 X-64.4654 Y50.7352
G01 X-64.4378 Y50.7313
G01 X-64.4100 Y50.7300
G01 X-62.6100 Y50.7300
G01 X-62.5822 Y50.7313
G01 X-62.5683 Y50.7329
G01 X-62.5409 Y50.7381
G01 X-62.5141 Y50.7457
G01 X-62.4882 Y50.7559
G01 X-62.4749 Y50.7621
G01 X-62.4493 Y50.7766
G01 X-62.4371 Y50.7848
G01 X-62.4140 Y50.8029
G01 X-62.4031 Y50.8127
G01 X-62.3927 Y50.8231
G01 X-62.3736 Y50.8454
G01 X-62.3566 Y50.8694
G01 X-62.3421 Y50.8949
G01 X-62.3359 Y50.9082
G01 X-62.3257 Y50.9341
G01 X-62.3181 Y50.9609
G01 X-62.3129 Y50.9883
G01 X-62.3113 Y51.0022
G01 X-62.3100 Y51.0300
G01 X-62.3100 Y52.8300
G01 X-62.3113 Y52.8578
G01 X-62.3129 Y52.8717
G01 X-62.3181 Y52.8991
G01 X-62.3257 Y52.9259
G01 X-62.3359 Y52.9518
G01 X-62.3421 Y52.9651
G01 X-62.3566 Y52.9906
G01 X-62.3736 Y53.0146
G01 X-62.3927 Y53.0369
G01 X-62.4031 Y53.0473
G01 X-62.4140 Y53.0571
G01 X-62.4371 Y53.0752
G01 X-62.4493 Y53.0834
G01 X-62.4749 Y53.0979
G01 X-62.4882 Y53.1041
G01 X-62.5141 Y53.1143
G01 X-62.5409 Y53.1219
G01 X-62.5683 Y53.1271
G01 X-62.5822 Y53.1287
G01 X-62.6100 Y53.1300
G01 X-64.4239 Y53.1297
G01 X-64.4517 Y53.1271
G01 X-64.4791 Y53.1219
G01 X-64.4926 Y53.1184
G01 X-64.5190 Y53.1095
G01 X-64.5318 Y53.1041
G01 X-64.5581 Y53.0909
G01 X-64.5829 Y53.0752
G01 X-64.6060 Y53.0571
G01 X-64.6273 Y53.0369
G01 X-64.6464 Y53.0147
G01 X-64.6552 Y53.0029
G01 X-64.6709 Y52.9781
G01 X-64.6841 Y52.9519
G01 X-64.6943 Y52.9259
G01 X-64.7019 Y52.8991
G01 X-64.7048 Y52.8854
G01 X-64.7087 Y52.8578
G01 X-64.7097 Y52.8439
G01 X-64.7100 Y52.7303
G01 X-67.8356 Y52.7303
G01 X-67.8568 Y52.7499
G01 X-67.8879 Y52.7768
G01 X-67.9334 Y52.8126
G01 X-67.9850 Y52.8486
G01 X-68.0308 Y52.8772
G01 X-68.0780 Y52.9035
G01 X-68.1138 Y52.9215
G01 X-68.1623 Y52.9434
G01 X-68.2125 Y52.9631
G01 X-68.2637 Y52.9804
G01 X-68.3156 Y52.9952
G01 X-68.3751 Y53.0088
G01 X-68.4359 Y53.0191
G01 X-68.4895 Y53.0253
G01 X-68.5434 Y53.0289
G01 X-68.5900 Y53.0300
G01 X-68.6366 Y53.0289
G01 X-68.6905 Y53.0253
G01 X-68.7441 Y53.0191
G01 X-68.8049 Y53.0088
G01 X-68.8501 Y52.9987
G01 X-68.9163 Y52.9804
G01 X-68.9675 Y52.9631
G01 X-69.0177 Y52.9434
G01 X-69.0662 Y52.9215
G01 X-69.1150 Y52.8966
G01 X-69.1618 Y52.8696
G01 X-69.2072 Y52.8405
G01 X-69.2466 Y52.8126
G01 X-69.2935 Y52.7756
G01 X-69.3341 Y52.7400
G01 X-69.3678 Y52.7078
G01 X-69.4000 Y52.6741
G01 X-69.4368 Y52.6321
G01 X-69.4726 Y52.5866
G01 X-69.5005 Y52.5472
G01 X-69.5304 Y52.5006
G01 X-69.5566 Y52.4550
G01 X-69.5815 Y52.4062
G01 X-69.6034 Y52.3577
G01 X-69.6281 Y52.2936
G01 X-69.6447 Y52.2422
G01 X-69.6587 Y52.1901
G01 X-69.6688 Y52.1449
G01 X-69.6791 Y52.0841
G01 X-69.6853 Y52.0305
G01 X-69.6889 Y51.9766
G01 X-69.6900 Y51.9300
G01 X-69.6888 Y51.8834
G00 Z1.0000
G00 X-68.0744 Y31.1403
G01 F76.20
G01 Z-0.1500
G01 F150.00
G01 X-70.9000 Y31.1403
G01 X-70.9003 Y31.5539
G01 X-70.9029 Y31.5817
G01 X-70.9052 Y31.5954
G01 X-70.9116 Y31.6226
G01 X-70.9157 Y31.6359
G01 X-70.9259 Y31.6619
G01 X-70.9322 Y31.6751
G01 X-70.9466 Y31.7007
G01 X-70.9636 Y31.7247
G01 X-70.9729 Y31.7360
G01 X-70.9931 Y31.7573
G01 X-71.0154 Y31.7764
G01 X-71.0271 Y31.7852
G01 X-71.0519 Y31.8009
G01 X-71.0649 Y31.8079
G01 X-71.0910 Y31.8195
G01 X-71.1174 Y31.8284
G01 X-71.1309 Y31.8319
G01 X-71.1583 Y31.8371
G01 X-71.1861 Y31.8397
G01 X-71.2000 Y31.8400
G01 X-73.6000 Y31.8400
G01 X-73.6139 Y31.8397
G01 X-73.6417 Y31.8371
G01 X-73.6691 Y31.8319
G01 X-73.6959 Y31.8243
G01 X-73.7218 Y31.8141
G01 X-73.7351 Y31.8079
G01 X-73.7607 Y31.7934
G01 X-73.7729 Y31.7852
G01 X-73.7847 Y31.7764
G01 X-73.8069 Y31.7573
G01 X-73.8271 Y31.7360
G01 X-73.8364 Y31.7246
G01 X-73.8534 Y31.7006
G01 X-73.8609 Y31.6880
G01 X-73.8679 Y31.6751
G01 X-73.8795 Y31.6490
G01 X-73.8884 Y31.6226
G01 X-73.8948 Y31.5954
G01 X-73.8971 Y31.5817
G01 X-73.8997 Y31.5539
G01 X-73.9000 Y29.1400
G01 X-73.8987 Y29.1122
G01 X-73.8971 Y29.0983
G01 X-73.8919 Y29.0709
G01 X-73.8843 Y29.0441
G01 X-73.8741 Y29.0182
G01 X-73.8679 Y29.0049
G01 X-73.8609 Y28.9919
G01 X-73.8452 Y28.9671
G01 X-73.8364 Y28.9553
G01 X-73.8173 Y28.9331
G01 X-73.8069 Y28.9227
G01 X-73.7846 Y28.9036
G01 X-73.7729 Y28.8948
G01 X-73.7481 Y28.8791
G01 X-73.7351 Y28.8721
G01 X-73.7090 Y28.8605
G01 X-73.6826 Y28.8516
G01 X-73.6691 Y28.8481
G01 X-73.6554 Y28.8452
G01 X-73.6278 Y28.8413
G01 X-73.6000 Y28.8400
G01 X-71.2000 Y28.8400
G01 X-71.1722 Y28.8413
G01 X-71.1583 Y28.8429
G01 X-71.1309 Y28.8481
G01 X-71.1174 Y28.8516
G01 X-71.0910 Y28.8605
G01 X-71.0649 Y28.8721
G01 X-71.0519 Y28.8791
G01 X-71.0393 Y28.8866
G01 X-71.0154 Y28.9036
G01 X-70.9931 Y28.9227
G01 X-70.9729 Y28.9440
G01 X-70.9636 Y28.9554
G01 X-70.9548 Y28.9671
G01 X-70.9391 Y28.9919
G01 X-70.9321 Y29.0049
G01 X-70.9205 Y29.0310
G01 X-70.9116 Y29.0574
G01 X-70.9052 Y29.0846
G01 X-70.9029 Y29.0983
G01 X-70.9003 Y29.1261
G01 X-70.9000 Y29.5397
G01 X-68.1203 Y29.5397
G01 X-68.1203 Y28.4350
G01 X-68.1188 Y28.3884
G01 X-68.1156 Y28.3492
G01 X-68.1104 Y28.3103
G01 X-68.1062 Y28.2861
G01 X-68.0944 Y28.2334
G01 X-68.0836 Y28.1957
G01 X-68.0759 Y28.1724
G01 X-68.0607 Y28.1321
G01 X-68.0406 Y28.0870
G01 X-68.0291 Y28.0643
G01 X-68.0101 Y28.0300
G01 X-67.9812 Y27.9843
G01 X-67.9583 Y27.9524
G01 X-67.9339 Y27.9217
G01 X-67.9178 Y27.9031
G01 X-67.8859 Y27.8691
G01 X-63.4409 Y23.4241
G01 X-63.4178 Y23.4021
G01 X-63.3769 Y23.3668
G01 X-63.3530 Y23.3482
G01 X-63.3257 Y23.3288
