(G-CODE GENERATED BY FLATCAM v8.99 - www.flatcam.org - Version Date: 2019/12/15)

(Name: drill_10)
(Type: G-code from Excellon)
(Units: MM)

(Created on Sunday, 06 September 2020 at 20:21)

(Feedrate: 50.0 mm/min)
(Feedrate rapids 76.2 mm/min)

(Z_Cut: -2.0 mm)
(Z_Move: 1.0 mm)
(Z Toolchange: 20.0 mm)
(X,Y Toolchange: 0.0000, 0.0000 mm)
(Z Start: None mm)
(Z End: 20.0 mm)
(Steps per circle: 128)
(Preprocessor Excellon: default)

(X range:    2.1500 ...   73.0000  mm)
(Y range:    1.8000 ...   55.2300  mm)

(Spindle Speed: 12000.0 RPM)
G21
G90
G94




G01 F50.00
G00 Z1.0000

M03 S12000.0
G00 X-21.6000 Y32.8800
G01 Z-2.0000
G01 Z0
G00 Z1.0000
G00 X-24.1400 Y32.8800
G01 Z-2.0000
G01 Z0
G00 Z1.0000
G00 X-63.5100 Y49.3900
G01 Z-2.0000
G01 Z0
G00 Z1.0000
G00 X-63.5100 Y51.9300
G01 Z-2.0000
G01 Z0
G00 Z1.0000
M03 S12000.0
G00 X-27.5700 Y26.5300
G01 Z-2.0000
G01 Z0
G00 Z1.0000
G00 X-27.5700 Y23.9900
G01 Z-2.0000
G01 Z0
G00 Z1.0000
G00 X-27.5700 Y21.4500
G01 Z-2.0000
G01 Z0
G00 Z1.0000
G00 X-27.5700 Y18.9100
G01 Z-2.0000
G01 Z0
G00 Z1.0000
G00 X-27.5700 Y16.3700
G01 Z-2.0000
G01 Z0
G00 Z1.0000
G00 X-27.5700 Y13.8300
G01 Z-2.0000
G01 Z0
G00 Z1.0000
G00 X-27.5700 Y11.2900
G01 Z-2.0000
G01 Z0
G00 Z1.0000
G00 X-27.5700 Y8.7500
G01 Z-2.0000
G01 Z0
G00 Z1.0000
G00 X-50.4300 Y8.7500
G01 Z-2.0000
G01 Z0
G00 Z1.0000
G00 X-50.4300 Y11.2900
G01 Z-2.0000
G01 Z0
G00 Z1.0000
G00 X-50.4300 Y13.8300
G01 Z-2.0000
G01 Z0
G00 Z1.0000
G00 X-50.4300 Y16.3700
G01 Z-2.0000
G01 Z0
G00 Z1.0000
G00 X-50.4300 Y18.9100
G01 Z-2.0000
G01 Z0
G00 Z1.0000
G00 X-50.4300 Y21.4500
G01 Z-2.0000
G01 Z0
G00 Z1.0000
G00 X-50.4300 Y23.9900
G01 Z-2.0000
G01 Z0
G00 Z1.0000
G00 X-50.4300 Y26.5300
G01 Z-2.0000
G01 Z0
G00 Z1.0000
M03 S12000.0
G00 X-57.1600 Y9.5350
G01 Z-2.0000
G01 Z0
G00 Z1.0000
G00 X-61.6600 Y9.5350
G01 Z-2.0000
G01 Z0
G00 Z1.0000
G00 X-61.6600 Y3.0350
G01 Z-2.0000
G01 Z0
G00 Z1.0000
G00 X-57.1600 Y3.0350
G01 Z-2.0000
G01 Z0
G00 Z1.0000
M03 S12000.0
G00 X-23.9500 Y49.4300
G01 Z-2.0000
G01 Z0
G00 Z1.0000
G00 X-23.9500 Y44.4300
G01 Z-2.0000
G01 Z0
G00 Z1.0000
G00 X-6.3600 Y20.8150
G01 Z-2.0000
G01 Z0
G00 Z1.0000
G00 X-6.3600 Y17.3150
G01 Z-2.0000
G01 Z0
G00 Z1.0000
G00 X-6.3600 Y13.8150
G01 Z-2.0000
G01 Z0
G00 Z1.0000
G00 X-6.3600 Y10.3150
G01 Z-2.0000
G01 Z0
G00 Z1.0000
G00 X-6.3600 Y6.8150
G01 Z-2.0000
G01 Z0
G00 Z1.0000
G00 X-6.3600 Y3.3150
G01 Z-2.0000
G01 Z0
G00 Z1.0000
G00 X-69.8600 Y2.4000
G01 Z-2.0000
G01 Z0
G00 Z1.0000
G00 X-69.8600 Y5.9000
G01 Z-2.0000
G01 Z0
G00 Z1.0000
G00 X-69.8600 Y9.4000
G01 Z-2.0000
G01 Z0
G00 Z1.0000
G00 X-69.8600 Y12.9000
G01 Z-2.0000
G01 Z0
G00 Z1.0000
G00 X-72.4000 Y17.6400
G01 Z-2.0000
G01 Z0
G00 Z1.0000
G00 X-72.4000 Y30.3400
G01 Z-2.0000
G01 Z0
G00 Z1.0000
G00 X-53.3500 Y39.2300
G01 Z-2.0000
G01 Z0
G00 Z1.0000
G00 X-53.3500 Y54.6300
G01 Z-2.0000
G01 Z0
G00 Z1.0000
M03 S12000.0
G00 X-5.0900 Y49.3900
G01 Z-2.0000
G01 Z0
G00 Z1.0000
G00 X-5.0900 Y44.3100
G01 Z-2.0000
G01 Z0
G00 Z1.0000
M05
G00 Z20.00
G00 X0.0 Y0.0

