(G-CODE GENERATED BY FLATCAM v8.99 - www.flatcam.org - Version Date: 2019/12/15)

(Name: drill_08)
(Type: G-code from Excellon)
(Units: MM)

(Created on Sunday, 06 September 2020 at 20:21)

(Feedrate: 50.0 mm/min)
(Feedrate rapids 76.2 mm/min)

(Z_Cut: -2.0 mm)
(Z_Move: 1.0 mm)
(Z Toolchange: 20.0 mm)
(X,Y Toolchange: 0.0000, 0.0000 mm)
(Z Start: None mm)
(Z End: 20.0 mm)
(Steps per circle: 128)
(Preprocessor Excellon: default)

(X range:    2.1500 ...   73.0000  mm)
(Y range:    1.8000 ...   55.2300  mm)

(Spindle Speed: 12000.0 RPM)
G21
G90
G94




G01 F50.00
G00 Z1.0000

M03 S12000.0
G00 X-24.1400 Y4.9400
G01 Z-2.0000
G01 Z0
G00 Z1.0000
G00 X-11.4400 Y4.9400
G01 Z-2.0000
G01 Z0
G00 Z1.0000
G00 X-11.4400 Y11.2900
G01 Z-2.0000
G01 Z0
G00 Z1.0000
G00 X-24.1400 Y11.2900
G01 Z-2.0000
G01 Z0
G00 Z1.0000
G00 X-22.8700 Y15.1000
G01 Z-2.0000
G01 Z0
G00 Z1.0000
G00 X-17.7900 Y17.6400
G01 Z-2.0000
G01 Z0
G00 Z1.0000
G00 X-22.8700 Y27.8000
G01 Z-2.0000
G01 Z0
G00 Z1.0000
G00 X-17.7900 Y30.3400
G01 Z-2.0000
G01 Z0
G00 Z1.0000
G00 X-15.2500 Y32.8800
G01 Z-2.0000
G01 Z0
G00 Z1.0000
G00 X-12.7100 Y27.8000
G01 Z-2.0000
G01 Z0
G00 Z1.0000
G00 X-12.7100 Y25.2600
G01 Z-2.0000
G01 Z0
G00 Z1.0000
G00 X-5.0900 Y25.2600
G01 Z-2.0000
G01 Z0
G00 Z1.0000
G00 X-5.0900 Y27.8000
G01 Z-2.0000
G01 Z0
G00 Z1.0000
G00 X-2.5500 Y32.8800
G01 Z-2.0000
G01 Z0
G00 Z1.0000
G00 X-3.8200 Y54.4700
G01 Z-2.0000
G01 Z0
G00 Z1.0000
G00 X-19.0600 Y54.4700
G01 Z-2.0000
G01 Z0
G00 Z1.0000
G00 X-58.6500 Y53.2000
G01 Z-2.0000
G01 Z0
G00 Z1.0000
G00 X-68.5900 Y51.9300
G01 Z-2.0000
G01 Z0
G00 Z1.0000
G00 X-68.5900 Y39.2300
G01 Z-2.0000
G01 Z0
G00 Z1.0000
G00 X-58.6500 Y37.9600
G01 Z-2.0000
G01 Z0
G00 Z1.0000
G00 X-67.3200 Y30.3400
G01 Z-2.0000
G01 Z0
G00 Z1.0000
G00 X-62.2400 Y27.1650
G01 Z-2.0000
G01 Z0
G00 Z1.0000
G00 X-59.7000 Y27.1650
G01 Z-2.0000
G01 Z0
G00 Z1.0000
G00 X-54.6200 Y26.5300
G01 Z-2.0000
G01 Z0
G00 Z1.0000
G00 X-59.7000 Y19.5450
G01 Z-2.0000
G01 Z0
G00 Z1.0000
G00 X-62.2400 Y19.5450
G01 Z-2.0000
G01 Z0
G00 Z1.0000
G00 X-67.3200 Y17.6400
G01 Z-2.0000
G01 Z0
G00 Z1.0000
G00 X-54.6200 Y13.8300
G01 Z-2.0000
G01 Z0
G00 Z1.0000
M05
G00 Z20.00
G00 X0.0 Y0.0

